P3
200 200
255
51 51 51
51 51 51
51 51 51
51 51 51
51 51 51
51 51 51
51 51 51
51 51 51
51 51 51
51 51 51
51 51 51
51 51 51
51 51 51
51 51 51
51 51 51
51 51 51
51 51 51
51 51 51
51 51 51
51 51 51
51 51 51
51 51 51
51 51 51
51 51 51
51 51 51
51 51 51
51 51 51
51 51 51
51 51 51
51 51 51
51 51 51
51 51 51
51 51 51
51 51 51
51 51 51
51 51 51
51 51 51
51 51 51
51 51 51
51 51 51
51 51 51
51 51 51
51 51 51
51 51 51
51 51 51
51 51 51
51 51 51
51 51 51
51 51 51
51 51 51
51 51 51
51 51 51
51 51 51
51 51 51
51 51 51
51 51 51
51 51 51
51 51 51
51 51 51
51 51 51
51 51 51
51 51 51
51 51 51
51 51 51
51 51 51
51 51 51
51 51 51
51 51 51
51 51 51
51 51 51
51 51 51
51 51 51
51 51 51
51 51 51
51 51 51
51 51 51
51 51 51
51 51 51
51 51 51
51 51 51
51 51 51
51 51 51
51 51 51
51 51 51
51 51 51
51 51 51
51 51 51
51 51 51
51 51 51
51 51 51
51 51 51
51 51 51
51 51 51
51 51 51
51 51 51
51 51 51
51 51 51
51 51 51
51 51 51
51 51 51
51 51 51
51 51 51
51 51 51
51 51 51
51 51 51
51 51 51
51 51 51
51 51 51
51 51 51
51 51 51
51 51 51
51 51 51
51 51 51
51 51 51
51 51 51
51 51 51
51 51 51
51 51 51
51 51 51
51 51 51
51 51 51
51 51 51
51 51 51
51 51 51
51 51 51
51 51 51
51 51 51
51 51 51
51 51 51
51 51 51
51 51 51
51 51 51
51 51 51
51 51 51
51 51 51
51 51 51
51 51 51
51 51 51
51 51 51
51 51 51
51 51 51
51 51 51
51 51 51
51 51 51
51 51 51
51 51 51
51 51 51
51 51 51
51 51 51
51 51 51
51 51 51
51 51 51
51 51 51
51 51 51
51 51 51
51 51 51
51 51 51
51 51 51
51 51 51
51 51 51
51 51 51
51 51 51
51 51 51
51 51 51
51 51 51
51 51 51
51 51 51
51 51 51
51 51 51
51 51 51
51 51 51
51 51 51
51 51 51
51 51 51
51 51 51
51 51 51
51 51 51
51 51 51
51 51 51
51 51 51
51 51 51
51 51 51
51 51 51
51 51 51
51 51 51
51 51 51
51 51 51
51 51 51
51 51 51
51 51 51
51 51 51
51 51 51
51 51 51
51 51 51
51 51 51
51 51 51
51 51 51
51 51 51
51 51 51
51 51 51
51 51 51
51 51 51
51 51 51
51 51 51
51 51 51
51 51 51
51 51 51
51 51 51
51 51 51
51 51 51
51 51 51
51 51 51
51 51 51
51 51 51
51 51 51
51 51 51
51 51 51
51 51 51
51 51 51
51 51 51
51 51 51
51 51 51
51 51 51
51 51 51
51 51 51
51 51 51
51 51 51
51 51 51
51 51 51
51 51 51
51 51 51
51 51 51
51 51 51
51 51 51
51 51 51
51 51 51
51 51 51
51 51 51
51 51 51
51 51 51
51 51 51
51 51 51
51 51 51
51 51 51
51 51 51
51 51 51
51 51 51
51 51 51
51 51 51
51 51 51
51 51 51
51 51 51
51 51 51
51 51 51
51 51 51
51 51 51
51 51 51
51 51 51
51 51 51
51 51 51
51 51 51
51 51 51
51 51 51
51 51 51
51 51 51
51 51 51
51 51 51
51 51 51
51 51 51
51 51 51
51 51 51
51 51 51
51 51 51
51 51 51
51 51 51
51 51 51
51 51 51
51 51 51
51 51 51
51 51 51
51 51 51
51 51 51
51 51 51
51 51 51
51 51 51
51 51 51
51 51 51
51 51 51
51 51 51
51 51 51
51 51 51
51 51 51
51 51 51
51 51 51
51 51 51
51 51 51
51 51 51
51 51 51
51 51 51
51 51 51
51 51 51
51 51 51
51 51 51
51 51 51
51 51 51
51 51 51
51 51 51
51 51 51
51 51 51
51 51 51
51 51 51
51 51 51
51 51 51
51 51 51
51 51 51
51 51 51
51 51 51
51 51 51
51 51 51
51 51 51
51 51 51
51 51 51
51 51 51
51 51 51
51 51 51
51 51 51
51 51 51
51 51 51
51 51 51
51 51 51
51 51 51
51 51 51
51 51 51
51 51 51
51 51 51
51 51 51
51 51 51
51 51 51
51 51 51
51 51 51
51 51 51
51 51 51
51 51 51
51 51 51
51 51 51
51 51 51
51 51 51
51 51 51
51 51 51
51 51 51
51 51 51
51 51 51
51 51 51
51 51 51
51 51 51
51 51 51
51 51 51
51 51 51
51 51 51
51 51 51
51 51 51
51 51 51
51 51 51
51 51 51
51 51 51
51 51 51
51 51 51
51 51 51
51 51 51
51 51 51
51 51 51
51 51 51
51 51 51
51 51 51
51 51 51
51 51 51
51 51 51
51 51 51
51 51 51
51 51 51
51 51 51
51 51 51
51 51 51
51 51 51
51 51 51
51 51 51
51 51 51
51 51 51
51 51 51
51 51 51
51 51 51
51 51 51
51 51 51
51 51 51
51 51 51
51 51 51
51 51 51
51 51 51
51 51 51
51 51 51
51 51 51
51 51 51
51 51 51
51 51 51
51 51 51
51 51 51
51 51 51
51 51 51
51 51 51
51 51 51
51 51 51
51 51 51
51 51 51
51 51 51
51 51 51
51 51 51
51 51 51
51 51 51
51 51 51
51 51 51
51 51 51
51 51 51
51 51 51
51 51 51
51 51 51
51 51 51
51 51 51
51 51 51
51 51 51
51 51 51
51 51 51
51 51 51
51 51 51
51 51 51
51 51 51
51 51 51
51 51 51
51 51 51
51 51 51
51 51 51
51 51 51
51 51 51
51 51 51
51 51 51
51 51 51
51 51 51
51 51 51
51 51 51
51 51 51
51 51 51
51 51 51
51 51 51
51 51 51
51 51 51
51 51 51
51 51 51
51 51 51
51 51 51
51 51 51
51 51 51
51 51 51
51 51 51
51 51 51
51 51 51
51 51 51
51 51 51
51 51 51
51 51 51
51 51 51
51 51 51
51 51 51
51 51 51
51 51 51
51 51 51
51 51 51
51 51 51
51 51 51
51 51 51
51 51 51
51 51 51
51 51 51
51 51 51
51 51 51
51 51 51
51 51 51
51 51 51
51 51 51
51 51 51
51 51 51
51 51 51
51 51 51
51 51 51
51 51 51
51 51 51
51 51 51
51 51 51
51 51 51
51 51 51
51 51 51
51 51 51
51 51 51
51 51 51
51 51 51
51 51 51
51 51 51
51 51 51
51 51 51
51 51 51
51 51 51
51 51 51
51 51 51
51 51 51
51 51 51
51 51 51
51 51 51
51 51 51
51 51 51
51 51 51
51 51 51
51 51 51
51 51 51
51 51 51
51 51 51
51 51 51
51 51 51
51 51 51
51 51 51
51 51 51
51 51 51
51 51 51
51 51 51
51 51 51
51 51 51
51 51 51
51 51 51
51 51 51
51 51 51
51 51 51
51 51 51
51 51 51
51 51 51
51 51 51
51 51 51
51 51 51
51 51 51
51 51 51
51 51 51
51 51 51
51 51 51
51 51 51
51 51 51
51 51 51
51 51 51
51 51 51
51 51 51
51 51 51
51 51 51
51 51 51
51 51 51
51 51 51
51 51 51
51 51 51
51 51 51
51 51 51
51 51 51
51 51 51
51 51 51
51 51 51
51 51 51
51 51 51
51 51 51
51 51 51
51 51 51
51 51 51
51 51 51
51 51 51
51 51 51
51 51 51
51 51 51
51 51 51
51 51 51
51 51 51
51 51 51
51 51 51
51 51 51
51 51 51
51 51 51
51 51 51
51 51 51
51 51 51
51 51 51
51 51 51
51 51 51
51 51 51
51 51 51
51 51 51
51 51 51
51 51 51
51 51 51
51 51 51
51 51 51
51 51 51
51 51 51
51 51 51
51 51 51
51 51 51
51 51 51
51 51 51
51 51 51
51 51 51
51 51 51
51 51 51
51 51 51
51 51 51
51 51 51
51 51 51
51 51 51
51 51 51
51 51 51
51 51 51
51 51 51
51 51 51
51 51 51
51 51 51
51 51 51
51 51 51
51 51 51
51 51 51
51 51 51
51 51 51
51 51 51
51 51 51
51 51 51
51 51 51
51 51 51
51 51 51
51 51 51
51 51 51
51 51 51
51 51 51
51 51 51
51 51 51
51 51 51
51 51 51
51 51 51
51 51 51
51 51 51
51 51 51
51 51 51
51 51 51
51 51 51
51 51 51
51 51 51
51 51 51
51 51 51
51 51 51
51 51 51
51 51 51
51 51 51
51 51 51
51 51 51
51 51 51
51 51 51
51 51 51
51 51 51
51 51 51
51 51 51
51 51 51
51 51 51
51 51 51
51 51 51
51 51 51
51 51 51
51 51 51
51 51 51
51 51 51
51 51 51
51 51 51
51 51 51
51 51 51
51 51 51
51 51 51
51 51 51
51 51 51
51 51 51
51 51 51
51 51 51
51 51 51
51 51 51
51 51 51
51 51 51
51 51 51
51 51 51
51 51 51
51 51 51
51 51 51
51 51 51
51 51 51
51 51 51
51 51 51
51 51 51
51 51 51
51 51 51
51 51 51
51 51 51
51 51 51
51 51 51
51 51 51
51 51 51
51 51 51
51 51 51
51 51 51
51 51 51
51 51 51
51 51 51
51 51 51
51 51 51
51 51 51
51 51 51
51 51 51
51 51 51
51 51 51
51 51 51
51 51 51
51 51 51
51 51 51
51 51 51
51 51 51
51 51 51
51 51 51
51 51 51
51 51 51
51 51 51
51 51 51
51 51 51
51 51 51
51 51 51
51 51 51
51 51 51
51 51 51
51 51 51
51 51 51
51 51 51
51 51 51
51 51 51
51 51 51
51 51 51
51 51 51
51 51 51
51 51 51
51 51 51
51 51 51
51 51 51
51 51 51
51 51 51
51 51 51
51 51 51
51 51 51
51 51 51
51 51 51
51 51 51
51 51 51
51 51 51
51 51 51
51 51 51
51 51 51
51 51 51
51 51 51
51 51 51
51 51 51
51 51 51
51 51 51
51 51 51
51 51 51
51 51 51
51 51 51
51 51 51
51 51 51
51 51 51
51 51 51
51 51 51
51 51 51
51 51 51
51 51 51
51 51 51
51 51 51
51 51 51
51 51 51
51 51 51
51 51 51
51 51 51
51 51 51
51 51 51
51 51 51
51 51 51
51 51 51
51 51 51
51 51 51
51 51 51
51 51 51
51 51 51
51 51 51
51 51 51
51 51 51
51 51 51
51 51 51
51 51 51
51 51 51
51 51 51
51 51 51
51 51 51
51 51 51
51 51 51
51 51 51
51 51 51
51 51 51
51 51 51
51 51 51
51 51 51
51 51 51
51 51 51
51 51 51
51 51 51
51 51 51
51 51 51
51 51 51
51 51 51
51 51 51
51 51 51
51 51 51
51 51 51
51 51 51
51 51 51
51 51 51
51 51 51
51 51 51
51 51 51
51 51 51
51 51 51
51 51 51
51 51 51
51 51 51
51 51 51
51 51 51
51 51 51
51 51 51
51 51 51
51 51 51
51 51 51
51 51 51
51 51 51
51 51 51
51 51 51
51 51 51
51 51 51
51 51 51
51 51 51
51 51 51
51 51 51
51 51 51
51 51 51
51 51 51
51 51 51
51 51 51
51 51 51
51 51 51
51 51 51
51 51 51
51 51 51
51 51 51
51 51 51
51 51 51
51 51 51
51 51 51
51 51 51
51 51 51
51 51 51
51 51 51
51 51 51
51 51 51
51 51 51
51 51 51
51 51 51
51 51 51
51 51 51
51 51 51
51 51 51
51 51 51
51 51 51
51 51 51
51 51 51
51 51 51
51 51 51
51 51 51
51 51 51
51 51 51
51 51 51
51 51 51
51 51 51
51 51 51
51 51 51
51 51 51
51 51 51
51 51 51
51 51 51
51 51 51
51 51 51
51 51 51
51 51 51
51 51 51
51 51 51
51 51 51
51 51 51
51 51 51
51 51 51
51 51 51
51 51 51
51 51 51
51 51 51
51 51 51
51 51 51
51 51 51
51 51 51
51 51 51
51 51 51
51 51 51
51 51 51
51 51 51
51 51 51
51 51 51
51 51 51
51 51 51
51 51 51
51 51 51
51 51 51
51 51 51
51 51 51
51 51 51
51 51 51
51 51 51
51 51 51
51 51 51
51 51 51
51 51 51
51 51 51
51 51 51
51 51 51
51 51 51
51 51 51
51 51 51
51 51 51
51 51 51
51 51 51
51 51 51
51 51 51
51 51 51
51 51 51
51 51 51
51 51 51
51 51 51
51 51 51
51 51 51
51 51 51
51 51 51
51 51 51
51 51 51
51 51 51
51 51 51
51 51 51
51 51 51
51 51 51
51 51 51
51 51 51
51 51 51
51 51 51
51 51 51
51 51 51
51 51 51
51 51 51
51 51 51
51 51 51
51 51 51
51 51 51
51 51 51
51 51 51
51 51 51
51 51 51
51 51 51
51 51 51
51 51 51
51 51 51
51 51 51
51 51 51
51 51 51
51 51 51
51 51 51
51 51 51
51 51 51
51 51 51
51 51 51
51 51 51
51 51 51
51 51 51
51 51 51
51 51 51
51 51 51
51 51 51
51 51 51
51 51 51
51 51 51
51 51 51
51 51 51
51 51 51
51 51 51
51 51 51
51 51 51
51 51 51
51 51 51
51 51 51
51 51 51
51 51 51
51 51 51
51 51 51
51 51 51
51 51 51
51 51 51
51 51 51
51 51 51
51 51 51
51 51 51
51 51 51
51 51 51
51 51 51
51 51 51
51 51 51
51 51 51
51 51 51
51 51 51
51 51 51
51 51 51
51 51 51
51 51 51
51 51 51
51 51 51
51 51 51
51 51 51
51 51 51
51 51 51
51 51 51
51 51 51
51 51 51
51 51 51
51 51 51
51 51 51
51 51 51
51 51 51
51 51 51
51 51 51
51 51 51
51 51 51
51 51 51
51 51 51
51 51 51
51 51 51
51 51 51
51 51 51
51 51 51
51 51 51
51 51 51
51 51 51
51 51 51
51 51 51
51 51 51
51 51 51
51 51 51
51 51 51
51 51 51
51 51 51
51 51 51
51 51 51
51 51 51
51 51 51
51 51 51
51 51 51
51 51 51
51 51 51
51 51 51
51 51 51
51 51 51
51 51 51
51 51 51
51 51 51
51 51 51
51 51 51
51 51 51
51 51 51
51 51 51
51 51 51
51 51 51
51 51 51
51 51 51
51 51 51
51 51 51
51 51 51
51 51 51
51 51 51
51 51 51
51 51 51
51 51 51
51 51 51
51 51 51
51 51 51
51 51 51
51 51 51
51 51 51
51 51 51
51 51 51
51 51 51
51 51 51
51 51 51
51 51 51
51 51 51
51 51 51
51 51 51
51 51 51
51 51 51
51 51 51
51 51 51
51 51 51
51 51 51
51 51 51
51 51 51
51 51 51
51 51 51
51 51 51
51 51 51
51 51 51
51 51 51
51 51 51
51 51 51
51 51 51
51 51 51
51 51 51
51 51 51
51 51 51
51 51 51
51 51 51
51 51 51
51 51 51
51 51 51
51 51 51
51 51 51
51 51 51
51 51 51
51 51 51
51 51 51
51 51 51
51 51 51
51 51 51
51 51 51
51 51 51
51 51 51
51 51 51
51 51 51
51 51 51
51 51 51
51 51 51
51 51 51
51 51 51
51 51 51
51 51 51
51 51 51
51 51 51
51 51 51
51 51 51
51 51 51
51 51 51
51 51 51
51 51 51
51 51 51
51 51 51
51 51 51
51 51 51
51 51 51
51 51 51
51 51 51
51 51 51
51 51 51
51 51 51
51 51 51
51 51 51
51 51 51
51 51 51
51 51 51
51 51 51
51 51 51
51 51 51
51 51 51
51 51 51
51 51 51
51 51 51
51 51 51
51 51 51
51 51 51
51 51 51
51 51 51
51 51 51
51 51 51
51 51 51
51 51 51
51 51 51
51 51 51
51 51 51
51 51 51
51 51 51
51 51 51
51 51 51
51 51 51
51 51 51
51 51 51
51 51 51
51 51 51
51 51 51
51 51 51
51 51 51
51 51 51
51 51 51
51 51 51
51 51 51
51 51 51
51 51 51
51 51 51
51 51 51
51 51 51
51 51 51
51 51 51
51 51 51
51 51 51
51 51 51
51 51 51
51 51 51
51 51 51
51 51 51
51 51 51
51 51 51
51 51 51
51 51 51
51 51 51
51 51 51
51 51 51
51 51 51
51 51 51
51 51 51
51 51 51
51 51 51
51 51 51
51 51 51
51 51 51
51 51 51
51 51 51
51 51 51
51 51 51
51 51 51
51 51 51
51 51 51
51 51 51
51 51 51
51 51 51
51 51 51
51 51 51
51 51 51
51 51 51
51 51 51
51 51 51
51 51 51
51 51 51
51 51 51
51 51 51
51 51 51
51 51 51
51 51 51
51 51 51
51 51 51
51 51 51
51 51 51
51 51 51
51 51 51
51 51 51
51 51 51
51 51 51
51 51 51
51 51 51
51 51 51
51 51 51
51 51 51
51 51 51
51 51 51
51 51 51
51 51 51
51 51 51
51 51 51
51 51 51
51 51 51
51 51 51
51 51 51
51 51 51
51 51 51
51 51 51
51 51 51
51 51 51
51 51 51
51 51 51
51 51 51
51 51 51
51 51 51
51 51 51
51 51 51
51 51 51
51 51 51
51 51 51
51 51 51
51 51 51
51 51 51
51 51 51
51 51 51
51 51 51
51 51 51
51 51 51
51 51 51
51 51 51
51 51 51
51 51 51
51 51 51
51 51 51
51 51 51
51 51 51
51 51 51
51 51 51
51 51 51
51 51 51
51 51 51
51 51 51
51 51 51
51 51 51
51 51 51
51 51 51
51 51 51
51 51 51
51 51 51
51 51 51
51 51 51
51 51 51
51 51 51
51 51 51
51 51 51
51 51 51
51 51 51
51 51 51
51 51 51
51 51 51
51 51 51
51 51 51
51 51 51
51 51 51
51 51 51
51 51 51
51 51 51
51 51 51
51 51 51
51 51 51
51 51 51
51 51 51
51 51 51
51 51 51
51 51 51
51 51 51
51 51 51
51 51 51
51 51 51
51 51 51
51 51 51
51 51 51
51 51 51
51 51 51
51 51 51
51 51 51
51 51 51
51 51 51
51 51 51
51 51 51
51 51 51
51 51 51
51 51 51
51 51 51
51 51 51
51 51 51
51 51 51
51 51 51
51 51 51
51 51 51
51 51 51
51 51 51
51 51 51
51 51 51
51 51 51
51 51 51
51 51 51
51 51 51
51 51 51
51 51 51
51 51 51
51 51 51
51 51 51
51 51 51
51 51 51
51 51 51
51 51 51
51 51 51
51 51 51
51 51 51
51 51 51
51 51 51
51 51 51
51 51 51
51 51 51
51 51 51
51 51 51
51 51 51
51 51 51
51 51 51
51 51 51
51 51 51
51 51 51
51 51 51
51 51 51
51 51 51
51 51 51
51 51 51
51 51 51
51 51 51
51 51 51
51 51 51
51 51 51
51 51 51
51 51 51
51 51 51
51 51 51
51 51 51
51 51 51
51 51 51
51 51 51
51 51 51
51 51 51
51 51 51
51 51 51
51 51 51
51 51 51
51 51 51
51 51 51
51 51 51
51 51 51
51 51 51
51 51 51
51 51 51
51 51 51
51 51 51
51 51 51
51 51 51
51 51 51
51 51 51
51 51 51
51 51 51
51 51 51
51 51 51
51 51 51
51 51 51
51 51 51
51 51 51
51 51 51
51 51 51
51 51 51
51 51 51
51 51 51
51 51 51
51 51 51
51 51 51
51 51 51
51 51 51
51 51 51
51 51 51
51 51 51
51 51 51
51 51 51
51 51 51
51 51 51
51 51 51
51 51 51
51 51 51
51 51 51
51 51 51
51 51 51
51 51 51
51 51 51
51 51 51
51 51 51
51 51 51
51 51 51
51 51 51
51 51 51
51 51 51
51 51 51
51 51 51
51 51 51
51 51 51
51 51 51
51 51 51
51 51 51
51 51 51
51 51 51
51 51 51
51 51 51
51 51 51
51 51 51
51 51 51
51 51 51
51 51 51
51 51 51
51 51 51
51 51 51
51 51 51
51 51 51
51 51 51
51 51 51
51 51 51
51 51 51
51 51 51
51 51 51
51 51 51
51 51 51
51 51 51
51 51 51
51 51 51
51 51 51
51 51 51
51 51 51
51 51 51
51 51 51
51 51 51
51 51 51
51 51 51
51 51 51
51 51 51
51 51 51
51 51 51
51 51 51
51 51 51
51 51 51
51 51 51
51 51 51
51 51 51
51 51 51
51 51 51
51 51 51
51 51 51
51 51 51
51 51 51
51 51 51
51 51 51
51 51 51
51 51 51
51 51 51
51 51 51
51 51 51
51 51 51
51 51 51
51 51 51
51 51 51
51 51 51
51 51 51
51 51 51
51 51 51
51 51 51
51 51 51
51 51 51
51 51 51
51 51 51
51 51 51
51 51 51
51 51 51
51 51 51
51 51 51
51 51 51
51 51 51
51 51 51
51 51 51
51 51 51
51 51 51
51 51 51
51 51 51
51 51 51
51 51 51
51 51 51
51 51 51
51 51 51
51 51 51
51 51 51
51 51 51
51 51 51
51 51 51
51 51 51
51 51 51
51 51 51
51 51 51
51 51 51
51 51 51
51 51 51
51 51 51
51 51 51
51 51 51
51 51 51
51 51 51
51 51 51
51 51 51
51 51 51
51 51 51
51 51 51
51 51 51
51 51 51
51 51 51
51 51 51
51 51 51
51 51 51
51 51 51
51 51 51
51 51 51
51 51 51
51 51 51
51 51 51
51 51 51
51 51 51
51 51 51
51 51 51
51 51 51
51 51 51
51 51 51
51 51 51
51 51 51
51 51 51
51 51 51
51 51 51
51 51 51
51 51 51
51 51 51
51 51 51
51 51 51
51 51 51
51 51 51
51 51 51
51 51 51
51 51 51
51 51 51
51 51 51
51 51 51
51 51 51
51 51 51
51 51 51
51 51 51
51 51 51
51 51 51
51 51 51
51 51 51
51 51 51
51 51 51
51 51 51
51 51 51
51 51 51
51 51 51
51 51 51
51 51 51
51 51 51
51 51 51
51 51 51
51 51 51
51 51 51
51 51 51
51 51 51
51 51 51
51 51 51
51 51 51
51 51 51
51 51 51
51 51 51
51 51 51
51 51 51
51 51 51
51 51 51
51 51 51
51 51 51
51 51 51
51 51 51
51 51 51
51 51 51
51 51 51
51 51 51
51 51 51
51 51 51
51 51 51
51 51 51
51 51 51
51 51 51
51 51 51
51 51 51
51 51 51
51 51 51
51 51 51
51 51 51
51 51 51
51 51 51
51 51 51
51 51 51
51 51 51
51 51 51
51 51 51
51 51 51
51 51 51
51 51 51
51 51 51
51 51 51
51 51 51
51 51 51
51 51 51
51 51 51
51 51 51
51 51 51
51 51 51
51 51 51
51 51 51
51 51 51
51 51 51
51 51 51
51 51 51
51 51 51
51 51 51
51 51 51
51 51 51
51 51 51
51 51 51
51 51 51
51 51 51
51 51 51
51 51 51
51 51 51
51 51 51
51 51 51
51 51 51
51 51 51
51 51 51
51 51 51
51 51 51
51 51 51
51 51 51
51 51 51
51 51 51
51 51 51
51 51 51
51 51 51
51 51 51
51 51 51
51 51 51
51 51 51
51 51 51
51 51 51
51 51 51
51 51 51
51 51 51
51 51 51
51 51 51
51 51 51
51 51 51
51 51 51
51 51 51
51 51 51
51 51 51
51 51 51
51 51 51
51 51 51
51 51 51
51 51 51
51 51 51
51 51 51
51 51 51
51 51 51
51 51 51
51 51 51
51 51 51
51 51 51
51 51 51
51 51 51
51 51 51
51 51 51
51 51 51
51 51 51
51 51 51
51 51 51
51 51 51
51 51 51
51 51 51
51 51 51
51 51 51
51 51 51
51 51 51
51 51 51
51 51 51
51 51 51
51 51 51
51 51 51
51 51 51
51 51 51
51 51 51
51 51 51
51 51 51
51 51 51
51 51 51
51 51 51
51 51 51
51 51 51
51 51 51
51 51 51
51 51 51
51 51 51
51 51 51
51 51 51
51 51 51
51 51 51
51 51 51
51 51 51
51 51 51
51 51 51
51 51 51
51 51 51
51 51 51
51 51 51
51 51 51
51 51 51
51 51 51
51 51 51
51 51 51
51 51 51
51 51 51
51 51 51
51 51 51
51 51 51
51 51 51
51 51 51
51 51 51
51 51 51
51 51 51
51 51 51
51 51 51
51 51 51
51 51 51
51 51 51
51 51 51
51 51 51
51 51 51
51 51 51
51 51 51
51 51 51
51 51 51
51 51 51
51 51 51
51 51 51
51 51 51
51 51 51
51 51 51
51 51 51
51 51 51
51 51 51
51 51 51
51 51 51
51 51 51
51 51 51
51 51 51
51 51 51
51 51 51
51 51 51
51 51 51
51 51 51
51 51 51
51 51 51
51 51 51
51 51 51
51 51 51
51 51 51
51 51 51
51 51 51
51 51 51
51 51 51
51 51 51
51 51 51
51 51 51
51 51 51
51 51 51
51 51 51
51 51 51
51 51 51
51 51 51
51 51 51
51 51 51
51 51 51
51 51 51
51 51 51
51 51 51
51 51 51
51 51 51
51 51 51
51 51 51
51 51 51
51 51 51
51 51 51
51 51 51
51 51 51
51 51 51
51 51 51
51 51 51
51 51 51
51 51 51
51 51 51
51 51 51
51 51 51
51 51 51
51 51 51
51 51 51
51 51 51
51 51 51
51 51 51
51 51 51
51 51 51
51 51 51
51 51 51
51 51 51
51 51 51
51 51 51
51 51 51
51 51 51
51 51 51
51 51 51
51 51 51
51 51 51
51 51 51
51 51 51
51 51 51
51 51 51
51 51 51
51 51 51
51 51 51
51 51 51
51 51 51
51 51 51
51 51 51
51 51 51
51 51 51
51 51 51
51 51 51
51 51 51
51 51 51
51 51 51
51 51 51
51 51 51
51 51 51
51 51 51
51 51 51
51 51 51
51 51 51
51 51 51
51 51 51
51 51 51
51 51 51
51 51 51
51 51 51
51 51 51
51 51 51
51 51 51
51 51 51
51 51 51
51 51 51
51 51 51
51 51 51
51 51 51
51 51 51
51 51 51
51 51 51
51 51 51
51 51 51
51 51 51
51 51 51
51 51 51
51 51 51
51 51 51
51 51 51
51 51 51
51 51 51
51 51 51
51 51 51
51 51 51
51 51 51
51 51 51
51 51 51
51 51 51
51 51 51
51 51 51
51 51 51
51 51 51
51 51 51
51 51 51
51 51 51
51 51 51
51 51 51
51 51 51
51 51 51
51 51 51
51 51 51
51 51 51
51 51 51
51 51 51
51 51 51
51 51 51
51 51 51
51 51 51
51 51 51
51 51 51
51 51 51
51 51 51
51 51 51
51 51 51
51 51 51
51 51 51
51 51 51
51 51 51
51 51 51
51 51 51
51 51 51
51 51 51
51 51 51
51 51 51
51 51 51
51 51 51
51 51 51
51 51 51
51 51 51
51 51 51
51 51 51
51 51 51
51 51 51
51 51 51
51 51 51
51 51 51
51 51 51
51 51 51
51 51 51
51 51 51
51 51 51
51 51 51
51 51 51
51 51 51
51 51 51
51 51 51
51 51 51
51 51 51
51 51 51
51 51 51
51 51 51
51 51 51
51 51 51
51 51 51
51 51 51
51 51 51
51 51 51
51 51 51
51 51 51
51 51 51
51 51 51
51 51 51
51 51 51
51 51 51
51 51 51
51 51 51
51 51 51
51 51 51
51 51 51
51 51 51
51 51 51
51 51 51
51 51 51
51 51 51
51 51 51
51 51 51
51 51 51
51 51 51
51 51 51
51 51 51
51 51 51
51 51 51
51 51 51
51 51 51
51 51 51
51 51 51
51 51 51
51 51 51
51 51 51
51 51 51
51 51 51
51 51 51
51 51 51
51 51 51
51 51 51
51 51 51
51 51 51
51 51 51
51 51 51
51 51 51
51 51 51
51 51 51
51 51 51
51 51 51
51 51 51
51 51 51
51 51 51
51 51 51
51 51 51
51 51 51
51 51 51
51 51 51
51 51 51
51 51 51
51 51 51
51 51 51
51 51 51
51 51 51
51 51 51
51 51 51
51 51 51
51 51 51
51 51 51
51 51 51
51 51 51
51 51 51
51 51 51
51 51 51
51 51 51
51 51 51
51 51 51
51 51 51
51 51 51
51 51 51
51 51 51
51 51 51
51 51 51
51 51 51
51 51 51
51 51 51
51 51 51
51 51 51
51 51 51
51 51 51
51 51 51
51 51 51
51 51 51
51 51 51
51 51 51
51 51 51
51 51 51
51 51 51
51 51 51
51 51 51
51 51 51
51 51 51
51 51 51
51 51 51
51 51 51
51 51 51
51 51 51
51 51 51
51 51 51
51 51 51
51 51 51
51 51 51
51 51 51
51 51 51
51 51 51
51 51 51
51 51 51
51 51 51
51 51 51
51 51 51
51 51 51
51 51 51
51 51 51
51 51 51
51 51 51
51 51 51
51 51 51
51 51 51
51 51 51
51 51 51
51 51 51
51 51 51
51 51 51
51 51 51
51 51 51
51 51 51
51 51 51
51 51 51
51 51 51
51 51 51
51 51 51
51 51 51
51 51 51
51 51 51
51 51 51
51 51 51
51 51 51
51 51 51
51 51 51
51 51 51
51 51 51
51 51 51
51 51 51
51 51 51
51 51 51
51 51 51
51 51 51
51 51 51
51 51 51
51 51 51
51 51 51
51 51 51
51 51 51
51 51 51
51 51 51
51 51 51
51 51 51
51 51 51
51 51 51
51 51 51
51 51 51
51 51 51
51 51 51
51 51 51
51 51 51
51 51 51
51 51 51
51 51 51
51 51 51
51 51 51
51 51 51
51 51 51
51 51 51
51 51 51
51 51 51
51 51 51
51 51 51
51 51 51
51 51 51
51 51 51
51 51 51
51 51 51
51 51 51
51 51 51
51 51 51
51 51 51
51 51 51
51 51 51
51 51 51
51 51 51
51 51 51
51 51 51
51 51 51
51 51 51
51 51 51
51 51 51
51 51 51
51 51 51
51 51 51
51 51 51
51 51 51
51 51 51
51 51 51
51 51 51
51 51 51
51 51 51
51 51 51
51 51 51
51 51 51
51 51 51
51 51 51
51 51 51
51 51 51
51 51 51
51 51 51
51 51 51
51 51 51
51 51 51
51 51 51
51 51 51
51 51 51
51 51 51
51 51 51
51 51 51
51 51 51
51 51 51
51 51 51
51 51 51
51 51 51
51 51 51
51 51 51
51 51 51
51 51 51
51 51 51
51 51 51
51 51 51
51 51 51
51 51 51
51 51 51
51 51 51
51 51 51
51 51 51
51 51 51
51 51 51
51 51 51
51 51 51
51 51 51
51 51 51
51 51 51
51 51 51
51 51 51
51 51 51
51 51 51
51 51 51
51 51 51
51 51 51
51 51 51
51 51 51
51 51 51
51 51 51
51 51 51
51 51 51
51 51 51
51 51 51
51 51 51
51 51 51
51 51 51
51 51 51
51 51 51
51 51 51
51 51 51
51 51 51
51 51 51
51 51 51
51 51 51
51 51 51
51 51 51
51 51 51
51 51 51
51 51 51
51 51 51
51 51 51
51 51 51
51 51 51
51 51 51
51 51 51
51 51 51
51 51 51
51 51 51
51 51 51
51 51 51
51 51 51
51 51 51
51 51 51
51 51 51
51 51 51
51 51 51
51 51 51
51 51 51
51 51 51
51 51 51
51 51 51
51 51 51
51 51 51
51 51 51
51 51 51
51 51 51
51 51 51
51 51 51
51 51 51
51 51 51
51 51 51
51 51 51
51 51 51
51 51 51
51 51 51
51 51 51
51 51 51
51 51 51
51 51 51
51 51 51
51 51 51
51 51 51
51 51 51
51 51 51
51 51 51
51 51 51
51 51 51
51 51 51
51 51 51
51 51 51
51 51 51
51 51 51
51 51 51
51 51 51
51 51 51
51 51 51
51 51 51
51 51 51
51 51 51
51 51 51
51 51 51
51 51 51
51 51 51
51 51 51
51 51 51
51 51 51
51 51 51
51 51 51
51 51 51
51 51 51
51 51 51
51 51 51
51 51 51
51 51 51
51 51 51
51 51 51
51 51 51
51 51 51
51 51 51
51 51 51
51 51 51
51 51 51
51 51 51
51 51 51
51 51 51
51 51 51
51 51 51
51 51 51
51 51 51
51 51 51
51 51 51
51 51 51
51 51 51
51 51 51
51 51 51
51 51 51
51 51 51
51 51 51
51 51 51
51 51 51
51 51 51
51 51 51
51 51 51
51 51 51
51 51 51
51 51 51
51 51 51
51 51 51
51 51 51
51 51 51
51 51 51
51 51 51
51 51 51
51 51 51
51 51 51
51 51 51
51 51 51
51 51 51
51 51 51
51 51 51
51 51 51
51 51 51
51 51 51
51 51 51
51 51 51
51 51 51
51 51 51
51 51 51
51 51 51
51 51 51
51 51 51
51 51 51
51 51 51
51 51 51
51 51 51
51 51 51
51 51 51
51 51 51
51 51 51
51 51 51
51 51 51
51 51 51
51 51 51
51 51 51
51 51 51
51 51 51
51 51 51
51 51 51
51 51 51
51 51 51
51 51 51
51 51 51
51 51 51
51 51 51
51 51 51
51 51 51
51 51 51
51 51 51
51 51 51
51 51 51
51 51 51
51 51 51
51 51 51
51 51 51
51 51 51
51 51 51
51 51 51
51 51 51
51 51 51
51 51 51
51 51 51
51 51 51
51 51 51
51 51 51
51 51 51
51 51 51
51 51 51
51 51 51
51 51 51
51 51 51
51 51 51
51 51 51
51 51 51
51 51 51
51 51 51
51 51 51
51 51 51
51 51 51
51 51 51
51 51 51
51 51 51
51 51 51
51 51 51
51 51 51
51 51 51
51 51 51
51 51 51
51 51 51
51 51 51
51 51 51
51 51 51
51 51 51
51 51 51
51 51 51
51 51 51
51 51 51
51 51 51
51 51 51
51 51 51
51 51 51
51 51 51
51 51 51
51 51 51
51 51 51
51 51 51
51 51 51
51 51 51
51 51 51
51 51 51
51 51 51
51 51 51
51 51 51
51 51 51
51 51 51
51 51 51
51 51 51
51 51 51
51 51 51
51 51 51
51 51 51
51 51 51
51 51 51
51 51 51
51 51 51
51 51 51
51 51 51
51 51 51
51 51 51
51 51 51
51 51 51
51 51 51
51 51 51
51 51 51
51 51 51
51 51 51
51 51 51
51 51 51
51 51 51
51 51 51
51 51 51
51 51 51
51 51 51
51 51 51
51 51 51
51 51 51
51 51 51
51 51 51
51 51 51
51 51 51
51 51 51
51 51 51
51 51 51
51 51 51
51 51 51
51 51 51
51 51 51
51 51 51
51 51 51
51 51 51
51 51 51
51 51 51
51 51 51
51 51 51
51 51 51
51 51 51
51 51 51
51 51 51
51 51 51
51 51 51
51 51 51
51 51 51
51 51 51
51 51 51
51 51 51
51 51 51
51 51 51
51 51 51
51 51 51
51 51 51
51 51 51
51 51 51
51 51 51
51 51 51
51 51 51
51 51 51
51 51 51
51 51 51
51 51 51
51 51 51
51 51 51
51 51 51
51 51 51
51 51 51
51 51 51
51 51 51
51 51 51
51 51 51
51 51 51
51 51 51
51 51 51
51 51 51
51 51 51
51 51 51
51 51 51
51 51 51
51 51 51
51 51 51
51 51 51
51 51 51
51 51 51
51 51 51
51 51 51
51 51 51
51 51 51
51 51 51
51 51 51
51 51 51
51 51 51
51 51 51
51 51 51
51 51 51
51 51 51
51 51 51
51 51 51
51 51 51
51 51 51
51 51 51
51 51 51
51 51 51
51 51 51
51 51 51
51 51 51
51 51 51
51 51 51
51 51 51
51 51 51
51 51 51
51 51 51
51 51 51
51 51 51
51 51 51
51 51 51
51 51 51
51 51 51
51 51 51
51 51 51
51 51 51
51 51 51
51 51 51
51 51 51
51 51 51
51 51 51
51 51 51
51 51 51
51 51 51
51 51 51
51 51 51
51 51 51
51 51 51
51 51 51
51 51 51
51 51 51
51 51 51
51 51 51
51 51 51
51 51 51
51 51 51
51 51 51
51 51 51
51 51 51
51 51 51
51 51 51
51 51 51
51 51 51
51 51 51
51 51 51
51 51 51
51 51 51
51 51 51
51 51 51
51 51 51
51 51 51
51 51 51
51 51 51
51 51 51
51 51 51
51 51 51
51 51 51
51 51 51
51 51 51
51 51 51
51 51 51
51 51 51
51 51 51
51 51 51
51 51 51
51 51 51
51 51 51
51 51 51
51 51 51
51 51 51
51 51 51
51 51 51
51 51 51
51 51 51
51 51 51
51 51 51
51 51 51
51 51 51
51 51 51
51 51 51
51 51 51
51 51 51
51 51 51
51 51 51
51 51 51
51 51 51
51 51 51
51 51 51
51 51 51
51 51 51
51 51 51
51 51 51
51 51 51
51 51 51
51 51 51
51 51 51
51 51 51
51 51 51
51 51 51
51 51 51
51 51 51
51 51 51
51 51 51
51 51 51
51 51 51
51 51 51
51 51 51
51 51 51
51 51 51
51 51 51
51 51 51
51 51 51
51 51 51
51 51 51
51 51 51
51 51 51
51 51 51
51 51 51
51 51 51
51 51 51
51 51 51
51 51 51
51 51 51
51 51 51
51 51 51
51 51 51
51 51 51
51 51 51
51 51 51
51 51 51
51 51 51
51 51 51
51 51 51
51 51 51
51 51 51
51 51 51
51 51 51
51 51 51
51 51 51
51 51 51
51 51 51
51 51 51
51 51 51
51 51 51
51 51 51
51 51 51
51 51 51
51 51 51
51 51 51
51 51 51
51 51 51
51 51 51
51 51 51
51 51 51
51 51 51
51 51 51
51 51 51
51 51 51
51 51 51
51 51 51
51 51 51
51 51 51
51 51 51
51 51 51
51 51 51
51 51 51
51 51 51
51 51 51
51 51 51
51 51 51
51 51 51
51 51 51
51 51 51
51 51 51
51 51 51
51 51 51
51 51 51
51 51 51
51 51 51
51 51 51
51 51 51
51 51 51
51 51 51
51 51 51
51 51 51
51 51 51
51 51 51
51 51 51
51 51 51
51 51 51
51 51 51
51 51 51
51 51 51
51 51 51
51 51 51
51 51 51
51 51 51
51 51 51
51 51 51
51 51 51
51 51 51
51 51 51
51 51 51
51 51 51
51 51 51
51 51 51
51 51 51
51 51 51
51 51 51
51 51 51
51 51 51
51 51 51
51 51 51
51 51 51
51 51 51
51 51 51
51 51 51
51 51 51
51 51 51
51 51 51
51 51 51
51 51 51
51 51 51
51 51 51
51 51 51
51 51 51
51 51 51
51 51 51
51 51 51
51 51 51
51 51 51
51 51 51
51 51 51
51 51 51
51 51 51
51 51 51
51 51 51
51 51 51
51 51 51
51 51 51
51 51 51
51 51 51
51 51 51
51 51 51
51 51 51
51 51 51
51 51 51
51 51 51
51 51 51
51 51 51
51 51 51
51 51 51
51 51 51
51 51 51
51 51 51
51 51 51
51 51 51
51 51 51
51 51 51
51 51 51
51 51 51
51 51 51
51 51 51
51 51 51
51 51 51
51 51 51
51 51 51
51 51 51
51 51 51
51 51 51
51 51 51
51 51 51
51 51 51
51 51 51
51 51 51
51 51 51
51 51 51
51 51 51
51 51 51
51 51 51
51 51 51
51 51 51
51 51 51
51 51 51
51 51 51
51 51 51
51 51 51
51 51 51
51 51 51
51 51 51
51 51 51
51 51 51
51 51 51
51 51 51
51 51 51
51 51 51
51 51 51
51 51 51
51 51 51
51 51 51
51 51 51
51 51 51
51 51 51
51 51 51
51 51 51
51 51 51
51 51 51
51 51 51
51 51 51
51 51 51
51 51 51
51 51 51
51 51 51
51 51 51
51 51 51
51 51 51
51 51 51
51 51 51
51 51 51
51 51 51
51 51 51
51 51 51
51 51 51
51 51 51
51 51 51
51 51 51
51 51 51
51 51 51
51 51 51
51 51 51
51 51 51
51 51 51
51 51 51
51 51 51
51 51 51
51 51 51
51 51 51
51 51 51
51 51 51
51 51 51
51 51 51
51 51 51
51 51 51
51 51 51
51 51 51
51 51 51
51 51 51
51 51 51
51 51 51
51 51 51
51 51 51
51 51 51
51 51 51
51 51 51
51 51 51
51 51 51
51 51 51
51 51 51
51 51 51
51 51 51
51 51 51
51 51 51
51 51 51
51 51 51
51 51 51
51 51 51
51 51 51
51 51 51
51 51 51
51 51 51
51 51 51
51 51 51
51 51 51
51 51 51
51 51 51
51 51 51
51 51 51
51 51 51
51 51 51
51 51 51
51 51 51
51 51 51
51 51 51
51 51 51
51 51 51
51 51 51
51 51 51
51 51 51
51 51 51
51 51 51
51 51 51
51 51 51
51 51 51
51 51 51
51 51 51
51 51 51
51 51 51
51 51 51
51 51 51
51 51 51
51 51 51
51 51 51
51 51 51
51 51 51
51 51 51
51 51 51
51 51 51
51 51 51
51 51 51
51 51 51
51 51 51
51 51 51
51 51 51
51 51 51
51 51 51
51 51 51
51 51 51
51 51 51
51 51 51
51 51 51
51 51 51
51 51 51
51 51 51
51 51 51
51 51 51
51 51 51
51 51 51
51 51 51
51 51 51
51 51 51
51 51 51
51 51 51
51 51 51
51 51 51
51 51 51
51 51 51
51 51 51
51 51 51
51 51 51
51 51 51
51 51 51
51 51 51
51 51 51
51 51 51
51 51 51
51 51 51
51 51 51
51 51 51
51 51 51
51 51 51
51 51 51
51 51 51
51 51 51
51 51 51
51 51 51
51 51 51
51 51 51
51 51 51
51 51 51
51 51 51
51 51 51
51 51 51
51 51 51
51 51 51
51 51 51
51 51 51
51 51 51
51 51 51
51 51 51
51 51 51
51 51 51
51 51 51
51 51 51
51 51 51
51 51 51
51 51 51
51 51 51
51 51 51
51 51 51
51 51 51
51 51 51
51 51 51
51 51 51
51 51 51
51 51 51
51 51 51
51 51 51
51 51 51
51 51 51
51 51 51
51 51 51
51 51 51
51 51 51
51 51 51
51 51 51
51 51 51
51 51 51
51 51 51
51 51 51
51 51 51
51 51 51
51 51 51
51 51 51
51 51 51
51 51 51
51 51 51
51 51 51
51 51 51
51 51 51
51 51 51
51 51 51
51 51 51
51 51 51
51 51 51
51 51 51
51 51 51
51 51 51
51 51 51
51 51 51
51 51 51
51 51 51
51 51 51
51 51 51
51 51 51
51 51 51
51 51 51
51 51 51
51 51 51
51 51 51
51 51 51
51 51 51
51 51 51
51 51 51
51 51 51
51 51 51
51 51 51
51 51 51
51 51 51
51 51 51
51 51 51
51 51 51
51 51 51
51 51 51
51 51 51
51 51 51
51 51 51
51 51 51
51 51 51
51 51 51
51 51 51
51 51 51
51 51 51
51 51 51
51 51 51
51 51 51
51 51 51
51 51 51
51 51 51
51 51 51
51 51 51
51 51 51
51 51 51
51 51 51
51 51 51
51 51 51
51 51 51
51 51 51
51 51 51
51 51 51
51 51 51
51 51 51
51 51 51
51 51 51
51 51 51
51 51 51
51 51 51
51 51 51
51 51 51
51 51 51
51 51 51
51 51 51
51 51 51
51 51 51
51 51 51
51 51 51
51 51 51
51 51 51
51 51 51
51 51 51
51 51 51
51 51 51
51 51 51
51 51 51
51 51 51
51 51 51
51 51 51
51 51 51
51 51 51
51 51 51
51 51 51
51 51 51
51 51 51
51 51 51
51 51 51
51 51 51
51 51 51
51 51 51
51 51 51
51 51 51
51 51 51
51 51 51
51 51 51
51 51 51
51 51 51
51 51 51
51 51 51
51 51 51
51 51 51
51 51 51
51 51 51
51 51 51
51 51 51
51 51 51
51 51 51
51 51 51
51 51 51
51 51 51
51 51 51
51 51 51
51 51 51
51 51 51
51 51 51
51 51 51
51 51 51
51 51 51
51 51 51
51 51 51
51 51 51
51 51 51
51 51 51
51 51 51
51 51 51
51 51 51
51 51 51
51 51 51
51 51 51
51 51 51
51 51 51
51 51 51
51 51 51
51 51 51
51 51 51
51 51 51
51 51 51
51 51 51
51 51 51
51 51 51
51 51 51
51 51 51
51 51 51
51 51 51
51 51 51
51 51 51
51 51 51
51 51 51
51 51 51
51 51 51
51 51 51
51 51 51
51 51 51
51 51 51
51 51 51
51 51 51
51 51 51
51 51 51
51 51 51
51 51 51
51 51 51
51 51 51
51 51 51
51 51 51
51 51 51
51 51 51
51 51 51
51 51 51
51 51 51
51 51 51
51 51 51
51 51 51
51 51 51
51 51 51
51 51 51
51 51 51
51 51 51
51 51 51
51 51 51
51 51 51
51 51 51
51 51 51
51 51 51
51 51 51
51 51 51
51 51 51
51 51 51
51 51 51
51 51 51
51 51 51
51 51 51
51 51 51
51 51 51
51 51 51
51 51 51
51 51 51
51 51 51
51 51 51
51 51 51
51 51 51
51 51 51
51 51 51
51 51 51
51 51 51
51 51 51
51 51 51
51 51 51
51 51 51
51 51 51
51 51 51
51 51 51
51 51 51
51 51 51
51 51 51
51 51 51
51 51 51
51 51 51
51 51 51
51 51 51
51 51 51
51 51 51
51 51 51
51 51 51
51 51 51
51 51 51
51 51 51
51 51 51
51 51 51
51 51 51
51 51 51
51 51 51
51 51 51
51 51 51
51 51 51
51 51 51
51 51 51
51 51 51
51 51 51
51 51 51
51 51 51
51 51 51
51 51 51
51 51 51
51 51 51
51 51 51
51 51 51
51 51 51
51 51 51
51 51 51
51 51 51
51 51 51
51 51 51
51 51 51
51 51 51
51 51 51
51 51 51
51 51 51
51 51 51
51 51 51
51 51 51
51 51 51
51 51 51
51 51 51
51 51 51
51 51 51
51 51 51
51 51 51
51 51 51
51 51 51
51 51 51
51 51 51
51 51 51
51 51 51
51 51 51
51 51 51
51 51 51
51 51 51
51 51 51
51 51 51
51 51 51
51 51 51
51 51 51
51 51 51
51 51 51
51 51 51
51 51 51
51 51 51
51 51 51
51 51 51
51 51 51
51 51 51
51 51 51
51 51 51
51 51 51
51 51 51
51 51 51
51 51 51
51 51 51
51 51 51
51 51 51
51 51 51
51 51 51
51 51 51
51 51 51
51 51 51
51 51 51
51 51 51
51 51 51
51 51 51
51 51 51
51 51 51
51 51 51
51 51 51
51 51 51
51 51 51
51 51 51
51 51 51
51 51 51
51 51 51
51 51 51
51 51 51
51 51 51
51 51 51
51 51 51
51 51 51
51 51 51
51 51 51
51 51 51
51 51 51
51 51 51
51 51 51
51 51 51
51 51 51
51 51 51
51 51 51
51 51 51
51 51 51
51 51 51
51 51 51
51 51 51
51 51 51
51 51 51
51 51 51
51 51 51
51 51 51
51 51 51
51 51 51
51 51 51
51 51 51
51 51 51
51 51 51
51 51 51
51 51 51
51 51 51
51 51 51
51 51 51
51 51 51
51 51 51
51 51 51
51 51 51
51 51 51
51 51 51
51 51 51
51 51 51
51 51 51
51 51 51
51 51 51
51 51 51
51 51 51
51 51 51
51 51 51
51 51 51
51 51 51
51 51 51
51 51 51
51 51 51
51 51 51
51 51 51
51 51 51
51 51 51
51 51 51
51 51 51
51 51 51
51 51 51
51 51 51
51 51 51
51 51 51
51 51 51
51 51 51
51 51 51
51 51 51
51 51 51
51 51 51
51 51 51
51 51 51
51 51 51
51 51 51
51 51 51
51 51 51
51 51 51
51 51 51
51 51 51
51 51 51
51 51 51
51 51 51
51 51 51
51 51 51
51 51 51
51 51 51
51 51 51
51 51 51
51 51 51
51 51 51
51 51 51
51 51 51
51 51 51
51 51 51
51 51 51
51 51 51
51 51 51
51 51 51
51 51 51
51 51 51
51 51 51
51 51 51
51 51 51
51 51 51
51 51 51
51 51 51
51 51 51
51 51 51
51 51 51
51 51 51
51 51 51
51 51 51
51 51 51
51 51 51
51 51 51
51 51 51
51 51 51
51 51 51
51 51 51
51 51 51
51 51 51
51 51 51
51 51 51
51 51 51
51 51 51
51 51 51
51 51 51
51 51 51
51 51 51
51 51 51
51 51 51
51 51 51
51 51 51
51 51 51
51 51 51
51 51 51
51 51 51
51 51 51
51 51 51
51 51 51
51 51 51
51 51 51
51 51 51
51 51 51
51 51 51
51 51 51
51 51 51
51 51 51
51 51 51
51 51 51
51 51 51
51 51 51
51 51 51
51 51 51
51 51 51
51 51 51
51 51 51
51 51 51
51 51 51
51 51 51
51 51 51
51 51 51
51 51 51
51 51 51
51 51 51
51 51 51
51 51 51
51 51 51
51 51 51
51 51 51
51 51 51
51 51 51
51 51 51
51 51 51
51 51 51
51 51 51
51 51 51
51 51 51
51 51 51
51 51 51
51 51 51
51 51 51
51 51 51
51 51 51
51 51 51
51 51 51
51 51 51
51 51 51
51 51 51
51 51 51
51 51 51
51 51 51
51 51 51
51 51 51
51 51 51
51 51 51
51 51 51
51 51 51
51 51 51
51 51 51
51 51 51
51 51 51
51 51 51
51 51 51
51 51 51
51 51 51
51 51 51
51 51 51
51 51 51
51 51 51
51 51 51
51 51 51
51 51 51
51 51 51
51 51 51
51 51 51
51 51 51
51 51 51
51 51 51
51 51 51
51 51 51
51 51 51
51 51 51
51 51 51
51 51 51
51 51 51
51 51 51
51 51 51
51 51 51
51 51 51
51 51 51
51 51 51
51 51 51
51 51 51
51 51 51
51 51 51
51 51 51
51 51 51
51 51 51
51 51 51
51 51 51
51 51 51
51 51 51
51 51 51
51 51 51
51 51 51
51 51 51
51 51 51
51 51 51
51 51 51
51 51 51
51 51 51
51 51 51
51 51 51
51 51 51
51 51 51
51 51 51
51 51 51
51 51 51
51 51 51
51 51 51
51 51 51
51 51 51
51 51 51
51 51 51
51 51 51
51 51 51
51 51 51
51 51 51
51 51 51
51 51 51
51 51 51
51 51 51
51 51 51
51 51 51
51 51 51
51 51 51
51 51 51
51 51 51
51 51 51
51 51 51
51 51 51
51 51 51
51 51 51
51 51 51
51 51 51
51 51 51
51 51 51
51 51 51
51 51 51
51 51 51
51 51 51
51 51 51
51 51 51
51 51 51
51 51 51
51 51 51
51 51 51
51 51 51
51 51 51
51 51 51
51 51 51
51 51 51
51 51 51
51 51 51
51 51 51
51 51 51
51 51 51
51 51 51
51 51 51
51 51 51
51 51 51
51 51 51
51 51 51
51 51 51
51 51 51
51 51 51
51 51 51
51 51 51
51 51 51
51 51 51
51 51 51
51 51 51
51 51 51
51 51 51
51 51 51
51 51 51
51 51 51
51 51 51
51 51 51
51 51 51
51 51 51
51 51 51
51 51 51
51 51 51
51 51 51
51 51 51
51 51 51
51 51 51
51 51 51
51 51 51
51 51 51
51 51 51
51 51 51
51 51 51
51 51 51
51 51 51
51 51 51
51 51 51
51 51 51
51 51 51
51 51 51
51 51 51
51 51 51
51 51 51
51 51 51
51 51 51
51 51 51
51 51 51
51 51 51
51 51 51
51 51 51
51 51 51
51 51 51
51 51 51
51 51 51
51 51 51
51 51 51
51 51 51
51 51 51
51 51 51
51 51 51
51 51 51
51 51 51
51 51 51
51 51 51
51 51 51
51 51 51
51 51 51
51 51 51
51 51 51
51 51 51
51 51 51
51 51 51
51 51 51
51 51 51
51 51 51
51 51 51
51 51 51
51 51 51
51 51 51
51 51 51
51 51 51
51 51 51
51 51 51
51 51 51
51 51 51
51 51 51
51 51 51
51 51 51
51 51 51
51 51 51
51 51 51
51 51 51
51 51 51
51 51 51
51 51 51
51 51 51
51 51 51
51 51 51
51 51 51
51 51 51
51 51 51
51 51 51
51 51 51
51 51 51
51 51 51
51 51 51
51 51 51
51 51 51
51 51 51
51 51 51
51 51 51
51 51 51
51 51 51
51 51 51
51 51 51
51 51 51
51 51 51
51 51 51
51 51 51
51 51 51
51 51 51
51 51 51
51 51 51
51 51 51
51 51 51
51 51 51
51 51 51
51 51 51
51 51 51
51 51 51
51 51 51
51 51 51
51 51 51
51 51 51
51 51 51
51 51 51
51 51 51
51 51 51
51 51 51
51 51 51
51 51 51
51 51 51
51 51 51
51 51 51
51 51 51
51 51 51
51 51 51
51 51 51
51 51 51
51 51 51
51 51 51
51 51 51
51 51 51
51 51 51
51 51 51
51 51 51
51 51 51
51 51 51
51 51 51
51 51 51
51 51 51
51 51 51
51 51 51
51 51 51
51 51 51
51 51 51
51 51 51
51 51 51
51 51 51
51 51 51
51 51 51
51 51 51
51 51 51
51 51 51
51 51 51
51 51 51
51 51 51
51 51 51
51 51 51
51 51 51
51 51 51
51 51 51
51 51 51
51 51 51
51 51 51
51 51 51
51 51 51
51 51 51
51 51 51
51 51 51
51 51 51
51 51 51
51 51 51
51 51 51
51 51 51
51 51 51
51 51 51
51 51 51
51 51 51
51 51 51
51 51 51
51 51 51
51 51 51
51 51 51
51 51 51
51 51 51
51 51 51
51 51 51
51 51 51
51 51 51
51 51 51
51 51 51
51 51 51
51 51 51
51 51 51
51 51 51
51 51 51
51 51 51
51 51 51
51 51 51
51 51 51
51 51 51
51 51 51
51 51 51
51 51 51
51 51 51
51 51 51
51 51 51
51 51 51
51 51 51
51 51 51
51 51 51
51 51 51
51 51 51
51 51 51
51 51 51
51 51 51
51 51 51
51 51 51
51 51 51
51 51 51
51 51 51
51 51 51
51 51 51
51 51 51
51 51 51
51 51 51
51 51 51
51 51 51
51 51 51
51 51 51
51 51 51
51 51 51
51 51 51
51 51 51
51 51 51
51 51 51
51 51 51
51 51 51
51 51 51
51 51 51
51 51 51
51 51 51
51 51 51
51 51 51
51 51 51
51 51 51
51 51 51
51 51 51
51 51 51
51 51 51
51 51 51
51 51 51
51 51 51
51 51 51
51 51 51
51 51 51
51 51 51
51 51 51
51 51 51
51 51 51
51 51 51
51 51 51
51 51 51
51 51 51
51 51 51
51 51 51
51 51 51
51 51 51
51 51 51
51 51 51
51 51 51
51 51 51
51 51 51
51 51 51
51 51 51
51 51 51
51 51 51
51 51 51
51 51 51
51 51 51
51 51 51
51 51 51
51 51 51
51 51 51
51 51 51
51 51 51
51 51 51
51 51 51
51 51 51
51 51 51
51 51 51
51 51 51
51 51 51
51 51 51
51 51 51
51 51 51
51 51 51
51 51 51
51 51 51
51 51 51
51 51 51
51 51 51
51 51 51
51 51 51
51 51 51
51 51 51
51 51 51
51 51 51
51 51 51
51 51 51
51 51 51
51 51 51
51 51 51
51 51 51
51 51 51
51 51 51
51 51 51
51 51 51
51 51 51
51 51 51
51 51 51
51 51 51
51 51 51
51 51 51
51 51 51
51 51 51
51 51 51
51 51 51
51 51 51
51 51 51
51 51 51
51 51 51
51 51 51
51 51 51
51 51 51
51 51 51
51 51 51
51 51 51
51 51 51
51 51 51
51 51 51
51 51 51
51 51 51
51 51 51
51 51 51
51 51 51
51 51 51
51 51 51
51 51 51
51 51 51
51 51 51
51 51 51
51 51 51
51 51 51
51 51 51
51 51 51
51 51 51
51 51 51
51 51 51
51 51 51
51 51 51
51 51 51
51 51 51
51 51 51
51 51 51
51 51 51
51 51 51
51 51 51
51 51 51
51 51 51
51 51 51
51 51 51
51 51 51
51 51 51
51 51 51
51 51 51
51 51 51
51 51 51
51 51 51
51 51 51
51 51 51
51 51 51
51 51 51
51 51 51
51 51 51
51 51 51
51 51 51
51 51 51
51 51 51
51 51 51
51 51 51
51 51 51
51 51 51
51 51 51
51 51 51
51 51 51
51 51 51
51 51 51
51 51 51
51 51 51
51 51 51
51 51 51
51 51 51
51 51 51
51 51 51
51 51 51
51 51 51
51 51 51
51 51 51
51 51 51
51 51 51
51 51 51
51 51 51
51 51 51
51 51 51
51 51 51
51 51 51
51 51 51
51 51 51
51 51 51
51 51 51
51 51 51
51 51 51
51 51 51
51 51 51
51 51 51
51 51 51
51 51 51
51 51 51
51 51 51
51 51 51
51 51 51
51 51 51
51 51 51
51 51 51
51 51 51
51 51 51
51 51 51
51 51 51
51 51 51
51 51 51
51 51 51
51 51 51
51 51 51
51 51 51
51 51 51
51 51 51
51 51 51
51 51 51
51 51 51
51 51 51
51 51 51
51 51 51
51 51 51
51 51 51
51 51 51
51 51 51
51 51 51
51 51 51
51 51 51
51 51 51
51 51 51
51 51 51
51 51 51
51 51 51
51 51 51
51 51 51
51 51 51
51 51 51
51 51 51
51 51 51
51 51 51
51 51 51
51 51 51
51 51 51
51 51 51
51 51 51
51 51 51
51 51 51
51 51 51
51 51 51
51 51 51
51 51 51
51 51 51
51 51 51
51 51 51
51 51 51
51 51 51
51 51 51
51 51 51
51 51 51
51 51 51
51 51 51
51 51 51
51 51 51
51 51 51
51 51 51
51 51 51
51 51 51
51 51 51
51 51 51
51 51 51
51 51 51
51 51 51
51 51 51
51 51 51
51 51 51
51 51 51
51 51 51
51 51 51
51 51 51
51 51 51
51 51 51
51 51 51
51 51 51
51 51 51
51 51 51
51 51 51
51 51 51
51 51 51
51 51 51
51 51 51
51 51 51
51 51 51
51 51 51
51 51 51
51 51 51
51 51 51
51 51 51
51 51 51
51 51 51
51 51 51
51 51 51
51 51 51
51 51 51
51 51 51
51 51 51
51 51 51
51 51 51
51 51 51
51 51 51
51 51 51
51 51 51
51 51 51
51 51 51
51 51 51
51 51 51
51 51 51
51 51 51
51 51 51
51 51 51
51 51 51
51 51 51
51 51 51
51 51 51
51 51 51
51 51 51
51 51 51
51 51 51
51 51 51
51 51 51
51 51 51
51 51 51
51 51 51
51 51 51
51 51 51
51 51 51
51 51 51
51 51 51
51 51 51
51 51 51
51 51 51
51 51 51
51 51 51
51 51 51
51 51 51
51 51 51
51 51 51
51 51 51
51 51 51
51 51 51
51 51 51
51 51 51
51 51 51
51 51 51
51 51 51
51 51 51
51 51 51
51 51 51
51 51 51
51 51 51
51 51 51
51 51 51
51 51 51
51 51 51
51 51 51
51 51 51
51 51 51
51 51 51
51 51 51
51 51 51
51 51 51
51 51 51
51 51 51
51 51 51
51 51 51
51 51 51
51 51 51
51 51 51
51 51 51
51 51 51
51 51 51
51 51 51
51 51 51
51 51 51
51 51 51
51 51 51
51 51 51
51 51 51
51 51 51
51 51 51
51 51 51
51 51 51
51 51 51
51 51 51
51 51 51
51 51 51
51 51 51
51 51 51
51 51 51
51 51 51
51 51 51
51 51 51
51 51 51
51 51 51
51 51 51
51 51 51
51 51 51
51 51 51
51 51 51
51 51 51
51 51 51
51 51 51
51 51 51
51 51 51
51 51 51
51 51 51
51 51 51
51 51 51
51 51 51
51 51 51
51 51 51
51 51 51
51 51 51
51 51 51
51 51 51
51 51 51
51 51 51
51 51 51
51 51 51
51 51 51
51 51 51
51 51 51
51 51 51
51 51 51
51 51 51
51 51 51
51 51 51
51 51 51
51 51 51
51 51 51
51 51 51
51 51 51
51 51 51
51 51 51
51 51 51
51 51 51
51 51 51
51 51 51
51 51 51
51 51 51
51 51 51
51 51 51
51 51 51
51 51 51
51 51 51
51 51 51
51 51 51
51 51 51
51 51 51
51 51 51
51 51 51
51 51 51
51 51 51
51 51 51
51 51 51
51 51 51
51 51 51
51 51 51
51 51 51
51 51 51
51 51 51
51 51 51
51 51 51
51 51 51
51 51 51
51 51 51
51 51 51
51 51 51
51 51 51
51 51 51
51 51 51
51 51 51
51 51 51
51 51 51
51 51 51
51 51 51
51 51 51
51 51 51
51 51 51
51 51 51
51 51 51
51 51 51
51 51 51
51 51 51
51 51 51
51 51 51
51 51 51
51 51 51
51 51 51
51 51 51
51 51 51
51 51 51
51 51 51
51 51 51
51 51 51
51 51 51
51 51 51
51 51 51
51 51 51
51 51 51
51 51 51
51 51 51
51 51 51
51 51 51
51 51 51
51 51 51
51 51 51
51 51 51
51 51 51
51 51 51
51 51 51
51 51 51
51 51 51
51 51 51
51 51 51
51 51 51
51 51 51
51 51 51
51 51 51
51 51 51
51 51 51
51 51 51
51 51 51
51 51 51
51 51 51
51 51 51
51 51 51
51 51 51
51 51 51
51 51 51
51 51 51
51 51 51
51 51 51
51 51 51
51 51 51
51 51 51
51 51 51
51 51 51
51 51 51
51 51 51
51 51 51
51 51 51
51 51 51
51 51 51
51 51 51
51 51 51
51 51 51
51 51 51
51 51 51
51 51 51
51 51 51
51 51 51
51 51 51
51 51 51
51 51 51
51 51 51
51 51 51
51 51 51
51 51 51
51 51 51
51 51 51
51 51 51
51 51 51
51 51 51
51 51 51
51 51 51
51 51 51
51 51 51
51 51 51
51 51 51
51 51 51
51 51 51
51 51 51
51 51 51
51 51 51
51 51 51
51 51 51
51 51 51
51 51 51
51 51 51
51 51 51
51 51 51
51 51 51
51 51 51
51 51 51
51 51 51
51 51 51
51 51 51
51 51 51
51 51 51
51 51 51
51 51 51
51 51 51
51 51 51
51 51 51
51 51 51
51 51 51
51 51 51
51 51 51
51 51 51
51 51 51
51 51 51
51 51 51
51 51 51
51 51 51
51 51 51
51 51 51
51 51 51
51 51 51
51 51 51
51 51 51
51 51 51
51 51 51
51 51 51
51 51 51
51 51 51
51 51 51
51 51 51
51 51 51
51 51 51
51 51 51
51 51 51
51 51 51
51 51 51
51 51 51
51 51 51
51 51 51
51 51 51
51 51 51
51 51 51
51 51 51
51 51 51
51 51 51
51 51 51
51 51 51
51 51 51
51 51 51
51 51 51
51 51 51
51 51 51
51 51 51
51 51 51
51 51 51
51 51 51
51 51 51
51 51 51
51 51 51
51 51 51
51 51 51
51 51 51
51 51 51
51 51 51
51 51 51
51 51 51
51 51 51
51 51 51
51 51 51
51 51 51
51 51 51
51 51 51
51 51 51
51 51 51
51 51 51
51 51 51
51 51 51
51 51 51
51 51 51
51 51 51
51 51 51
51 51 51
51 51 51
51 51 51
51 51 51
51 51 51
51 51 51
51 51 51
51 51 51
51 51 51
51 51 51
51 51 51
51 51 51
51 51 51
51 51 51
51 51 51
51 51 51
51 51 51
51 51 51
51 51 51
51 51 51
51 51 51
51 51 51
51 51 51
51 51 51
51 51 51
51 51 51
51 51 51
51 51 51
51 51 51
51 51 51
51 51 51
51 51 51
51 51 51
51 51 51
51 51 51
51 51 51
51 51 51
51 51 51
51 51 51
51 51 51
51 51 51
51 51 51
51 51 51
51 51 51
51 51 51
51 51 51
51 51 51
51 51 51
51 51 51
51 51 51
51 51 51
51 51 51
51 51 51
51 51 51
51 51 51
51 51 51
51 51 51
51 51 51
51 51 51
51 51 51
51 51 51
51 51 51
51 51 51
51 51 51
51 51 51
51 51 51
51 51 51
51 51 51
51 51 51
51 51 51
51 51 51
51 51 51
51 51 51
51 51 51
51 51 51
51 51 51
51 51 51
51 51 51
51 51 51
51 51 51
51 51 51
51 51 51
51 51 51
51 51 51
51 51 51
51 51 51
51 51 51
51 51 51
51 51 51
51 51 51
51 51 51
51 51 51
51 51 51
51 51 51
51 51 51
51 51 51
51 51 51
51 51 51
51 51 51
51 51 51
51 51 51
51 51 51
51 51 51
51 51 51
51 51 51
51 51 51
51 51 51
51 51 51
51 51 51
51 51 51
51 51 51
51 51 51
51 51 51
51 51 51
51 51 51
51 51 51
51 51 51
51 51 51
51 51 51
51 51 51
51 51 51
51 51 51
51 51 51
51 51 51
51 51 51
51 51 51
51 51 51
51 51 51
51 51 51
51 51 51
51 51 51
51 51 51
51 51 51
51 51 51
51 51 51
51 51 51
51 51 51
51 51 51
51 51 51
51 51 51
51 51 51
51 51 51
51 51 51
51 51 51
51 51 51
51 51 51
51 51 51
51 51 51
51 51 51
51 51 51
51 51 51
51 51 51
51 51 51
51 51 51
51 51 51
51 51 51
51 51 51
51 51 51
51 51 51
51 51 51
51 51 51
51 51 51
51 51 51
51 51 51
51 51 51
51 51 51
51 51 51
51 51 51
51 51 51
51 51 51
51 51 51
51 51 51
51 51 51
51 51 51
51 51 51
51 51 51
51 51 51
51 51 51
51 51 51
51 51 51
51 51 51
51 51 51
51 51 51
51 51 51
51 51 51
51 51 51
51 51 51
51 51 51
51 51 51
51 51 51
51 51 51
51 51 51
51 51 51
51 51 51
51 51 51
51 51 51
51 51 51
51 51 51
51 51 51
51 51 51
51 51 51
51 51 51
51 51 51
51 51 51
51 51 51
51 51 51
51 51 51
51 51 51
51 51 51
51 51 51
51 51 51
51 51 51
51 51 51
51 51 51
51 51 51
51 51 51
51 51 51
51 51 51
51 51 51
51 51 51
51 51 51
51 51 51
51 51 51
51 51 51
51 51 51
51 51 51
51 51 51
51 51 51
51 51 51
51 51 51
51 51 51
51 51 51
51 51 51
51 51 51
51 51 51
51 51 51
51 51 51
51 51 51
51 51 51
51 51 51
51 51 51
51 51 51
51 51 51
51 51 51
51 51 51
51 51 51
51 51 51
51 51 51
51 51 51
51 51 51
51 51 51
51 51 51
51 51 51
51 51 51
51 51 51
51 51 51
51 51 51
51 51 51
51 51 51
51 51 51
51 51 51
51 51 51
51 51 51
51 51 51
51 51 51
51 51 51
51 51 51
51 51 51
51 51 51
51 51 51
51 51 51
51 51 51
51 51 51
51 51 51
51 51 51
51 51 51
51 51 51
51 51 51
51 51 51
51 51 51
51 51 51
51 51 51
51 51 51
51 51 51
51 51 51
51 51 51
51 51 51
51 51 51
51 51 51
51 51 51
51 51 51
51 51 51
51 51 51
51 51 51
51 51 51
51 51 51
51 51 51
51 51 51
51 51 51
51 51 51
51 51 51
51 51 51
51 51 51
51 51 51
51 51 51
51 51 51
51 51 51
51 51 51
51 51 51
51 51 51
51 51 51
51 51 51
51 51 51
51 51 51
51 51 51
51 51 51
51 51 51
51 51 51
51 51 51
51 51 51
51 51 51
51 51 51
51 51 51
51 51 51
51 51 51
51 51 51
51 51 51
51 51 51
51 51 51
51 51 51
51 51 51
51 51 51
51 51 51
51 51 51
51 51 51
51 51 51
51 51 51
51 51 51
51 51 51
51 51 51
51 51 51
51 51 51
51 51 51
51 51 51
51 51 51
51 51 51
51 51 51
51 51 51
51 51 51
51 51 51
51 51 51
51 51 51
51 51 51
51 51 51
51 51 51
51 51 51
51 51 51
51 51 51
51 51 51
51 51 51
51 51 51
51 51 51
51 51 51
51 51 51
51 51 51
51 51 51
51 51 51
51 51 51
51 51 51
51 51 51
51 51 51
51 51 51
51 51 51
51 51 51
51 51 51
51 51 51
51 51 51
51 51 51
51 51 51
51 51 51
51 51 51
51 51 51
51 51 51
51 51 51
51 51 51
51 51 51
51 51 51
51 51 51
51 51 51
51 51 51
51 51 51
51 51 51
51 51 51
51 51 51
51 51 51
51 51 51
51 51 51
51 51 51
51 51 51
51 51 51
51 51 51
51 51 51
51 51 51
51 51 51
51 51 51
51 51 51
51 51 51
51 51 51
51 51 51
51 51 51
51 51 51
51 51 51
51 51 51
51 51 51
51 51 51
51 51 51
51 51 51
51 51 51
51 51 51
51 51 51
51 51 51
51 51 51
51 51 51
51 51 51
51 51 51
51 51 51
51 51 51
51 51 51
51 51 51
51 51 51
51 51 51
51 51 51
51 51 51
51 51 51
51 51 51
51 51 51
51 51 51
51 51 51
51 51 51
51 51 51
51 51 51
51 51 51
51 51 51
51 51 51
51 51 51
51 51 51
51 51 51
51 51 51
51 51 51
51 51 51
51 51 51
51 51 51
51 51 51
51 51 51
51 51 51
51 51 51
51 51 51
51 51 51
51 51 51
51 51 51
51 51 51
51 51 51
51 51 51
51 51 51
51 51 51
51 51 51
51 51 51
51 51 51
51 51 51
51 51 51
51 51 51
51 51 51
51 51 51
51 51 51
51 51 51
51 51 51
51 51 51
51 51 51
51 51 51
51 51 51
51 51 51
51 51 51
51 51 51
51 51 51
51 51 51
51 51 51
51 51 51
51 51 51
51 51 51
51 51 51
51 51 51
51 51 51
51 51 51
51 51 51
51 51 51
51 51 51
51 51 51
51 51 51
51 51 51
51 51 51
51 51 51
51 51 51
51 51 51
51 51 51
51 51 51
51 51 51
51 51 51
51 51 51
51 51 51
51 51 51
51 51 51
51 51 51
51 51 51
51 51 51
51 51 51
51 51 51
51 51 51
51 51 51
51 51 51
51 51 51
51 51 51
51 51 51
51 51 51
51 51 51
51 51 51
51 51 51
51 51 51
51 51 51
51 51 51
51 51 51
51 51 51
51 51 51
51 51 51
51 51 51
51 51 51
51 51 51
51 51 51
51 51 51
51 51 51
51 51 51
51 51 51
51 51 51
51 51 51
51 51 51
51 51 51
51 51 51
51 51 51
51 51 51
51 51 51
51 51 51
51 51 51
51 51 51
51 51 51
51 51 51
51 51 51
51 51 51
51 51 51
51 51 51
51 51 51
51 51 51
51 51 51
51 51 51
51 51 51
51 51 51
51 51 51
51 51 51
51 51 51
51 51 51
51 51 51
51 51 51
51 51 51
51 51 51
51 51 51
51 51 51
51 51 51
51 51 51
51 51 51
51 51 51
51 51 51
51 51 51
51 51 51
51 51 51
51 51 51
51 51 51
51 51 51
51 51 51
51 51 51
51 51 51
51 51 51
51 51 51
51 51 51
51 51 51
51 51 51
51 51 51
51 51 51
51 51 51
51 51 51
51 51 51
51 51 51
51 51 51
51 51 51
51 51 51
51 51 51
51 51 51
51 51 51
51 51 51
51 51 51
51 51 51
51 51 51
51 51 51
51 51 51
51 51 51
51 51 51
51 51 51
51 51 51
51 51 51
51 51 51
51 51 51
51 51 51
51 51 51
51 51 51
51 51 51
51 51 51
51 51 51
51 51 51
51 51 51
51 51 51
51 51 51
51 51 51
51 51 51
51 51 51
51 51 51
51 51 51
51 51 51
51 51 51
51 51 51
51 51 51
51 51 51
51 51 51
51 51 51
51 51 51
51 51 51
51 51 51
51 51 51
51 51 51
51 51 51
51 51 51
51 51 51
51 51 51
51 51 51
51 51 51
51 51 51
51 51 51
51 51 51
51 51 51
51 51 51
51 51 51
51 51 51
51 51 51
51 51 51
51 51 51
51 51 51
51 51 51
51 51 51
51 51 51
51 51 51
51 51 51
51 51 51
51 51 51
51 51 51
51 51 51
51 51 51
51 51 51
51 51 51
51 51 51
51 51 51
51 51 51
51 51 51
51 51 51
51 51 51
51 51 51
51 51 51
51 51 51
51 51 51
51 51 51
51 51 51
51 51 51
51 51 51
51 51 51
51 51 51
51 51 51
51 51 51
51 51 51
51 51 51
51 51 51
51 51 51
51 51 51
51 51 51
51 51 51
51 51 51
51 51 51
51 51 51
51 51 51
51 51 51
51 51 51
51 51 51
51 51 51
51 51 51
51 51 51
51 51 51
51 51 51
51 51 51
51 51 51
51 51 51
51 51 51
51 51 51
51 51 51
51 51 51
51 51 51
51 51 51
51 51 51
51 51 51
51 51 51
51 51 51
51 51 51
51 51 51
51 51 51
51 51 51
51 51 51
51 51 51
51 51 51
51 51 51
51 51 51
51 51 51
51 51 51
51 51 51
51 51 51
51 51 51
51 51 51
51 51 51
51 51 51
51 51 51
51 51 51
51 51 51
51 51 51
51 51 51
51 51 51
51 51 51
51 51 51
51 51 51
51 51 51
51 51 51
51 51 51
51 51 51
51 51 51
51 51 51
51 51 51
51 51 51
51 51 51
51 51 51
51 51 51
51 51 51
51 51 51
51 51 51
51 51 51
51 51 51
51 51 51
51 51 51
51 51 51
51 51 51
51 51 51
51 51 51
51 51 51
51 51 51
51 51 51
51 51 51
51 51 51
51 51 51
51 51 51
51 51 51
51 51 51
51 51 51
51 51 51
51 51 51
51 51 51
51 51 51
51 51 51
51 51 51
51 51 51
51 51 51
51 51 51
51 51 51
51 51 51
51 51 51
51 51 51
51 51 51
51 51 51
51 51 51
51 51 51
51 51 51
51 51 51
51 51 51
51 51 51
51 51 51
51 51 51
51 51 51
51 51 51
51 51 51
51 51 51
51 51 51
51 51 51
51 51 51
51 51 51
51 51 51
51 51 51
51 51 51
51 51 51
51 51 51
51 51 51
51 51 51
51 51 51
51 51 51
51 51 51
51 51 51
51 51 51
51 51 51
51 51 51
51 51 51
51 51 51
51 51 51
51 51 51
51 51 51
51 51 51
51 51 51
51 51 51
51 51 51
51 51 51
51 51 51
51 51 51
51 51 51
51 51 51
51 51 51
51 51 51
51 51 51
51 51 51
51 51 51
51 51 51
51 51 51
51 51 51
51 51 51
51 51 51
51 51 51
51 51 51
51 51 51
51 51 51
51 51 51
51 51 51
51 51 51
51 51 51
51 51 51
51 51 51
51 51 51
51 51 51
51 51 51
51 51 51
51 51 51
51 51 51
51 51 51
51 51 51
51 51 51
51 51 51
51 51 51
51 51 51
51 51 51
51 51 51
51 51 51
51 51 51
51 51 51
51 51 51
51 51 51
51 51 51
51 51 51
51 51 51
51 51 51
51 51 51
51 51 51
51 51 51
51 51 51
51 51 51
51 51 51
51 51 51
51 51 51
51 51 51
51 51 51
51 51 51
51 51 51
51 51 51
51 51 51
51 51 51
51 51 51
51 51 51
51 51 51
51 51 51
51 51 51
51 51 51
51 51 51
51 51 51
51 51 51
51 51 51
51 51 51
51 51 51
51 51 51
51 51 51
51 51 51
51 51 51
51 51 51
51 51 51
51 51 51
51 51 51
51 51 51
51 51 51
51 51 51
51 51 51
51 51 51
51 51 51
51 51 51
51 51 51
51 51 51
51 51 51
51 51 51
51 51 51
51 51 51
51 51 51
51 51 51
51 51 51
51 51 51
51 51 51
51 51 51
51 51 51
51 51 51
51 51 51
51 51 51
51 51 51
51 51 51
51 51 51
51 51 51
51 51 51
51 51 51
51 51 51
51 51 51
51 51 51
51 51 51
51 51 51
51 51 51
51 51 51
51 51 51
51 51 51
51 51 51
51 51 51
51 51 51
51 51 51
51 51 51
51 51 51
51 51 51
51 51 51
51 51 51
51 51 51
51 51 51
51 51 51
51 51 51
51 51 51
51 51 51
51 51 51
51 51 51
51 51 51
51 51 51
51 51 51
51 51 51
51 51 51
51 51 51
51 51 51
51 51 51
51 51 51
51 51 51
51 51 51
51 51 51
51 51 51
51 51 51
51 51 51
51 51 51
51 51 51
51 51 51
51 51 51
51 51 51
51 51 51
51 51 51
51 51 51
51 51 51
51 51 51
51 51 51
51 51 51
51 51 51
51 51 51
51 51 51
51 51 51
51 51 51
51 51 51
51 51 51
51 51 51
51 51 51
51 51 51
51 51 51
51 51 51
51 51 51
51 51 51
51 51 51
51 51 51
51 51 51
51 51 51
51 51 51
51 51 51
51 51 51
51 51 51
51 51 51
51 51 51
51 51 51
51 51 51
51 51 51
51 51 51
51 51 51
51 51 51
51 51 51
51 51 51
51 51 51
51 51 51
51 51 51
51 51 51
51 51 51
51 51 51
51 51 51
51 51 51
51 51 51
51 51 51
51 51 51
51 51 51
51 51 51
51 51 51
51 51 51
51 51 51
51 51 51
51 51 51
51 51 51
51 51 51
51 51 51
51 51 51
51 51 51
51 51 51
51 51 51
51 51 51
51 51 51
51 51 51
51 51 51
51 51 51
51 51 51
51 51 51
51 51 51
51 51 51
51 51 51
51 51 51
51 51 51
51 51 51
51 51 51
51 51 51
51 51 51
51 51 51
51 51 51
51 51 51
51 51 51
51 51 51
51 51 51
51 51 51
51 51 51
51 51 51
51 51 51
51 51 51
51 51 51
51 51 51
51 51 51
51 51 51
51 51 51
51 51 51
51 51 51
51 51 51
51 51 51
51 51 51
51 51 51
51 51 51
51 51 51
51 51 51
51 51 51
51 51 51
51 51 51
51 51 51
51 51 51
51 51 51
51 51 51
51 51 51
51 51 51
51 51 51
51 51 51
51 51 51
51 51 51
51 51 51
51 51 51
51 51 51
51 51 51
51 51 51
51 51 51
51 51 51
51 51 51
51 51 51
51 51 51
51 51 51
51 51 51
51 51 51
51 51 51
51 51 51
51 51 51
51 51 51
51 51 51
51 51 51
51 51 51
51 51 51
51 51 51
51 51 51
51 51 51
51 51 51
51 51 51
51 51 51
51 51 51
51 51 51
51 51 51
51 51 51
51 51 51
51 51 51
51 51 51
51 51 51
51 51 51
51 51 51
51 51 51
51 51 51
51 51 51
51 51 51
51 51 51
51 51 51
51 51 51
51 51 51
51 51 51
51 51 51
51 51 51
51 51 51
51 51 51
51 51 51
51 51 51
51 51 51
51 51 51
51 51 51
51 51 51
51 51 51
51 51 51
51 51 51
51 51 51
51 51 51
51 51 51
51 51 51
51 51 51
51 51 51
51 51 51
51 51 51
51 51 51
51 51 51
51 51 51
51 51 51
51 51 51
51 51 51
51 51 51
51 51 51
51 51 51
51 51 51
51 51 51
51 51 51
51 51 51
51 51 51
51 51 51
51 51 51
51 51 51
51 51 51
51 51 51
51 51 51
51 51 51
51 51 51
51 51 51
51 51 51
51 51 51
51 51 51
51 51 51
51 51 51
51 51 51
51 51 51
51 51 51
51 51 51
51 51 51
51 51 51
51 51 51
51 51 51
51 51 51
51 51 51
51 51 51
51 51 51
51 51 51
51 51 51
51 51 51
51 51 51
51 51 51
51 51 51
51 51 51
51 51 51
51 51 51
51 51 51
51 51 51
51 51 51
51 51 51
51 51 51
51 51 51
51 51 51
51 51 51
51 51 51
51 51 51
51 51 51
51 51 51
51 51 51
51 51 51
51 51 51
51 51 51
51 51 51
51 51 51
51 51 51
51 51 51
51 51 51
51 51 51
51 51 51
51 51 51
51 51 51
51 51 51
51 51 51
51 51 51
51 51 51
51 51 51
51 51 51
51 51 51
51 51 51
51 51 51
51 51 51
51 51 51
51 51 51
51 51 51
51 51 51
51 51 51
51 51 51
51 51 51
51 51 51
51 51 51
51 51 51
51 51 51
51 51 51
51 51 51
51 51 51
51 51 51
51 51 51
51 51 51
51 51 51
51 51 51
51 51 51
51 51 51
51 51 51
51 51 51
51 51 51
51 51 51
51 51 51
51 51 51
51 51 51
51 51 51
51 51 51
51 51 51
51 51 51
51 51 51
51 51 51
51 51 51
51 51 51
51 51 51
51 51 51
51 51 51
51 51 51
51 51 51
51 51 51
51 51 51
51 51 51
51 51 51
51 51 51
51 51 51
51 51 51
51 51 51
51 51 51
51 51 51
51 51 51
51 51 51
51 51 51
51 51 51
51 51 51
51 51 51
51 51 51
51 51 51
51 51 51
51 51 51
51 51 51
51 51 51
51 51 51
51 51 51
51 51 51
51 51 51
51 51 51
51 51 51
51 51 51
51 51 51
51 51 51
51 51 51
51 51 51
51 51 51
51 51 51
51 51 51
51 51 51
51 51 51
51 51 51
51 51 51
51 51 51
51 51 51
51 51 51
51 51 51
51 51 51
51 51 51
51 51 51
51 51 51
51 51 51
51 51 51
51 51 51
51 51 51
51 51 51
51 51 51
51 51 51
51 51 51
51 51 51
51 51 51
51 51 51
51 51 51
51 51 51
51 51 51
51 51 51
51 51 51
51 51 51
51 51 51
51 51 51
51 51 51
51 51 51
51 51 51
51 51 51
51 51 51
51 51 51
51 51 51
51 51 51
51 51 51
51 51 51
51 51 51
51 51 51
51 51 51
51 51 51
51 51 51
51 51 51
51 51 51
51 51 51
51 51 51
51 51 51
51 51 51
51 51 51
51 51 51
51 51 51
51 51 51
51 51 51
51 51 51
51 51 51
51 51 51
51 51 51
51 51 51
51 51 51
51 51 51
51 51 51
51 51 51
51 51 51
51 51 51
51 51 51
51 51 51
51 51 51
51 51 51
51 51 51
51 51 51
51 51 51
51 51 51
51 51 51
51 51 51
51 51 51
51 51 51
51 51 51
51 51 51
51 51 51
51 51 51
51 51 51
51 51 51
51 51 51
51 51 51
51 51 51
51 51 51
51 51 51
51 51 51
51 51 51
51 51 51
51 51 51
51 51 51
51 51 51
51 51 51
51 51 51
51 51 51
51 51 51
51 51 51
51 51 51
51 51 51
51 51 51
51 51 51
51 51 51
51 51 51
51 51 51
51 51 51
51 51 51
51 51 51
51 51 51
51 51 51
51 51 51
51 51 51
51 51 51
51 51 51
51 51 51
51 51 51
51 51 51
51 51 51
51 51 51
51 51 51
51 51 51
51 51 51
51 51 51
51 51 51
51 51 51
51 51 51
51 51 51
51 51 51
51 51 51
51 51 51
51 51 51
51 51 51
51 51 51
51 51 51
51 51 51
51 51 51
51 51 51
51 51 51
51 51 51
51 51 51
51 51 51
51 51 51
51 51 51
51 51 51
51 51 51
51 51 51
51 51 51
51 51 51
51 51 51
51 51 51
51 51 51
51 51 51
51 51 51
51 51 51
51 51 51
51 51 51
51 51 51
51 51 51
51 51 51
51 51 51
51 51 51
51 51 51
51 51 51
51 51 51
51 51 51
51 51 51
51 51 51
51 51 51
51 51 51
51 51 51
51 51 51
51 51 51
51 51 51
51 51 51
51 51 51
51 51 51
51 51 51
51 51 51
51 51 51
51 51 51
51 51 51
51 51 51
51 51 51
51 51 51
51 51 51
51 51 51
51 51 51
51 51 51
51 51 51
51 51 51
51 51 51
51 51 51
51 51 51
51 51 51
51 51 51
51 51 51
51 51 51
51 51 51
51 51 51
51 51 51
51 51 51
51 51 51
51 51 51
51 51 51
51 51 51
51 51 51
51 51 51
51 51 51
51 51 51
51 51 51
51 51 51
51 51 51
51 51 51
51 51 51
51 51 51
51 51 51
51 51 51
51 51 51
51 51 51
51 51 51
51 51 51
51 51 51
51 51 51
51 51 51
51 51 51
51 51 51
51 51 51
51 51 51
51 51 51
51 51 51
51 51 51
51 51 51
51 51 51
51 51 51
51 51 51
51 51 51
51 51 51
51 51 51
51 51 51
51 51 51
51 51 51
51 51 51
51 51 51
51 51 51
51 51 51
51 51 51
51 51 51
51 51 51
51 51 51
51 51 51
51 51 51
51 51 51
51 51 51
51 51 51
51 51 51
51 51 51
51 51 51
51 51 51
51 51 51
51 51 51
51 51 51
51 51 51
51 51 51
51 51 51
51 51 51
51 51 51
51 51 51
51 51 51
51 51 51
51 51 51
51 51 51
51 51 51
51 51 51
51 51 51
51 51 51
51 51 51
51 51 51
51 51 51
51 51 51
51 51 51
51 51 51
51 51 51
51 51 51
51 51 51
51 51 51
51 51 51
51 51 51
51 51 51
51 51 51
51 51 51
51 51 51
51 51 51
51 51 51
51 51 51
51 51 51
51 51 51
51 51 51
51 51 51
51 51 51
51 51 51
51 51 51
51 51 51
51 51 51
51 51 51
51 51 51
51 51 51
51 51 51
51 51 51
51 51 51
51 51 51
51 51 51
51 51 51
51 51 51
51 51 51
51 51 51
51 51 51
51 51 51
51 51 51
51 51 51
51 51 51
51 51 51
51 51 51
51 51 51
51 51 51
51 51 51
51 51 51
51 51 51
51 51 51
51 51 51
51 51 51
51 51 51
51 51 51
51 51 51
51 51 51
51 51 51
51 51 51
51 51 51
51 51 51
51 51 51
51 51 51
51 51 51
51 51 51
51 51 51
51 51 51
51 51 51
51 51 51
51 51 51
51 51 51
51 51 51
51 51 51
51 51 51
51 51 51
51 51 51
51 51 51
51 51 51
51 51 51
51 51 51
51 51 51
51 51 51
51 51 51
51 51 51
51 51 51
51 51 51
51 51 51
51 51 51
51 51 51
51 51 51
51 51 51
51 51 51
51 51 51
51 51 51
51 51 51
51 51 51
51 51 51
51 51 51
51 51 51
51 51 51
51 51 51
51 51 51
51 51 51
51 51 51
51 51 51
51 51 51
51 51 51
51 51 51
51 51 51
51 51 51
51 51 51
51 51 51
51 51 51
51 51 51
51 51 51
51 51 51
51 51 51
51 51 51
51 51 51
51 51 51
51 51 51
51 51 51
51 51 51
51 51 51
51 51 51
51 51 51
51 51 51
51 51 51
51 51 51
51 51 51
51 51 51
51 51 51
51 51 51
51 51 51
51 51 51
51 51 51
51 51 51
51 51 51
51 51 51
51 51 51
51 51 51
51 51 51
51 51 51
51 51 51
51 51 51
51 51 51
51 51 51
51 51 51
51 51 51
51 51 51
51 51 51
51 51 51
51 51 51
51 51 51
51 51 51
51 51 51
51 51 51
51 51 51
51 51 51
51 51 51
51 51 51
51 51 51
51 51 51
51 51 51
51 51 51
51 51 51
51 51 51
51 51 51
51 51 51
51 51 51
51 51 51
51 51 51
51 51 51
51 51 51
51 51 51
51 51 51
51 51 51
51 51 51
51 51 51
51 51 51
51 51 51
51 51 51
51 51 51
51 51 51
51 51 51
51 51 51
51 51 51
51 51 51
51 51 51
51 51 51
51 51 51
51 51 51
51 51 51
51 51 51
51 51 51
51 51 51
51 51 51
51 51 51
51 51 51
51 51 51
51 51 51
51 51 51
51 51 51
51 51 51
51 51 51
51 51 51
51 51 51
51 51 51
51 51 51
51 51 51
51 51 51
51 51 51
51 51 51
51 51 51
51 51 51
51 51 51
51 51 51
51 51 51
51 51 51
51 51 51
51 51 51
51 51 51
51 51 51
51 51 51
51 51 51
51 51 51
51 51 51
51 51 51
51 51 51
51 51 51
51 51 51
51 51 51
51 51 51
51 51 51
51 51 51
51 51 51
51 51 51
51 51 51
51 51 51
51 51 51
51 51 51
51 51 51
51 51 51
51 51 51
51 51 51
51 51 51
51 51 51
51 51 51
51 51 51
51 51 51
51 51 51
51 51 51
51 51 51
51 51 51
51 51 51
51 51 51
51 51 51
51 51 51
51 51 51
51 51 51
51 51 51
51 51 51
51 51 51
51 51 51
51 51 51
51 51 51
51 51 51
51 51 51
51 51 51
51 51 51
51 51 51
51 51 51
51 51 51
51 51 51
51 51 51
51 51 51
51 51 51
51 51 51
51 51 51
51 51 51
51 51 51
51 51 51
51 51 51
51 51 51
51 51 51
51 51 51
51 51 51
51 51 51
51 51 51
51 51 51
51 51 51
51 51 51
51 51 51
51 51 51
51 51 51
51 51 51
51 51 51
51 51 51
51 51 51
51 51 51
51 51 51
51 51 51
51 51 51
51 51 51
51 51 51
51 51 51
51 51 51
51 51 51
51 51 51
51 51 51
51 51 51
51 51 51
51 51 51
51 51 51
51 51 51
51 51 51
51 51 51
51 51 51
51 51 51
51 51 51
51 51 51
51 51 51
51 51 51
51 51 51
51 51 51
51 51 51
51 51 51
51 51 51
51 51 51
51 51 51
51 51 51
51 51 51
51 51 51
51 51 51
51 51 51
51 51 51
51 51 51
51 51 51
51 51 51
51 51 51
51 51 51
51 51 51
51 51 51
51 51 51
51 51 51
51 51 51
51 51 51
51 51 51
51 51 51
51 51 51
51 51 51
51 51 51
51 51 51
51 51 51
51 51 51
51 51 51
51 51 51
51 51 51
51 51 51
51 51 51
51 51 51
51 51 51
51 51 51
51 51 51
51 51 51
51 51 51
51 51 51
51 51 51
51 51 51
51 51 51
51 51 51
51 51 51
51 51 51
51 51 51
51 51 51
51 51 51
51 51 51
51 51 51
51 51 51
51 51 51
51 51 51
51 51 51
51 51 51
51 51 51
51 51 51
51 51 51
51 51 51
51 51 51
51 51 51
51 51 51
51 51 51
51 51 51
51 51 51
51 51 51
51 51 51
51 51 51
51 51 51
51 51 51
51 51 51
51 51 51
51 51 51
51 51 51
51 51 51
51 51 51
51 51 51
51 51 51
51 51 51
51 51 51
51 51 51
51 51 51
51 51 51
51 51 51
51 51 51
51 51 51
51 51 51
51 51 51
51 51 51
51 51 51
51 51 51
51 51 51
51 51 51
51 51 51
51 51 51
51 51 51
51 51 51
51 51 51
51 51 51
51 51 51
51 51 51
51 51 51
51 51 51
51 51 51
51 51 51
51 51 51
51 51 51
51 51 51
51 51 51
51 51 51
51 51 51
51 51 51
51 51 51
51 51 51
51 51 51
51 51 51
51 51 51
51 51 51
51 51 51
51 51 51
51 51 51
51 51 51
51 51 51
51 51 51
51 51 51
51 51 51
51 51 51
51 51 51
51 51 51
51 51 51
51 51 51
51 51 51
51 51 51
51 51 51
51 51 51
51 51 51
51 51 51
51 51 51
51 51 51
51 51 51
51 51 51
51 51 51
51 51 51
51 51 51
51 51 51
51 51 51
51 51 51
51 51 51
51 51 51
51 51 51
51 51 51
51 51 51
51 51 51
51 51 51
51 51 51
51 51 51
51 51 51
51 51 51
51 51 51
51 51 51
51 51 51
51 51 51
51 51 51
51 51 51
51 51 51
51 51 51
51 51 51
51 51 51
51 51 51
51 51 51
51 51 51
51 51 51
51 51 51
51 51 51
51 51 51
51 51 51
51 51 51
51 51 51
51 51 51
51 51 51
51 51 51
51 51 51
51 51 51
51 51 51
51 51 51
51 51 51
51 51 51
51 51 51
51 51 51
51 51 51
51 51 51
51 51 51
51 51 51
51 51 51
51 51 51
51 51 51
51 51 51
51 51 51
51 51 51
51 51 51
51 51 51
51 51 51
51 51 51
51 51 51
51 51 51
51 51 51
51 51 51
51 51 51
51 51 51
51 51 51
51 51 51
51 51 51
51 51 51
51 51 51
51 51 51
51 51 51
51 51 51
51 51 51
51 51 51
51 51 51
51 51 51
51 51 51
51 51 51
51 51 51
51 51 51
51 51 51
51 51 51
51 51 51
51 51 51
51 51 51
51 51 51
51 51 51
51 51 51
51 51 51
51 51 51
51 51 51
51 51 51
51 51 51
51 51 51
51 51 51
51 51 51
51 51 51
51 51 51
51 51 51
51 51 51
51 51 51
51 51 51
51 51 51
51 51 51
51 51 51
51 51 51
51 51 51
51 51 51
51 51 51
51 51 51
51 51 51
51 51 51
51 51 51
51 51 51
51 51 51
51 51 51
51 51 51
51 51 51
51 51 51
51 51 51
51 51 51
51 51 51
51 51 51
51 51 51
51 51 51
51 51 51
51 51 51
51 51 51
51 51 51
51 51 51
51 51 51
51 51 51
51 51 51
51 51 51
51 51 51
51 51 51
51 51 51
51 51 51
51 51 51
51 51 51
51 51 51
51 51 51
51 51 51
51 51 51
51 51 51
51 51 51
51 51 51
51 51 51
51 51 51
51 51 51
51 51 51
51 51 51
51 51 51
51 51 51
51 51 51
51 51 51
51 51 51
51 51 51
51 51 51
51 51 51
51 51 51
51 51 51
51 51 51
51 51 51
51 51 51
51 51 51
51 51 51
51 51 51
51 51 51
51 51 51
51 51 51
51 51 51
51 51 51
51 51 51
51 51 51
51 51 51
51 51 51
51 51 51
51 51 51
51 51 51
51 51 51
51 51 51
51 51 51
51 51 51
51 51 51
51 51 51
51 51 51
51 51 51
51 51 51
51 51 51
51 51 51
51 51 51
51 51 51
51 51 51
51 51 51
51 51 51
51 51 51
51 51 51
51 51 51
51 51 51
51 51 51
51 51 51
51 51 51
51 51 51
51 51 51
51 51 51
51 51 51
51 51 51
51 51 51
51 51 51
51 51 51
51 51 51
51 51 51
51 51 51
51 51 51
51 51 51
51 51 51
51 51 51
51 51 51
51 51 51
51 51 51
51 51 51
51 51 51
51 51 51
51 51 51
51 51 51
51 51 51
51 51 51
51 51 51
51 51 51
51 51 51
51 51 51
51 51 51
51 51 51
51 51 51
51 51 51
51 51 51
51 51 51
51 51 51
51 51 51
51 51 51
51 51 51
51 51 51
51 51 51
51 51 51
51 51 51
51 51 51
51 51 51
51 51 51
51 51 51
51 51 51
51 51 51
51 51 51
51 51 51
51 51 51
51 51 51
51 51 51
51 51 51
51 51 51
51 51 51
51 51 51
51 51 51
51 51 51
51 51 51
51 51 51
51 51 51
51 51 51
51 51 51
51 51 51
51 51 51
51 51 51
51 51 51
51 51 51
51 51 51
51 51 51
51 51 51
51 51 51
51 51 51
51 51 51
51 51 51
51 51 51
51 51 51
51 51 51
51 51 51
51 51 51
51 51 51
51 51 51
51 51 51
51 51 51
51 51 51
51 51 51
51 51 51
51 51 51
51 51 51
51 51 51
51 51 51
51 51 51
51 51 51
51 51 51
51 51 51
51 51 51
51 51 51
51 51 51
51 51 51
51 51 51
51 51 51
51 51 51
51 51 51
51 51 51
51 51 51
51 51 51
51 51 51
51 51 51
51 51 51
51 51 51
51 51 51
51 51 51
51 51 51
51 51 51
51 51 51
51 51 51
51 51 51
51 51 51
51 51 51
51 51 51
51 51 51
51 51 51
51 51 51
51 51 51
51 51 51
51 51 51
51 51 51
51 51 51
51 51 51
51 51 51
51 51 51
51 51 51
51 51 51
51 51 51
51 51 51
51 51 51
51 51 51
51 51 51
51 51 51
51 51 51
51 51 51
51 51 51
51 51 51
51 51 51
51 51 51
51 51 51
51 51 51
51 51 51
51 51 51
51 51 51
51 51 51
51 51 51
51 51 51
51 51 51
51 51 51
51 51 51
51 51 51
51 51 51
51 51 51
51 51 51
51 51 51
51 51 51
51 51 51
51 51 51
51 51 51
51 51 51
51 51 51
51 51 51
51 51 51
51 51 51
51 51 51
51 51 51
51 51 51
51 51 51
51 51 51
51 51 51
51 51 51
51 51 51
51 51 51
51 51 51
51 51 51
51 51 51
51 51 51
51 51 51
51 51 51
51 51 51
51 51 51
51 51 51
51 51 51
51 51 51
51 51 51
51 51 51
51 51 51
51 51 51
51 51 51
51 51 51
51 51 51
51 51 51
51 51 51
51 51 51
51 51 51
51 51 51
51 51 51
51 51 51
51 51 51
51 51 51
51 51 51
51 51 51
51 51 51
51 51 51
51 51 51
51 51 51
51 51 51
51 51 51
51 51 51
51 51 51
51 51 51
51 51 51
51 51 51
51 51 51
51 51 51
51 51 51
51 51 51
51 51 51
51 51 51
51 51 51
51 51 51
51 51 51
51 51 51
51 51 51
51 51 51
51 51 51
51 51 51
51 51 51
51 51 51
51 51 51
51 51 51
51 51 51
51 51 51
51 51 51
51 51 51
51 51 51
51 51 51
51 51 51
51 51 51
51 51 51
51 51 51
51 51 51
51 51 51
51 51 51
51 51 51
51 51 51
51 51 51
51 51 51
51 51 51
51 51 51
51 51 51
51 51 51
51 51 51
51 51 51
51 51 51
51 51 51
51 51 51
51 51 51
51 51 51
51 51 51
51 51 51
51 51 51
51 51 51
51 51 51
51 51 51
51 51 51
51 51 51
51 51 51
51 51 51
51 51 51
51 51 51
51 51 51
51 51 51
51 51 51
51 51 51
51 51 51
51 51 51
51 51 51
51 51 51
51 51 51
51 51 51
51 51 51
51 51 51
51 51 51
51 51 51
51 51 51
51 51 51
51 51 51
51 51 51
51 51 51
51 51 51
51 51 51
51 51 51
51 51 51
51 51 51
51 51 51
51 51 51
51 51 51
51 51 51
51 51 51
51 51 51
51 51 51
51 51 51
51 51 51
51 51 51
51 51 51
51 51 51
51 51 51
51 51 51
51 51 51
51 51 51
51 51 51
51 51 51
51 51 51
51 51 51
51 51 51
51 51 51
51 51 51
51 51 51
51 51 51
51 51 51
51 51 51
51 51 51
51 51 51
51 51 51
51 51 51
51 51 51
51 51 51
51 51 51
51 51 51
51 51 51
51 51 51
51 51 51
51 51 51
51 51 51
51 51 51
51 51 51
51 51 51
51 51 51
51 51 51
51 51 51
51 51 51
51 51 51
51 51 51
51 51 51
51 51 51
51 51 51
51 51 51
51 51 51
51 51 51
51 51 51
51 51 51
51 51 51
51 51 51
51 51 51
51 51 51
51 51 51
51 51 51
51 51 51
51 51 51
51 51 51
51 51 51
51 51 51
51 51 51
51 51 51
51 51 51
51 51 51
51 51 51
51 51 51
51 51 51
51 51 51
51 51 51
51 51 51
51 51 51
51 51 51
51 51 51
51 51 51
51 51 51
51 51 51
51 51 51
51 51 51
51 51 51
51 51 51
51 51 51
51 51 51
51 51 51
51 51 51
51 51 51
51 51 51
51 51 51
51 51 51
51 51 51
51 51 51
51 51 51
51 51 51
51 51 51
51 51 51
51 51 51
51 51 51
51 51 51
51 51 51
51 51 51
51 51 51
51 51 51
51 51 51
51 51 51
51 51 51
51 51 51
51 51 51
51 51 51
51 51 51
51 51 51
51 51 51
51 51 51
51 51 51
51 51 51
51 51 51
51 51 51
51 51 51
51 51 51
51 51 51
51 51 51
51 51 51
51 51 51
51 51 51
51 51 51
51 51 51
51 51 51
51 51 51
51 51 51
51 51 51
51 51 51
51 51 51
51 51 51
51 51 51
51 51 51
51 51 51
51 51 51
51 51 51
51 51 51
51 51 51
51 51 51
51 51 51
51 51 51
51 51 51
51 51 51
51 51 51
51 51 51
51 51 51
51 51 51
51 51 51
51 51 51
51 51 51
51 51 51
51 51 51
51 51 51
51 51 51
51 51 51
51 51 51
51 51 51
51 51 51
51 51 51
51 51 51
51 51 51
51 51 51
51 51 51
51 51 51
51 51 51
51 51 51
51 51 51
51 51 51
51 51 51
51 51 51
51 51 51
51 51 51
51 51 51
51 51 51
51 51 51
51 51 51
51 51 51
51 51 51
51 51 51
51 51 51
51 51 51
51 51 51
51 51 51
51 51 51
51 51 51
51 51 51
51 51 51
51 51 51
51 51 51
51 51 51
51 51 51
51 51 51
51 51 51
51 51 51
51 51 51
51 51 51
51 51 51
51 51 51
51 51 51
51 51 51
51 51 51
51 51 51
51 51 51
51 51 51
51 51 51
51 51 51
51 51 51
51 51 51
51 51 51
51 51 51
51 51 51
51 51 51
51 51 51
51 51 51
51 51 51
51 51 51
51 51 51
51 51 51
51 51 51
51 51 51
51 51 51
51 51 51
51 51 51
51 51 51
51 51 51
51 51 51
51 51 51
51 51 51
51 51 51
51 51 51
51 51 51
51 51 51
51 51 51
51 51 51
51 51 51
51 51 51
51 51 51
51 51 51
51 51 51
51 51 51
51 51 51
51 51 51
51 51 51
51 51 51
51 51 51
51 51 51
51 51 51
51 51 51
51 51 51
51 51 51
51 51 51
51 51 51
51 51 51
51 51 51
51 51 51
51 51 51
51 51 51
51 51 51
51 51 51
51 51 51
51 51 51
51 51 51
51 51 51
51 51 51
51 51 51
51 51 51
51 51 51
51 51 51
51 51 51
51 51 51
51 51 51
51 51 51
51 51 51
51 51 51
51 51 51
51 51 51
51 51 51
51 51 51
51 51 51
51 51 51
51 51 51
51 51 51
51 51 51
51 51 51
51 51 51
51 51 51
51 51 51
51 51 51
51 51 51
51 51 51
51 51 51
51 51 51
51 51 51
51 51 51
51 51 51
51 51 51
51 51 51
51 51 51
51 51 51
51 51 51
51 51 51
51 51 51
51 51 51
51 51 51
51 51 51
51 51 51
51 51 51
51 51 51
51 51 51
51 51 51
51 51 51
51 51 51
51 51 51
51 51 51
51 51 51
51 51 51
51 51 51
51 51 51
51 51 51
51 51 51
51 51 51
51 51 51
51 51 51
51 51 51
51 51 51
51 51 51
51 51 51
51 51 51
51 51 51
51 51 51
51 51 51
51 51 51
51 51 51
51 51 51
51 51 51
51 51 51
51 51 51
51 51 51
51 51 51
51 51 51
51 51 51
51 51 51
51 51 51
51 51 51
51 51 51
51 51 51
51 51 51
51 51 51
51 51 51
51 51 51
51 51 51
51 51 51
51 51 51
51 51 51
51 51 51
51 51 51
51 51 51
51 51 51
51 51 51
51 51 51
51 51 51
51 51 51
51 51 51
51 51 51
51 51 51
51 51 51
51 51 51
51 51 51
51 51 51
51 51 51
51 51 51
51 51 51
51 51 51
51 51 51
51 51 51
51 51 51
51 51 51
51 51 51
51 51 51
51 51 51
51 51 51
51 51 51
51 51 51
51 51 51
51 51 51
51 51 51
51 51 51
51 51 51
51 51 51
51 51 51
51 51 51
51 51 51
51 51 51
51 51 51
51 51 51
51 51 51
51 51 51
51 51 51
51 51 51
51 51 51
51 51 51
51 51 51
51 51 51
51 51 51
51 51 51
51 51 51
51 51 51
51 51 51
51 51 51
51 51 51
51 51 51
51 51 51
51 51 51
51 51 51
51 51 51
51 51 51
51 51 51
51 51 51
51 51 51
51 51 51
51 51 51
51 51 51
51 51 51
51 51 51
51 51 51
51 51 51
51 51 51
51 51 51
51 51 51
51 51 51
51 51 51
51 51 51
51 51 51
51 51 51
51 51 51
51 51 51
51 51 51
51 51 51
51 51 51
51 51 51
51 51 51
51 51 51
51 51 51
51 51 51
51 51 51
51 51 51
51 51 51
51 51 51
51 51 51
51 51 51
51 51 51
51 51 51
51 51 51
51 51 51
51 51 51
51 51 51
51 51 51
51 51 51
51 51 51
51 51 51
51 51 51
51 51 51
51 51 51
51 51 51
51 51 51
51 51 51
51 51 51
51 51 51
51 51 51
51 51 51
51 51 51
51 51 51
51 51 51
51 51 51
51 51 51
51 51 51
51 51 51
51 51 51
51 51 51
51 51 51
51 51 51
51 51 51
51 51 51
51 51 51
51 51 51
51 51 51
51 51 51
51 51 51
51 51 51
51 51 51
51 51 51
51 51 51
51 51 51
51 51 51
51 51 51
51 51 51
51 51 51
51 51 51
51 51 51
51 51 51
51 51 51
51 51 51
51 51 51
51 51 51
51 51 51
51 51 51
51 51 51
51 51 51
51 51 51
51 51 51
51 51 51
51 51 51
51 51 51
51 51 51
51 51 51
51 51 51
51 51 51
51 51 51
51 51 51
51 51 51
51 51 51
51 51 51
51 51 51
51 51 51
51 51 51
51 51 51
51 51 51
51 51 51
51 51 51
51 51 51
51 51 51
51 51 51
51 51 51
51 51 51
51 51 51
51 51 51
51 51 51
51 51 51
51 51 51
51 51 51
51 51 51
51 51 51
51 51 51
51 51 51
51 51 51
51 51 51
51 51 51
51 51 51
51 51 51
51 51 51
51 51 51
51 51 51
51 51 51
51 51 51
51 51 51
51 51 51
51 51 51
51 51 51
51 51 51
51 51 51
51 51 51
51 51 51
51 51 51
51 51 51
51 51 51
51 51 51
51 51 51
51 51 51
51 51 51
51 51 51
51 51 51
51 51 51
51 51 51
51 51 51
51 51 51
51 51 51
51 51 51
51 51 51
51 51 51
51 51 51
51 51 51
51 51 51
51 51 51
51 51 51
51 51 51
51 51 51
51 51 51
51 51 51
51 51 51
51 51 51
51 51 51
51 51 51
51 51 51
51 51 51
51 51 51
51 51 51
51 51 51
51 51 51
51 51 51
51 51 51
51 51 51
51 51 51
51 51 51
51 51 51
51 51 51
51 51 51
51 51 51
51 51 51
51 51 51
51 51 51
51 51 51
51 51 51
51 51 51
51 51 51
51 51 51
51 51 51
51 51 51
51 51 51
51 51 51
51 51 51
51 51 51
51 51 51
51 51 51
51 51 51
51 51 51
51 51 51
51 51 51
51 51 51
51 51 51
51 51 51
51 51 51
51 51 51
51 51 51
51 51 51
51 51 51
51 51 51
51 51 51
51 51 51
51 51 51
51 51 51
51 51 51
51 51 51
51 51 51
51 51 51
51 51 51
51 51 51
51 51 51
51 51 51
51 51 51
51 51 51
51 51 51
51 51 51
51 51 51
51 51 51
51 51 51
51 51 51
51 51 51
51 51 51
51 51 51
51 51 51
51 51 51
51 51 51
51 51 51
51 51 51
51 51 51
51 51 51
51 51 51
51 51 51
51 51 51
51 51 51
51 51 51
51 51 51
51 51 51
51 51 51
51 51 51
51 51 51
51 51 51
51 51 51
51 51 51
51 51 51
51 51 51
51 51 51
51 51 51
51 51 51
51 51 51
51 51 51
51 51 51
51 51 51
51 51 51
51 51 51
51 51 51
51 51 51
51 51 51
51 51 51
51 51 51
51 51 51
51 51 51
51 51 51
51 51 51
51 51 51
51 51 51
51 51 51
51 51 51
51 51 51
51 51 51
51 51 51
51 51 51
51 51 51
51 51 51
51 51 51
51 51 51
51 51 51
51 51 51
51 51 51
51 51 51
51 51 51
51 51 51
51 51 51
51 51 51
51 51 51
51 51 51
51 51 51
51 51 51
51 51 51
51 51 51
51 51 51
51 51 51
51 51 51
51 51 51
51 51 51
51 51 51
51 51 51
51 51 51
51 51 51
51 51 51
51 51 51
51 51 51
51 51 51
51 51 51
51 51 51
51 51 51
51 51 51
51 51 51
51 51 51
51 51 51
51 51 51
51 51 51
51 51 51
51 51 51
51 51 51
51 51 51
51 51 51
51 51 51
51 51 51
51 51 51
51 51 51
51 51 51
51 51 51
51 51 51
51 51 51
51 51 51
51 51 51
51 51 51
51 51 51
51 51 51
51 51 51
51 51 51
51 51 51
51 51 51
51 51 51
51 51 51
51 51 51
51 51 51
51 51 51
51 51 51
51 51 51
51 51 51
51 51 51
51 51 51
51 51 51
51 51 51
51 51 51
51 51 51
51 51 51
51 51 51
51 51 51
51 51 51
51 51 51
51 51 51
51 51 51
51 51 51
51 51 51
51 51 51
51 51 51
51 51 51
51 51 51
51 51 51
51 51 51
51 51 51
51 51 51
51 51 51
51 51 51
51 51 51
51 51 51
51 51 51
51 51 51
51 51 51
51 51 51
51 51 51
51 51 51
51 51 51
51 51 51
51 51 51
51 51 51
51 51 51
51 51 51
51 51 51
51 51 51
51 51 51
51 51 51
51 51 51
51 51 51
51 51 51
51 51 51
51 51 51
51 51 51
51 51 51
51 51 51
51 51 51
51 51 51
51 51 51
51 51 51
51 51 51
51 51 51
51 51 51
51 51 51
51 51 51
51 51 51
51 51 51
51 51 51
51 51 51
51 51 51
51 51 51
51 51 51
51 51 51
51 51 51
51 51 51
51 51 51
51 51 51
51 51 51
51 51 51
51 51 51
51 51 51
51 51 51
51 51 51
51 51 51
51 51 51
51 51 51
51 51 51
51 51 51
51 51 51
51 51 51
51 51 51
51 51 51
51 51 51
51 51 51
51 51 51
51 51 51
51 51 51
51 51 51
51 51 51
51 51 51
51 51 51
51 51 51
51 51 51
51 51 51
51 51 51
51 51 51
51 51 51
51 51 51
51 51 51
51 51 51
51 51 51
51 51 51
51 51 51
51 51 51
51 51 51
51 51 51
51 51 51
51 51 51
51 51 51
51 51 51
51 51 51
51 51 51
51 51 51
51 51 51
51 51 51
46 46 46
46 46 46
46 46 46
46 46 46
46 46 46
46 46 46
46 46 46
46 46 46
46 46 46
46 46 46
51 51 51
51 51 51
51 51 51
51 51 51
51 51 51
51 51 51
51 51 51
51 51 51
51 51 51
51 51 51
51 51 51
51 51 51
51 51 51
51 51 51
51 51 51
51 51 51
51 51 51
51 51 51
51 51 51
51 51 51
51 51 51
51 51 51
51 51 51
51 51 51
51 51 51
51 51 51
51 51 51
51 51 51
51 51 51
51 51 51
51 51 51
51 51 51
51 51 51
51 51 51
51 51 51
51 51 51
51 51 51
51 51 51
51 51 51
51 51 51
51 51 51
51 51 51
51 51 51
51 51 51
51 51 51
51 51 51
51 51 51
51 51 51
51 51 51
51 51 51
51 51 51
51 51 51
51 51 51
51 51 51
51 51 51
51 51 51
51 51 51
51 51 51
51 51 51
51 51 51
51 51 51
51 51 51
51 51 51
51 51 51
51 51 51
51 51 51
51 51 51
51 51 51
51 51 51
51 51 51
51 51 51
51 51 51
51 51 51
51 51 51
51 51 51
51 51 51
51 51 51
51 51 51
51 51 51
51 51 51
51 51 51
51 51 51
51 51 51
51 51 51
51 51 51
51 51 51
51 51 51
51 51 51
51 51 51
51 51 51
51 51 51
51 51 51
51 51 51
51 51 51
51 51 51
51 51 51
51 51 51
51 51 51
51 51 51
51 51 51
51 51 51
51 51 51
51 51 51
51 51 51
51 51 51
51 51 51
51 51 51
51 51 51
51 51 51
51 51 51
51 51 51
51 51 51
51 51 51
51 51 51
51 51 51
51 51 51
51 51 51
51 51 51
51 51 51
51 51 51
51 51 51
51 51 51
51 51 51
51 51 51
51 51 51
51 51 51
51 51 51
51 51 51
51 51 51
51 51 51
51 51 51
51 51 51
51 51 51
51 51 51
51 51 51
51 51 51
51 51 51
51 51 51
51 51 51
51 51 51
51 51 51
51 51 51
51 51 51
51 51 51
51 51 51
51 51 51
51 51 51
51 51 51
51 51 51
51 51 51
51 51 51
51 51 51
51 51 51
51 51 51
51 51 51
51 51 51
51 51 51
51 51 51
51 51 51
51 51 51
51 51 51
51 51 51
51 51 51
51 51 51
51 51 51
51 51 51
51 51 51
51 51 51
51 51 51
51 51 51
51 51 51
51 51 51
51 51 51
51 51 51
51 51 51
51 51 51
51 51 51
51 51 51
51 51 51
51 51 51
51 51 51
51 51 51
51 51 51
51 51 51
51 51 51
51 51 51
46 46 46
46 46 46
46 46 46
46 46 46
46 46 46
46 46 46
46 46 46
46 46 46
46 46 46
46 46 46
46 46 46
46 46 46
46 46 46
46 46 46
46 46 46
46 46 46
46 46 46
46 46 46
51 51 51
51 51 51
51 51 51
51 51 51
51 51 51
51 51 51
51 51 51
51 51 51
51 51 51
51 51 51
51 51 51
51 51 51
51 51 51
51 51 51
51 51 51
51 51 51
51 51 51
51 51 51
51 51 51
51 51 51
51 51 51
51 51 51
51 51 51
51 51 51
51 51 51
51 51 51
51 51 51
51 51 51
51 51 51
51 51 51
51 51 51
51 51 51
51 51 51
51 51 51
51 51 51
51 51 51
51 51 51
51 51 51
51 51 51
51 51 51
51 51 51
51 51 51
51 51 51
51 51 51
51 51 51
51 51 51
51 51 51
51 51 51
51 51 51
51 51 51
51 51 51
51 51 51
51 51 51
51 51 51
51 51 51
51 51 51
51 51 51
51 51 51
51 51 51
51 51 51
51 51 51
51 51 51
51 51 51
51 51 51
51 51 51
51 51 51
51 51 51
51 51 51
51 51 51
51 51 51
51 51 51
51 51 51
51 51 51
51 51 51
51 51 51
51 51 51
51 51 51
51 51 51
51 51 51
51 51 51
51 51 51
51 51 51
51 51 51
51 51 51
51 51 51
51 51 51
51 51 51
51 51 51
51 51 51
51 51 51
51 51 51
51 51 51
51 51 51
51 51 51
51 51 51
51 51 51
51 51 51
51 51 51
51 51 51
51 51 51
51 51 51
51 51 51
51 51 51
51 51 51
51 51 51
51 51 51
51 51 51
51 51 51
51 51 51
51 51 51
51 51 51
51 51 51
51 51 51
51 51 51
51 51 51
51 51 51
51 51 51
51 51 51
51 51 51
51 51 51
51 51 51
51 51 51
51 51 51
51 51 51
51 51 51
51 51 51
51 51 51
51 51 51
51 51 51
51 51 51
51 51 51
51 51 51
51 51 51
51 51 51
51 51 51
51 51 51
51 51 51
51 51 51
51 51 51
51 51 51
51 51 51
51 51 51
51 51 51
51 51 51
51 51 51
51 51 51
51 51 51
51 51 51
51 51 51
51 51 51
51 51 51
51 51 51
51 51 51
51 51 51
51 51 51
51 51 51
51 51 51
51 51 51
51 51 51
51 51 51
51 51 51
51 51 51
51 51 51
51 51 51
51 51 51
51 51 51
51 51 51
51 51 51
51 51 51
51 51 51
51 51 51
51 51 51
51 51 51
51 51 51
51 51 51
51 51 51
51 51 51
51 51 51
51 51 51
51 51 51
46 46 46
46 46 46
46 46 46
46 46 46
46 46 46
46 46 46
46 46 46
46 46 46
46 46 46
46 46 46
46 46 46
46 46 46
46 46 46
46 46 46
46 46 46
46 46 46
46 46 46
46 46 46
46 46 46
46 46 46
46 46 46
46 46 46
51 51 51
51 51 51
51 51 51
51 51 51
51 51 51
51 51 51
51 51 51
51 51 51
51 51 51
51 51 51
51 51 51
51 51 51
51 51 51
51 51 51
51 51 51
51 51 51
51 51 51
51 51 51
51 51 51
51 51 51
51 51 51
51 51 51
51 51 51
51 51 51
51 51 51
51 51 51
51 51 51
51 51 51
51 51 51
51 51 51
51 51 51
51 51 51
51 51 51
51 51 51
51 51 51
51 51 51
51 51 51
51 51 51
51 51 51
51 51 51
51 51 51
51 51 51
51 51 51
51 51 51
51 51 51
51 51 51
51 51 51
51 51 51
51 51 51
51 51 51
51 51 51
51 51 51
51 51 51
51 51 51
51 51 51
51 51 51
51 51 51
51 51 51
51 51 51
51 51 51
51 51 51
51 51 51
51 51 51
51 51 51
51 51 51
51 51 51
51 51 51
51 51 51
51 51 51
51 51 51
51 51 51
51 51 51
51 51 51
51 51 51
51 51 51
51 51 51
51 51 51
51 51 51
51 51 51
51 51 51
51 51 51
51 51 51
51 51 51
51 51 51
51 51 51
51 51 51
51 51 51
51 51 51
51 51 51
51 51 51
51 51 51
51 51 51
51 51 51
51 51 51
51 51 51
51 51 51
51 51 51
51 51 51
51 51 51
51 51 51
51 51 51
51 51 51
51 51 51
51 51 51
51 51 51
51 51 51
51 51 51
51 51 51
51 51 51
51 51 51
51 51 51
51 51 51
51 51 51
51 51 51
51 51 51
51 51 51
51 51 51
51 51 51
51 51 51
51 51 51
51 51 51
51 51 51
51 51 51
51 51 51
51 51 51
51 51 51
51 51 51
51 51 51
51 51 51
51 51 51
51 51 51
51 51 51
51 51 51
51 51 51
51 51 51
51 51 51
51 51 51
51 51 51
51 51 51
51 51 51
51 51 51
51 51 51
51 51 51
51 51 51
51 51 51
51 51 51
51 51 51
51 51 51
51 51 51
51 51 51
51 51 51
51 51 51
51 51 51
51 51 51
51 51 51
51 51 51
51 51 51
51 51 51
51 51 51
51 51 51
51 51 51
51 51 51
51 51 51
51 51 51
51 51 51
51 51 51
51 51 51
51 51 51
51 51 51
51 51 51
51 51 51
51 51 51
51 51 51
51 51 51
51 51 51
51 51 51
46 46 46
46 46 46
46 46 46
46 46 46
46 46 46
46 46 46
46 46 46
46 46 46
46 46 46
46 46 46
46 46 46
46 46 46
46 46 46
46 46 46
46 46 46
46 46 46
46 46 46
46 46 46
46 46 46
46 46 46
46 46 46
46 46 46
46 46 46
46 46 46
46 46 46
46 46 46
51 51 51
51 51 51
51 51 51
51 51 51
51 51 51
51 51 51
51 51 51
51 51 51
51 51 51
51 51 51
51 51 51
51 51 51
51 51 51
51 51 51
51 51 51
51 51 51
51 51 51
51 51 51
51 51 51
51 51 51
51 51 51
51 51 51
51 51 51
51 51 51
51 51 51
51 51 51
51 51 51
51 51 51
51 51 51
51 51 51
51 51 51
51 51 51
51 51 51
51 51 51
51 51 51
51 51 51
51 51 51
51 51 51
51 51 51
51 51 51
51 51 51
51 51 51
51 51 51
51 51 51
51 51 51
51 51 51
51 51 51
51 51 51
51 51 51
51 51 51
51 51 51
51 51 51
51 51 51
51 51 51
51 51 51
51 51 51
51 51 51
51 51 51
51 51 51
51 51 51
51 51 51
51 51 51
51 51 51
51 51 51
51 51 51
51 51 51
51 51 51
51 51 51
51 51 51
51 51 51
51 51 51
51 51 51
51 51 51
51 51 51
51 51 51
51 51 51
51 51 51
51 51 51
51 51 51
51 51 51
51 51 51
51 51 51
51 51 51
51 51 51
51 51 51
51 51 51
51 51 51
51 51 51
51 51 51
51 51 51
51 51 51
51 51 51
51 51 51
51 51 51
51 51 51
51 51 51
51 51 51
51 51 51
51 51 51
51 51 51
51 51 51
51 51 51
51 51 51
51 51 51
51 51 51
51 51 51
51 51 51
51 51 51
51 51 51
51 51 51
51 51 51
51 51 51
51 51 51
51 51 51
51 51 51
51 51 51
51 51 51
51 51 51
51 51 51
51 51 51
51 51 51
51 51 51
51 51 51
51 51 51
51 51 51
51 51 51
51 51 51
51 51 51
51 51 51
51 51 51
51 51 51
51 51 51
51 51 51
51 51 51
51 51 51
51 51 51
51 51 51
51 51 51
51 51 51
51 51 51
51 51 51
51 51 51
51 51 51
51 51 51
51 51 51
51 51 51
51 51 51
51 51 51
51 51 51
51 51 51
51 51 51
51 51 51
51 51 51
51 51 51
51 51 51
51 51 51
51 51 51
51 51 51
51 51 51
51 51 51
51 51 51
51 51 51
51 51 51
51 51 51
51 51 51
51 51 51
51 51 51
51 51 51
51 51 51
51 51 51
51 51 51
51 51 51
51 51 51
46 46 46
46 46 46
46 46 46
46 46 46
46 46 46
46 46 46
46 46 46
46 46 46
46 46 46
46 46 46
47 47 47
47 47 47
47 47 47
47 47 47
47 47 47
47 47 47
47 47 47
47 47 47
46 46 46
46 46 46
46 46 46
46 46 46
46 46 46
46 46 46
46 46 46
46 46 46
46 46 46
46 46 46
51 51 51
51 51 51
51 51 51
51 51 51
51 51 51
51 51 51
51 51 51
51 51 51
51 51 51
51 51 51
51 51 51
51 51 51
51 51 51
51 51 51
51 51 51
51 51 51
51 51 51
51 51 51
51 51 51
51 51 51
51 51 51
51 51 51
51 51 51
51 51 51
51 51 51
51 51 51
51 51 51
51 51 51
51 51 51
51 51 51
51 51 51
51 51 51
51 51 51
51 51 51
51 51 51
51 51 51
51 51 51
51 51 51
51 51 51
51 51 51
51 51 51
51 51 51
51 51 51
51 51 51
51 51 51
51 51 51
51 51 51
51 51 51
51 51 51
51 51 51
51 51 51
51 51 51
51 51 51
51 51 51
51 51 51
51 51 51
51 51 51
51 51 51
51 51 51
51 51 51
51 51 51
51 51 51
51 51 51
51 51 51
51 51 51
51 51 51
51 51 51
51 51 51
51 51 51
51 51 51
51 51 51
51 51 51
51 51 51
51 51 51
51 51 51
51 51 51
51 51 51
51 51 51
51 51 51
51 51 51
51 51 51
51 51 51
51 51 51
51 51 51
51 51 51
51 51 51
51 51 51
51 51 51
51 51 51
51 51 51
51 51 51
51 51 51
51 51 51
51 51 51
51 51 51
51 51 51
51 51 51
51 51 51
51 51 51
51 51 51
51 51 51
51 51 51
51 51 51
51 51 51
51 51 51
51 51 51
51 51 51
51 51 51
51 51 51
51 51 51
51 51 51
51 51 51
51 51 51
51 51 51
51 51 51
51 51 51
51 51 51
51 51 51
51 51 51
51 51 51
51 51 51
51 51 51
51 51 51
51 51 51
51 51 51
51 51 51
51 51 51
51 51 51
51 51 51
51 51 51
51 51 51
51 51 51
51 51 51
51 51 51
51 51 51
51 51 51
51 51 51
51 51 51
51 51 51
51 51 51
51 51 51
51 51 51
51 51 51
51 51 51
51 51 51
51 51 51
51 51 51
51 51 51
51 51 51
51 51 51
51 51 51
51 51 51
51 51 51
51 51 51
51 51 51
51 51 51
51 51 51
51 51 51
51 51 51
51 51 51
51 51 51
51 51 51
51 51 51
51 51 51
51 51 51
51 51 51
51 51 51
51 51 51
51 51 51
51 51 51
46 46 46
46 46 46
46 46 46
46 46 46
46 46 46
46 46 46
46 46 46
46 46 46
46 46 46
47 47 47
47 47 47
48 48 48
49 49 49
50 50 50
51 51 51
51 51 51
51 51 51
51 51 51
50 50 50
49 49 49
48 48 48
47 47 47
47 47 47
46 46 46
46 46 46
46 46 46
46 46 46
46 46 46
46 46 46
46 46 46
46 46 46
46 46 46
51 51 51
51 51 51
51 51 51
51 51 51
51 51 51
51 51 51
51 51 51
51 51 51
51 51 51
51 51 51
51 51 51
51 51 51
51 51 51
51 51 51
51 51 51
51 51 51
51 51 51
51 51 51
51 51 51
51 51 51
51 51 51
51 51 51
51 51 51
51 51 51
51 51 51
51 51 51
51 51 51
51 51 51
51 51 51
51 51 51
51 51 51
51 51 51
51 51 51
51 51 51
51 51 51
51 51 51
51 51 51
51 51 51
51 51 51
51 51 51
51 51 51
51 51 51
51 51 51
51 51 51
51 51 51
51 51 51
51 51 51
51 51 51
51 51 51
51 51 51
51 51 51
51 51 51
51 51 51
51 51 51
51 51 51
51 51 51
51 51 51
51 51 51
51 51 51
51 51 51
51 51 51
51 51 51
51 51 51
51 51 51
51 51 51
51 51 51
51 51 51
51 51 51
51 51 51
51 51 51
51 51 51
51 51 51
51 51 51
51 51 51
51 51 51
51 51 51
51 51 51
51 51 51
51 51 51
51 51 51
51 51 51
51 51 51
51 51 51
51 51 51
51 51 51
51 51 51
51 51 51
51 51 51
51 51 51
51 51 51
51 51 51
51 51 51
51 51 51
51 51 51
51 51 51
51 51 51
51 51 51
51 51 51
51 51 51
51 51 51
51 51 51
51 51 51
51 51 51
51 51 51
51 51 51
51 51 51
51 51 51
51 51 51
51 51 51
51 51 51
51 51 51
51 51 51
51 51 51
51 51 51
51 51 51
51 51 51
51 51 51
51 51 51
51 51 51
51 51 51
51 51 51
51 51 51
51 51 51
51 51 51
51 51 51
51 51 51
51 51 51
51 51 51
51 51 51
51 51 51
51 51 51
51 51 51
51 51 51
51 51 51
51 51 51
51 51 51
51 51 51
51 51 51
51 51 51
51 51 51
51 51 51
51 51 51
51 51 51
51 51 51
51 51 51
51 51 51
51 51 51
51 51 51
51 51 51
51 51 51
51 51 51
51 51 51
51 51 51
51 51 51
51 51 51
51 51 51
51 51 51
51 51 51
51 51 51
51 51 51
51 51 51
51 51 51
51 51 51
51 51 51
51 51 51
51 51 51
51 51 51
46 46 46
46 46 46
46 46 46
46 46 46
46 46 46
46 46 46
46 46 46
46 46 46
46 46 46
47 47 47
49 49 49
50 50 50
52 52 52
54 54 54
55 55 55
57 57 57
57 57 57
57 57 57
57 57 57
55 55 55
54 54 54
52 52 52
50 50 50
49 49 49
47 47 47
46 46 46
46 46 46
46 46 46
46 46 46
46 46 46
46 46 46
46 46 46
46 46 46
46 46 46
51 51 51
51 51 51
51 51 51
51 51 51
51 51 51
51 51 51
51 51 51
51 51 51
51 51 51
51 51 51
51 51 51
51 51 51
51 51 51
51 51 51
51 51 51
51 51 51
51 51 51
51 51 51
51 51 51
51 51 51
51 51 51
51 51 51
51 51 51
51 51 51
51 51 51
51 51 51
51 51 51
51 51 51
51 51 51
51 51 51
51 51 51
51 51 51
51 51 51
51 51 51
51 51 51
51 51 51
51 51 51
51 51 51
51 51 51
51 51 51
51 51 51
51 51 51
51 51 51
51 51 51
51 51 51
51 51 51
51 51 51
51 51 51
51 51 51
51 51 51
51 51 51
51 51 51
51 51 51
51 51 51
51 51 51
51 51 51
51 51 51
51 51 51
51 51 51
51 51 51
51 51 51
51 51 51
51 51 51
51 51 51
51 51 51
51 51 51
51 51 51
51 51 51
51 51 51
51 51 51
51 51 51
51 51 51
51 51 51
51 51 51
51 51 51
51 51 51
51 51 51
51 51 51
51 51 51
51 51 51
51 51 51
51 51 51
51 51 51
51 51 51
51 51 51
51 51 51
51 51 51
51 51 51
51 51 51
51 51 51
51 51 51
51 51 51
51 51 51
51 51 51
51 51 51
51 51 51
51 51 51
51 51 51
51 51 51
51 51 51
51 51 51
51 51 51
51 51 51
51 51 51
51 51 51
51 51 51
51 51 51
51 51 51
51 51 51
51 51 51
51 51 51
51 51 51
51 51 51
51 51 51
51 51 51
51 51 51
51 51 51
51 51 51
51 51 51
51 51 51
51 51 51
51 51 51
51 51 51
51 51 51
51 51 51
51 51 51
51 51 51
51 51 51
51 51 51
51 51 51
51 51 51
51 51 51
51 51 51
51 51 51
51 51 51
51 51 51
51 51 51
51 51 51
51 51 51
51 51 51
51 51 51
51 51 51
51 51 51
51 51 51
51 51 51
51 51 51
51 51 51
51 51 51
51 51 51
51 51 51
51 51 51
51 51 51
51 51 51
51 51 51
51 51 51
51 51 51
51 51 51
51 51 51
51 51 51
51 51 51
51 51 51
51 51 51
51 51 51
51 51 51
51 51 51
46 46 46
46 46 46
46 46 46
46 46 46
46 46 46
46 46 46
46 46 46
46 46 46
47 47 47
48 48 48
50 50 50
52 52 52
55 55 55
58 58 58
61 61 61
64 64 64
66 66 66
67 67 67
67 67 67
66 66 66
64 64 64
61 61 61
58 58 58
55 55 55
52 52 52
50 50 50
48 48 48
47 47 47
46 46 46
46 46 46
46 46 46
46 46 46
46 46 46
46 46 46
46 46 46
46 46 46
51 51 51
51 51 51
51 51 51
51 51 51
51 51 51
51 51 51
51 51 51
51 51 51
51 51 51
51 51 51
51 51 51
51 51 51
51 51 51
51 51 51
51 51 51
51 51 51
51 51 51
51 51 51
51 51 51
51 51 51
51 51 51
51 51 51
51 51 51
51 51 51
51 51 51
51 51 51
51 51 51
51 51 51
51 51 51
51 51 51
51 51 51
51 51 51
51 51 51
51 51 51
51 51 51
51 51 51
51 51 51
51 51 51
51 51 51
51 51 51
51 51 51
51 51 51
51 51 51
51 51 51
51 51 51
51 51 51
51 51 51
51 51 51
51 51 51
51 51 51
51 51 51
51 51 51
51 51 51
51 51 51
51 51 51
51 51 51
51 51 51
51 51 51
51 51 51
51 51 51
51 51 51
51 51 51
51 51 51
51 51 51
51 51 51
51 51 51
51 51 51
51 51 51
51 51 51
51 51 51
51 51 51
51 51 51
51 51 51
51 51 51
51 51 51
51 51 51
51 51 51
51 51 51
51 51 51
51 51 51
51 51 51
51 51 51
51 51 51
51 51 51
51 51 51
51 51 51
51 51 51
51 51 51
51 51 51
51 51 51
51 51 51
51 51 51
51 51 51
51 51 51
51 51 51
51 51 51
51 51 51
51 51 51
51 51 51
51 51 51
51 51 51
51 51 51
51 51 51
51 51 51
51 51 51
51 51 51
51 51 51
51 51 51
51 51 51
51 51 51
51 51 51
51 51 51
51 51 51
51 51 51
51 51 51
51 51 51
51 51 51
51 51 51
51 51 51
51 51 51
51 51 51
51 51 51
51 51 51
51 51 51
51 51 51
51 51 51
51 51 51
51 51 51
51 51 51
51 51 51
51 51 51
51 51 51
51 51 51
51 51 51
51 51 51
51 51 51
51 51 51
51 51 51
51 51 51
51 51 51
51 51 51
51 51 51
51 51 51
51 51 51
51 51 51
51 51 51
51 51 51
51 51 51
51 51 51
51 51 51
51 51 51
51 51 51
51 51 51
51 51 51
51 51 51
51 51 51
51 51 51
51 51 51
51 51 51
51 51 51
51 51 51
51 51 51
51 51 51
46 46 46
46 46 46
46 46 46
46 46 46
46 46 46
46 46 46
46 46 46
46 46 46
47 47 47
48 48 48
50 50 50
53 53 53
56 56 56
61 61 61
65 65 65
70 70 70
73 73 73
76 76 76
78 78 78
78 78 78
76 76 76
73 73 73
70 70 70
65 65 65
61 61 61
56 56 56
53 53 53
50 50 50
48 48 48
47 47 47
46 46 46
46 46 46
46 46 46
46 46 46
46 46 46
46 46 46
46 46 46
46 46 46
51 51 51
51 51 51
51 51 51
51 51 51
51 51 51
51 51 51
51 51 51
51 51 51
51 51 51
51 51 51
51 51 51
51 51 51
51 51 51
51 51 51
51 51 51
51 51 51
51 51 51
51 51 51
51 51 51
51 51 51
51 51 51
51 51 51
51 51 51
51 51 51
51 51 51
51 51 51
51 51 51
51 51 51
51 51 51
51 51 51
51 51 51
51 51 51
51 51 51
51 51 51
51 51 51
51 51 51
51 51 51
51 51 51
51 51 51
51 51 51
51 51 51
51 51 51
51 51 51
51 51 51
51 51 51
51 51 51
51 51 51
51 51 51
51 51 51
51 51 51
51 51 51
51 51 51
51 51 51
51 51 51
51 51 51
51 51 51
51 51 51
51 51 51
51 51 51
51 51 51
51 51 51
51 51 51
51 51 51
51 51 51
51 51 51
51 51 51
51 51 51
51 51 51
51 51 51
51 51 51
51 51 51
51 51 51
51 51 51
51 51 51
51 51 51
51 51 51
51 51 51
51 51 51
51 51 51
51 51 51
51 51 51
51 51 51
51 51 51
51 51 51
51 51 51
51 51 51
51 51 51
51 51 51
51 51 51
51 51 51
51 51 51
51 51 51
51 51 51
51 51 51
51 51 51
51 51 51
51 51 51
51 51 51
51 51 51
51 51 51
51 51 51
51 51 51
51 51 51
51 51 51
51 51 51
51 51 51
51 51 51
51 51 51
51 51 51
51 51 51
51 51 51
51 51 51
51 51 51
51 51 51
51 51 51
51 51 51
51 51 51
51 51 51
51 51 51
51 51 51
51 51 51
51 51 51
51 51 51
51 51 51
51 51 51
51 51 51
51 51 51
51 51 51
51 51 51
51 51 51
51 51 51
51 51 51
51 51 51
51 51 51
51 51 51
51 51 51
51 51 51
51 51 51
51 51 51
51 51 51
51 51 51
51 51 51
51 51 51
51 51 51
51 51 51
51 51 51
51 51 51
51 51 51
51 51 51
51 51 51
51 51 51
51 51 51
51 51 51
51 51 51
51 51 51
51 51 51
51 51 51
51 51 51
51 51 51
51 51 51
51 51 51
46 46 46
46 46 46
46 46 46
46 46 46
46 46 46
46 46 46
46 46 46
46 46 46
47 47 47
48 48 48
50 50 50
53 53 53
57 57 57
62 62 62
67 67 67
73 73 73
79 79 79
84 84 84
88 88 88
89 89 89
89 89 89
88 88 88
84 84 84
79 79 79
73 73 73
67 67 67
62 62 62
57 57 57
53 53 53
50 50 50
48 48 48
47 47 47
46 46 46
46 46 46
46 46 46
46 46 46
46 46 46
46 46 46
46 46 46
46 46 46
51 51 51
51 51 51
51 51 51
51 51 51
51 51 51
51 51 51
51 51 51
51 51 51
51 51 51
51 51 51
51 51 51
51 51 51
51 51 51
51 51 51
51 51 51
51 51 51
51 51 51
51 51 51
51 51 51
51 51 51
51 51 51
51 51 51
51 51 51
51 51 51
51 51 51
51 51 51
51 51 51
51 51 51
51 51 51
51 51 51
51 51 51
51 51 51
51 51 51
51 51 51
51 51 51
51 51 51
51 51 51
51 51 51
51 51 51
51 51 51
51 51 51
51 51 51
51 51 51
51 51 51
51 51 51
51 51 51
51 51 51
51 51 51
51 51 51
51 51 51
51 51 51
51 51 51
51 51 51
51 51 51
51 51 51
51 51 51
51 51 51
51 51 51
51 51 51
51 51 51
51 51 51
51 51 51
51 51 51
51 51 51
51 51 51
51 51 51
51 51 51
51 51 51
51 51 51
51 51 51
51 51 51
51 51 51
51 51 51
51 51 51
51 51 51
51 51 51
51 51 51
51 51 51
51 51 51
51 51 51
51 51 51
51 51 51
51 51 51
51 51 51
51 51 51
51 51 51
51 51 51
51 51 51
51 51 51
51 51 51
51 51 51
51 51 51
51 51 51
51 51 51
51 51 51
51 51 51
51 51 51
51 51 51
51 51 51
51 51 51
51 51 51
51 51 51
51 51 51
51 51 51
51 51 51
51 51 51
51 51 51
51 51 51
51 51 51
51 51 51
51 51 51
51 51 51
51 51 51
51 51 51
51 51 51
51 51 51
51 51 51
51 51 51
51 51 51
51 51 51
51 51 51
51 51 51
51 51 51
51 51 51
51 51 51
51 51 51
51 51 51
51 51 51
51 51 51
51 51 51
51 51 51
51 51 51
51 51 51
51 51 51
51 51 51
51 51 51
51 51 51
51 51 51
51 51 51
51 51 51
51 51 51
51 51 51
51 51 51
51 51 51
51 51 51
51 51 51
51 51 51
51 51 51
51 51 51
51 51 51
51 51 51
51 51 51
51 51 51
51 51 51
51 51 51
51 51 51
51 51 51
51 51 51
51 51 51
51 51 51
46 46 46
46 46 46
46 46 46
46 46 46
46 46 46
46 46 46
46 46 46
46 46 46
47 47 47
49 49 49
52 52 52
56 56 56
61 61 61
67 67 67
74 74 74
81 81 81
88 88 88
93 93 93
98 98 98
100 100 100
100 100 100
98 98 98
93 93 93
88 88 88
81 81 81
74 74 74
67 67 67
61 61 61
56 56 56
52 52 52
49 49 49
47 47 47
46 46 46
46 46 46
46 46 46
46 46 46
46 46 46
46 46 46
46 46 46
46 46 46
51 51 51
51 51 51
51 51 51
51 51 51
51 51 51
51 51 51
51 51 51
51 51 51
51 51 51
51 51 51
51 51 51
51 51 51
51 51 51
51 51 51
51 51 51
51 51 51
51 51 51
51 51 51
51 51 51
51 51 51
51 51 51
51 51 51
51 51 51
51 51 51
51 51 51
51 51 51
51 51 51
51 51 51
51 51 51
51 51 51
51 51 51
51 51 51
51 51 51
51 51 51
51 51 51
51 51 51
51 51 51
51 51 51
51 51 51
51 51 51
51 51 51
51 51 51
51 51 51
51 51 51
51 51 51
51 51 51
51 51 51
51 51 51
51 51 51
51 51 51
51 51 51
51 51 51
51 51 51
51 51 51
51 51 51
51 51 51
51 51 51
51 51 51
51 51 51
51 51 51
51 51 51
51 51 51
51 51 51
51 51 51
51 51 51
51 51 51
51 51 51
51 51 51
51 51 51
51 51 51
51 51 51
51 51 51
51 51 51
51 51 51
51 51 51
51 51 51
51 51 51
51 51 51
51 51 51
51 51 51
51 51 51
51 51 51
51 51 51
51 51 51
51 51 51
51 51 51
51 51 51
51 51 51
51 51 51
51 51 51
51 51 51
51 51 51
51 51 51
51 51 51
51 51 51
51 51 51
51 51 51
51 51 51
51 51 51
51 51 51
51 51 51
51 51 51
51 51 51
51 51 51
51 51 51
51 51 51
51 51 51
51 51 51
51 51 51
51 51 51
51 51 51
51 51 51
51 51 51
51 51 51
51 51 51
51 51 51
51 51 51
51 51 51
51 51 51
51 51 51
51 51 51
51 51 51
51 51 51
51 51 51
51 51 51
51 51 51
51 51 51
51 51 51
51 51 51
51 51 51
51 51 51
51 51 51
51 51 51
51 51 51
51 51 51
51 51 51
51 51 51
51 51 51
51 51 51
51 51 51
51 51 51
51 51 51
51 51 51
51 51 51
51 51 51
51 51 51
51 51 51
51 51 51
51 51 51
51 51 51
51 51 51
51 51 51
51 51 51
51 51 51
51 51 51
51 51 51
51 51 51
51 51 51
51 51 51
46 46 46
46 46 46
46 46 46
46 46 46
46 46 46
46 46 46
46 46 46
46 46 46
47 47 47
48 48 48
50 50 50
54 54 54
58 58 58
64 64 64
71 71 71
79 79 79
87 87 87
94 94 94
100 100 100
105 105 105
107 107 107
107 107 107
105 105 105
100 100 100
94 94 94
87 87 87
79 79 79
71 71 71
64 64 64
58 58 58
54 54 54
50 50 50
48 48 48
47 47 47
46 46 46
46 46 46
46 46 46
46 46 46
46 46 46
46 46 46
46 46 46
46 46 46
51 51 51
51 51 51
51 51 51
51 51 51
51 51 51
51 51 51
51 51 51
51 51 51
51 51 51
51 51 51
51 51 51
51 51 51
51 51 51
51 51 51
51 51 51
51 51 51
51 51 51
51 51 51
51 51 51
51 51 51
51 51 51
51 51 51
51 51 51
51 51 51
51 51 51
51 51 51
51 51 51
51 51 51
51 51 51
51 51 51
51 51 51
51 51 51
51 51 51
51 51 51
51 51 51
51 51 51
51 51 51
51 51 51
51 51 51
51 51 51
51 51 51
51 51 51
51 51 51
51 51 51
51 51 51
51 51 51
51 51 51
51 51 51
51 51 51
51 51 51
51 51 51
51 51 51
51 51 51
51 51 51
51 51 51
51 51 51
51 51 51
51 51 51
51 51 51
51 51 51
51 51 51
51 51 51
51 51 51
51 51 51
51 51 51
51 51 51
51 51 51
51 51 51
51 51 51
51 51 51
51 51 51
51 51 51
51 51 51
51 51 51
51 51 51
51 51 51
51 51 51
51 51 51
51 51 51
51 51 51
51 51 51
51 51 51
51 51 51
51 51 51
51 51 51
51 51 51
51 51 51
51 51 51
51 51 51
51 51 51
51 51 51
51 51 51
51 51 51
51 51 51
51 51 51
51 51 51
51 51 51
51 51 51
51 51 51
51 51 51
51 51 51
51 51 51
51 51 51
51 51 51
51 51 51
51 51 51
51 51 51
51 51 51
51 51 51
51 51 51
51 51 51
51 51 51
51 51 51
51 51 51
51 51 51
51 51 51
51 51 51
51 51 51
51 51 51
51 51 51
51 51 51
51 51 51
51 51 51
51 51 51
51 51 51
51 51 51
51 51 51
51 51 51
51 51 51
51 51 51
51 51 51
51 51 51
51 51 51
51 51 51
51 51 51
51 51 51
51 51 51
51 51 51
51 51 51
51 51 51
51 51 51
51 51 51
51 51 51
51 51 51
51 51 51
51 51 51
51 51 51
51 51 51
51 51 51
51 51 51
51 51 51
51 51 51
51 51 51
51 51 51
51 51 51
51 51 51
51 51 51
46 46 46
46 46 46
46 46 46
46 46 46
46 46 46
46 46 46
46 46 46
46 46 46
46 46 46
47 47 47
49 49 49
51 51 51
55 55 55
60 60 60
67 67 67
74 74 74
82 82 82
90 90 90
98 98 98
104 104 104
109 109 109
111 111 111
111 111 111
109 109 109
104 104 104
98 98 98
90 90 90
82 82 82
74 74 74
67 67 67
60 60 60
55 55 55
51 51 51
49 49 49
47 47 47
46 46 46
46 46 46
46 46 46
46 46 46
46 46 46
46 46 46
46 46 46
46 46 46
46 46 46
51 51 51
51 51 51
51 51 51
51 51 51
51 51 51
51 51 51
51 51 51
51 51 51
51 51 51
51 51 51
51 51 51
51 51 51
51 51 51
51 51 51
51 51 51
51 51 51
51 51 51
51 51 51
51 51 51
51 51 51
51 51 51
51 51 51
51 51 51
51 51 51
51 51 51
51 51 51
51 51 51
51 51 51
51 51 51
51 51 51
51 51 51
51 51 51
51 51 51
51 51 51
51 51 51
51 51 51
51 51 51
51 51 51
51 51 51
51 51 51
51 51 51
51 51 51
51 51 51
51 51 51
51 51 51
51 51 51
51 51 51
51 51 51
51 51 51
51 51 51
51 51 51
51 51 51
51 51 51
51 51 51
51 51 51
51 51 51
51 51 51
51 51 51
51 51 51
51 51 51
51 51 51
51 51 51
51 51 51
51 51 51
51 51 51
51 51 51
51 51 51
51 51 51
51 51 51
51 51 51
51 51 51
51 51 51
51 51 51
51 51 51
51 51 51
51 51 51
51 51 51
51 51 51
51 51 51
51 51 51
51 51 51
51 51 51
51 51 51
51 51 51
51 51 51
51 51 51
51 51 51
51 51 51
51 51 51
51 51 51
51 51 51
51 51 51
51 51 51
51 51 51
51 51 51
51 51 51
51 51 51
51 51 51
51 51 51
51 51 51
51 51 51
51 51 51
51 51 51
51 51 51
51 51 51
51 51 51
51 51 51
51 51 51
51 51 51
51 51 51
51 51 51
51 51 51
51 51 51
51 51 51
51 51 51
51 51 51
51 51 51
51 51 51
51 51 51
51 51 51
51 51 51
51 51 51
51 51 51
51 51 51
51 51 51
51 51 51
51 51 51
51 51 51
51 51 51
51 51 51
51 51 51
51 51 51
51 51 51
51 51 51
51 51 51
51 51 51
51 51 51
51 51 51
51 51 51
51 51 51
51 51 51
51 51 51
51 51 51
51 51 51
51 51 51
51 51 51
51 51 51
51 51 51
51 51 51
51 51 51
51 51 51
51 51 51
51 51 51
51 51 51
51 51 51
51 51 51
46 46 46
46 46 46
46 46 46
46 46 46
46 46 46
46 46 46
46 46 46
46 46 46
46 46 46
47 47 47
49 49 49
52 52 52
56 56 56
61 61 61
67 67 67
75 75 75
83 83 83
91 91 91
98 98 98
104 104 104
109 109 109
111 111 111
111 111 111
109 109 109
104 104 104
98 98 98
91 91 91
83 83 83
75 75 75
67 67 67
61 61 61
56 56 56
52 52 52
49 49 49
47 47 47
46 46 46
46 46 46
46 46 46
46 46 46
46 46 46
46 46 46
46 46 46
46 46 46
46 46 46
51 51 51
51 51 51
51 51 51
51 51 51
51 51 51
51 51 51
51 51 51
51 51 51
51 51 51
51 51 51
51 51 51
51 51 51
51 51 51
51 51 51
51 51 51
51 51 51
51 51 51
51 51 51
51 51 51
51 51 51
51 51 51
51 51 51
51 51 51
51 51 51
51 51 51
51 51 51
51 51 51
51 51 51
51 51 51
51 51 51
51 51 51
51 51 51
51 51 51
51 51 51
51 51 51
51 51 51
51 51 51
51 51 51
51 51 51
51 51 51
51 51 51
51 51 51
51 51 51
51 51 51
51 51 51
51 51 51
51 51 51
51 51 51
51 51 51
51 51 51
51 51 51
51 51 51
51 51 51
51 51 51
51 51 51
51 51 51
51 51 51
51 51 51
51 51 51
51 51 51
51 51 51
51 51 51
51 51 51
51 51 51
51 51 51
51 51 51
51 51 51
51 51 51
51 51 51
51 51 51
51 51 51
51 51 51
51 51 51
51 51 51
51 51 51
51 51 51
51 51 51
51 51 51
51 51 51
51 51 51
51 51 51
51 51 51
51 51 51
51 51 51
51 51 51
51 51 51
51 51 51
51 51 51
51 51 51
51 51 51
51 51 51
51 51 51
51 51 51
51 51 51
51 51 51
51 51 51
51 51 51
51 51 51
51 51 51
51 51 51
51 51 51
51 51 51
51 51 51
51 51 51
51 51 51
51 51 51
51 51 51
51 51 51
51 51 51
51 51 51
51 51 51
51 51 51
51 51 51
51 51 51
51 51 51
51 51 51
51 51 51
51 51 51
51 51 51
51 51 51
51 51 51
51 51 51
51 51 51
51 51 51
51 51 51
51 51 51
51 51 51
51 51 51
51 51 51
51 51 51
51 51 51
51 51 51
51 51 51
51 51 51
51 51 51
51 51 51
51 51 51
51 51 51
51 51 51
51 51 51
51 51 51
51 51 51
51 51 51
51 51 51
51 51 51
51 51 51
51 51 51
51 51 51
51 51 51
51 51 51
51 51 51
51 51 51
51 51 51
51 51 51
51 51 51
46 46 46
46 46 46
46 46 46
46 46 46
46 46 46
46 46 46
46 46 46
46 46 46
46 46 46
47 47 47
48 48 48
49 49 49
52 52 52
56 56 56
61 61 61
67 67 67
74 74 74
81 81 81
88 88 88
95 95 95
101 101 101
105 105 105
107 107 107
107 107 107
105 105 105
101 101 101
95 95 95
88 88 88
81 81 81
74 74 74
67 67 67
61 61 61
56 56 56
52 52 52
49 49 49
48 48 48
47 47 47
46 46 46
46 46 46
46 46 46
46 46 46
46 46 46
46 46 46
46 46 46
46 46 46
46 46 46
51 51 51
51 51 51
51 51 51
51 51 51
51 51 51
51 51 51
51 51 51
51 51 51
51 51 51
51 51 51
51 51 51
51 51 51
51 51 51
51 51 51
51 51 51
51 51 51
51 51 51
51 51 51
51 51 51
51 51 51
51 51 51
51 51 51
51 51 51
51 51 51
51 51 51
51 51 51
51 51 51
51 51 51
51 51 51
51 51 51
51 51 51
51 51 51
51 51 51
51 51 51
51 51 51
51 51 51
51 51 51
51 51 51
51 51 51
51 51 51
51 51 51
51 51 51
51 51 51
51 51 51
51 51 51
51 51 51
51 51 51
51 51 51
51 51 51
51 51 51
51 51 51
51 51 51
51 51 51
51 51 51
51 51 51
51 51 51
51 51 51
51 51 51
51 51 51
51 51 51
51 51 51
51 51 51
51 51 51
51 51 51
51 51 51
51 51 51
51 51 51
51 51 51
51 51 51
51 51 51
51 51 51
51 51 51
51 51 51
51 51 51
51 51 51
51 51 51
51 51 51
51 51 51
51 51 51
51 51 51
51 51 51
51 51 51
51 51 51
51 51 51
51 51 51
51 51 51
51 51 51
51 51 51
51 51 51
51 51 51
51 51 51
51 51 51
51 51 51
51 51 51
51 51 51
51 51 51
51 51 51
51 51 51
51 51 51
51 51 51
51 51 51
51 51 51
51 51 51
51 51 51
51 51 51
51 51 51
51 51 51
51 51 51
51 51 51
51 51 51
51 51 51
51 51 51
51 51 51
51 51 51
51 51 51
51 51 51
51 51 51
51 51 51
51 51 51
51 51 51
51 51 51
51 51 51
51 51 51
51 51 51
51 51 51
51 51 51
51 51 51
51 51 51
51 51 51
51 51 51
51 51 51
51 51 51
51 51 51
51 51 51
51 51 51
51 51 51
51 51 51
51 51 51
51 51 51
51 51 51
51 51 51
51 51 51
51 51 51
51 51 51
51 51 51
51 51 51
51 51 51
51 51 51
51 51 51
51 51 51
51 51 51
51 51 51
51 51 51
51 51 51
46 46 46
46 46 46
46 46 46
46 46 46
46 46 46
46 46 46
46 46 46
46 46 46
46 46 46
47 47 47
48 48 48
49 49 49
52 52 52
55 55 55
60 60 60
65 65 65
71 71 71
77 77 77
84 84 84
90 90 90
95 95 95
98 98 98
100 100 100
100 100 100
98 98 98
95 95 95
90 90 90
84 84 84
77 77 77
71 71 71
65 65 65
60 60 60
55 55 55
52 52 52
49 49 49
48 48 48
47 47 47
46 46 46
46 46 46
46 46 46
46 46 46
46 46 46
46 46 46
46 46 46
46 46 46
46 46 46
51 51 51
51 51 51
51 51 51
51 51 51
51 51 51
51 51 51
51 51 51
51 51 51
51 51 51
51 51 51
51 51 51
51 51 51
51 51 51
51 51 51
51 51 51
51 51 51
51 51 51
51 51 51
51 51 51
51 51 51
51 51 51
51 51 51
51 51 51
51 51 51
51 51 51
51 51 51
51 51 51
51 51 51
51 51 51
51 51 51
51 51 51
51 51 51
51 51 51
51 51 51
51 51 51
51 51 51
51 51 51
51 51 51
51 51 51
51 51 51
51 51 51
51 51 51
51 51 51
51 51 51
51 51 51
51 51 51
51 51 51
51 51 51
51 51 51
51 51 51
51 51 51
51 51 51
51 51 51
51 51 51
51 51 51
51 51 51
51 51 51
51 51 51
51 51 51
51 51 51
51 51 51
51 51 51
51 51 51
51 51 51
51 51 51
51 51 51
51 51 51
51 51 51
51 51 51
51 51 51
51 51 51
51 51 51
51 51 51
51 51 51
51 51 51
51 51 51
51 51 51
51 51 51
51 51 51
51 51 51
51 51 51
51 51 51
51 51 51
51 51 51
51 51 51
51 51 51
51 51 51
51 51 51
51 51 51
51 51 51
51 51 51
51 51 51
51 51 51
51 51 51
51 51 51
51 51 51
51 51 51
51 51 51
51 51 51
51 51 51
51 51 51
51 51 51
51 51 51
51 51 51
51 51 51
51 51 51
51 51 51
51 51 51
51 51 51
51 51 51
51 51 51
51 51 51
51 51 51
51 51 51
51 51 51
51 51 51
51 51 51
51 51 51
51 51 51
51 51 51
51 51 51
51 51 51
51 51 51
51 51 51
51 51 51
51 51 51
51 51 51
51 51 51
51 51 51
51 51 51
51 51 51
51 51 51
51 51 51
51 51 51
51 51 51
51 51 51
51 51 51
51 51 51
51 51 51
51 51 51
51 51 51
51 51 51
51 51 51
51 51 51
51 51 51
51 51 51
51 51 51
51 51 51
51 51 51
51 51 51
51 51 51
51 51 51
51 51 51
46 46 46
46 46 46
46 46 46
46 46 46
46 46 46
46 46 46
46 46 46
46 46 46
46 46 46
46 46 46
46 46 46
47 47 47
49 49 49
51 51 51
54 54 54
58 58 58
62 62 62
67 67 67
73 73 73
78 78 78
83 83 83
87 87 87
90 90 90
92 92 92
92 92 92
90 90 90
87 87 87
83 83 83
78 78 78
73 73 73
67 67 67
62 62 62
58 58 58
54 54 54
51 51 51
49 49 49
47 47 47
46 46 46
46 46 46
46 46 46
46 46 46
46 46 46
46 46 46
46 46 46
46 46 46
46 46 46
46 46 46
46 46 46
51 51 51
51 51 51
51 51 51
51 51 51
51 51 51
51 51 51
51 51 51
51 51 51
51 51 51
51 51 51
51 51 51
51 51 51
51 51 51
51 51 51
51 51 51
51 51 51
51 51 51
51 51 51
51 51 51
51 51 51
51 51 51
51 51 51
51 51 51
51 51 51
51 51 51
51 51 51
51 51 51
51 51 51
51 51 51
51 51 51
51 51 51
51 51 51
51 51 51
51 51 51
51 51 51
51 51 51
51 51 51
51 51 51
51 51 51
51 51 51
51 51 51
51 51 51
51 51 51
51 51 51
51 51 51
51 51 51
51 51 51
51 51 51
51 51 51
51 51 51
51 51 51
51 51 51
51 51 51
51 51 51
51 51 51
51 51 51
51 51 51
51 51 51
51 51 51
51 51 51
51 51 51
51 51 51
51 51 51
51 51 51
51 51 51
51 51 51
51 51 51
51 51 51
51 51 51
51 51 51
51 51 51
51 51 51
51 51 51
51 51 51
51 51 51
51 51 51
51 51 51
51 51 51
51 51 51
51 51 51
51 51 51
51 51 51
51 51 51
51 51 51
51 51 51
51 51 51
51 51 51
51 51 51
51 51 51
51 51 51
51 51 51
51 51 51
51 51 51
51 51 51
51 51 51
51 51 51
51 51 51
51 51 51
51 51 51
51 51 51
51 51 51
51 51 51
51 51 51
51 51 51
51 51 51
51 51 51
51 51 51
51 51 51
51 51 51
51 51 51
51 51 51
51 51 51
51 51 51
51 51 51
51 51 51
51 51 51
51 51 51
51 51 51
51 51 51
51 51 51
51 51 51
51 51 51
51 51 51
51 51 51
51 51 51
51 51 51
51 51 51
51 51 51
51 51 51
51 51 51
51 51 51
51 51 51
51 51 51
51 51 51
51 51 51
51 51 51
51 51 51
51 51 51
51 51 51
51 51 51
51 51 51
51 51 51
51 51 51
51 51 51
51 51 51
51 51 51
51 51 51
51 51 51
51 51 51
51 51 51
51 51 51
51 51 51
46 46 46
46 46 46
46 46 46
46 46 46
46 46 46
46 46 46
46 46 46
46 46 46
46 46 46
46 46 46
46 46 46
47 47 47
48 48 48
50 50 50
52 52 52
55 55 55
59 59 59
63 63 63
67 67 67
72 72 72
76 76 76
79 79 79
81 81 81
82 82 82
82 82 82
81 81 81
79 79 79
76 76 76
72 72 72
67 67 67
63 63 63
59 59 59
55 55 55
52 52 52
50 50 50
48 48 48
47 47 47
46 46 46
46 46 46
46 46 46
46 46 46
46 46 46
46 46 46
46 46 46
46 46 46
46 46 46
46 46 46
46 46 46
51 51 51
51 51 51
51 51 51
51 51 51
51 51 51
51 51 51
51 51 51
51 51 51
51 51 51
51 51 51
51 51 51
51 51 51
51 51 51
51 51 51
51 51 51
51 51 51
51 51 51
51 51 51
51 51 51
51 51 51
51 51 51
51 51 51
51 51 51
51 51 51
51 51 51
51 51 51
51 51 51
51 51 51
51 51 51
51 51 51
51 51 51
51 51 51
51 51 51
51 51 51
51 51 51
51 51 51
51 51 51
51 51 51
51 51 51
51 51 51
51 51 51
51 51 51
51 51 51
51 51 51
51 51 51
51 51 51
51 51 51
51 51 51
51 51 51
51 51 51
51 51 51
51 51 51
51 51 51
51 51 51
51 51 51
51 51 51
51 51 51
51 51 51
51 51 51
51 51 51
51 51 51
51 51 51
51 51 51
51 51 51
51 51 51
51 51 51
51 51 51
51 51 51
51 51 51
51 51 51
51 51 51
51 51 51
51 51 51
51 51 51
51 51 51
51 51 51
51 51 51
51 51 51
51 51 51
51 51 51
51 51 51
51 51 51
51 51 51
51 51 51
51 51 51
51 51 51
51 51 51
51 51 51
51 51 51
51 51 51
51 51 51
51 51 51
51 51 51
51 51 51
51 51 51
51 51 51
51 51 51
51 51 51
51 51 51
51 51 51
51 51 51
51 51 51
51 51 51
51 51 51
51 51 51
51 51 51
51 51 51
51 51 51
51 51 51
51 51 51
51 51 51
51 51 51
51 51 51
51 51 51
51 51 51
51 51 51
51 51 51
51 51 51
51 51 51
51 51 51
51 51 51
51 51 51
51 51 51
51 51 51
51 51 51
51 51 51
51 51 51
51 51 51
51 51 51
51 51 51
51 51 51
51 51 51
51 51 51
51 51 51
51 51 51
51 51 51
51 51 51
51 51 51
51 51 51
51 51 51
51 51 51
51 51 51
51 51 51
51 51 51
51 51 51
51 51 51
51 51 51
51 51 51
51 51 51
51 51 51
51 51 51
46 46 46
46 46 46
46 46 46
46 46 46
46 46 46
46 46 46
46 46 46
46 46 46
46 46 46
46 46 46
46 46 46
46 46 46
47 47 47
48 48 48
49 49 49
51 51 51
53 53 53
56 56 56
59 59 59
62 62 62
65 65 65
68 68 68
71 71 71
73 73 73
74 74 74
74 74 74
73 73 73
71 71 71
68 68 68
65 65 65
62 62 62
59 59 59
56 56 56
53 53 53
51 51 51
49 49 49
48 48 48
47 47 47
46 46 46
46 46 46
46 46 46
46 46 46
46 46 46
46 46 46
46 46 46
46 46 46
46 46 46
46 46 46
46 46 46
46 46 46
51 51 51
51 51 51
51 51 51
51 51 51
51 51 51
51 51 51
51 51 51
51 51 51
51 51 51
51 51 51
51 51 51
51 51 51
51 51 51
51 51 51
51 51 51
51 51 51
51 51 51
51 51 51
51 51 51
51 51 51
51 51 51
51 51 51
51 51 51
51 51 51
51 51 51
51 51 51
51 51 51
51 51 51
51 51 51
51 51 51
51 51 51
51 51 51
51 51 51
51 51 51
51 51 51
51 51 51
51 51 51
51 51 51
51 51 51
51 51 51
51 51 51
51 51 51
51 51 51
51 51 51
51 51 51
51 51 51
51 51 51
51 51 51
51 51 51
51 51 51
51 51 51
51 51 51
51 51 51
51 51 51
51 51 51
51 51 51
51 51 51
51 51 51
51 51 51
51 51 51
51 51 51
51 51 51
51 51 51
51 51 51
51 51 51
51 51 51
51 51 51
51 51 51
51 51 51
51 51 51
51 51 51
51 51 51
51 51 51
51 51 51
51 51 51
139 0 0
51 51 51
51 51 51
51 51 51
51 51 51
51 51 51
51 51 51
51 51 51
51 51 51
51 51 51
51 51 51
51 51 51
51 51 51
51 51 51
51 51 51
51 51 51
51 51 51
51 51 51
51 51 51
51 51 51
51 51 51
51 51 51
51 51 51
51 51 51
51 51 51
51 51 51
51 51 51
51 51 51
51 51 51
51 51 51
51 51 51
51 51 51
51 51 51
51 51 51
51 51 51
51 51 51
51 51 51
51 51 51
51 51 51
51 51 51
51 51 51
51 51 51
51 51 51
51 51 51
51 51 51
51 51 51
51 51 51
51 51 51
51 51 51
51 51 51
51 51 51
51 51 51
51 51 51
51 51 51
51 51 51
51 51 51
51 51 51
51 51 51
51 51 51
51 51 51
51 51 51
51 51 51
51 51 51
51 51 51
51 51 51
51 51 51
51 51 51
51 51 51
51 51 51
51 51 51
51 51 51
51 51 51
51 51 51
51 51 51
51 51 51
46 46 46
46 46 46
46 46 46
46 46 46
46 46 46
46 46 46
46 46 46
46 46 46
46 46 46
46 46 46
46 46 46
46 46 46
46 46 46
47 47 47
48 48 48
49 49 49
51 51 51
53 53 53
55 55 55
57 57 57
60 60 60
62 62 62
64 64 64
65 65 65
66 66 66
66 66 66
65 65 65
64 64 64
62 62 62
60 60 60
57 57 57
55 55 55
53 53 53
51 51 51
49 49 49
48 48 48
47 47 47
46 46 46
46 46 46
46 46 46
46 46 46
46 46 46
46 46 46
46 46 46
46 46 46
46 46 46
46 46 46
46 46 46
46 46 46
46 46 46
51 51 51
51 51 51
51 51 51
51 51 51
51 51 51
51 51 51
51 51 51
51 51 51
51 51 51
51 51 51
51 51 51
51 51 51
51 51 51
51 51 51
51 51 51
51 51 51
51 51 51
51 51 51
51 51 51
51 51 51
51 51 51
51 51 51
51 51 51
51 51 51
51 51 51
51 51 51
51 51 51
51 51 51
51 51 51
51 51 51
51 51 51
51 51 51
51 51 51
51 51 51
51 51 51
51 51 51
51 51 51
51 51 51
51 51 51
51 51 51
51 51 51
51 51 51
51 51 51
51 51 51
51 51 51
51 51 51
51 51 51
51 51 51
51 51 51
51 51 51
51 51 51
51 51 51
51 51 51
51 51 51
51 51 51
51 51 51
51 51 51
51 51 51
51 51 51
51 51 51
51 51 51
51 51 51
51 51 51
51 51 51
51 51 51
51 51 51
51 51 51
51 51 51
51 51 51
51 51 51
51 51 51
51 51 51
51 51 51
51 51 51
51 51 51
51 51 51
139 0 0
51 51 51
51 51 51
51 51 51
51 51 51
51 51 51
51 51 51
51 51 51
51 51 51
51 51 51
51 51 51
51 51 51
51 51 51
51 51 51
51 51 51
51 51 51
51 51 51
51 51 51
51 51 51
51 51 51
51 51 51
51 51 51
51 51 51
51 51 51
51 51 51
51 51 51
51 51 51
51 51 51
51 51 51
51 51 51
51 51 51
51 51 51
51 51 51
51 51 51
51 51 51
51 51 51
51 51 51
51 51 51
51 51 51
51 51 51
51 51 51
51 51 51
51 51 51
51 51 51
51 51 51
51 51 51
51 51 51
51 51 51
51 51 51
51 51 51
51 51 51
51 51 51
51 51 51
51 51 51
51 51 51
51 51 51
51 51 51
51 51 51
51 51 51
51 51 51
51 51 51
51 51 51
51 51 51
51 51 51
51 51 51
51 51 51
51 51 51
51 51 51
51 51 51
51 51 51
51 51 51
51 51 51
51 51 51
51 51 51
46 46 46
46 46 46
46 46 46
46 46 46
46 46 46
46 46 46
46 46 46
46 46 46
46 46 46
46 46 46
46 46 46
46 46 46
46 46 46
47 47 47
47 47 47
48 48 48
49 49 49
51 51 51
52 52 52
54 54 54
55 55 55
57 57 57
58 58 58
59 59 59
59 59 59
59 59 59
59 59 59
58 58 58
57 57 57
55 55 55
54 54 54
52 52 52
51 51 51
49 49 49
48 48 48
47 47 47
47 47 47
46 46 46
46 46 46
46 46 46
46 46 46
46 46 46
46 46 46
46 46 46
46 46 46
46 46 46
46 46 46
46 46 46
46 46 46
46 46 46
51 51 51
51 51 51
51 51 51
51 51 51
51 51 51
51 51 51
51 51 51
51 51 51
51 51 51
51 51 51
51 51 51
51 51 51
51 51 51
51 51 51
51 51 51
51 51 51
51 51 51
51 51 51
51 51 51
51 51 51
51 51 51
51 51 51
51 51 51
51 51 51
51 51 51
51 51 51
51 51 51
51 51 51
51 51 51
51 51 51
51 51 51
51 51 51
51 51 51
51 51 51
51 51 51
51 51 51
51 51 51
51 51 51
51 51 51
51 51 51
51 51 51
51 51 51
51 51 51
51 51 51
51 51 51
51 51 51
51 51 51
51 51 51
51 51 51
51 51 51
51 51 51
51 51 51
51 51 51
51 51 51
51 51 51
51 51 51
51 51 51
51 51 51
51 51 51
51 51 51
51 51 51
51 51 51
51 51 51
51 51 51
51 51 51
51 51 51
51 51 51
51 51 51
51 51 51
51 51 51
51 51 51
51 51 51
51 51 51
51 51 51
51 51 51
51 51 51
139 0 0
139 0 0
51 51 51
51 51 51
51 51 51
51 51 51
51 51 51
51 51 51
51 51 51
51 51 51
51 51 51
51 51 51
51 51 51
51 51 51
51 51 51
51 51 51
51 51 51
51 51 51
51 51 51
51 51 51
51 51 51
51 51 51
51 51 51
51 51 51
51 51 51
51 51 51
51 51 51
51 51 51
51 51 51
51 51 51
51 51 51
51 51 51
51 51 51
51 51 51
51 51 51
51 51 51
51 51 51
51 51 51
51 51 51
51 51 51
51 51 51
51 51 51
51 51 51
51 51 51
51 51 51
51 51 51
51 51 51
51 51 51
51 51 51
51 51 51
51 51 51
51 51 51
51 51 51
51 51 51
51 51 51
51 51 51
51 51 51
51 51 51
51 51 51
51 51 51
51 51 51
51 51 51
51 51 51
51 51 51
51 51 51
51 51 51
51 51 51
51 51 51
51 51 51
51 51 51
51 51 51
51 51 51
51 51 51
51 51 51
46 46 46
46 46 46
46 46 46
46 46 46
46 46 46
46 46 46
46 46 46
46 46 46
46 46 46
46 46 46
46 46 46
46 46 46
46 46 46
46 46 46
47 47 47
47 47 47
48 48 48
49 49 49
50 50 50
51 51 51
52 52 52
53 53 53
54 54 54
54 54 54
54 54 54
54 54 54
54 54 54
54 54 54
53 53 53
52 52 52
51 51 51
50 50 50
49 49 49
48 48 48
47 47 47
47 47 47
46 46 46
46 46 46
46 46 46
46 46 46
46 46 46
46 46 46
46 46 46
46 46 46
46 46 46
46 46 46
46 46 46
46 46 46
46 46 46
46 46 46
51 51 51
51 51 51
51 51 51
51 51 51
51 51 51
51 51 51
51 51 51
51 51 51
51 51 51
51 51 51
51 51 51
51 51 51
51 51 51
51 51 51
51 51 51
51 51 51
51 51 51
51 51 51
51 51 51
51 51 51
51 51 51
51 51 51
51 51 51
51 51 51
51 51 51
51 51 51
51 51 51
51 51 51
51 51 51
51 51 51
51 51 51
51 51 51
51 51 51
51 51 51
51 51 51
51 51 51
51 51 51
51 51 51
51 51 51
51 51 51
51 51 51
51 51 51
51 51 51
51 51 51
51 51 51
51 51 51
51 51 51
51 51 51
51 51 51
51 51 51
51 51 51
51 51 51
51 51 51
51 51 51
51 51 51
51 51 51
51 51 51
51 51 51
51 51 51
51 51 51
51 51 51
51 51 51
51 51 51
51 51 51
51 51 51
51 51 51
51 51 51
51 51 51
51 51 51
51 51 51
51 51 51
51 51 51
51 51 51
51 51 51
51 51 51
51 51 51
51 51 51
139 0 0
139 0 0
51 51 51
51 51 51
51 51 51
51 51 51
51 51 51
51 51 51
51 51 51
51 51 51
51 51 51
51 51 51
51 51 51
51 51 51
51 51 51
51 51 51
51 51 51
51 51 51
51 51 51
51 51 51
51 51 51
51 51 51
51 51 51
51 51 51
51 51 51
51 51 51
51 51 51
51 51 51
51 51 51
51 51 51
51 51 51
51 51 51
51 51 51
51 51 51
51 51 51
51 51 51
51 51 51
51 51 51
51 51 51
51 51 51
51 51 51
51 51 51
51 51 51
51 51 51
51 51 51
51 51 51
51 51 51
51 51 51
51 51 51
51 51 51
51 51 51
51 51 51
51 51 51
51 51 51
51 51 51
51 51 51
51 51 51
51 51 51
51 51 51
51 51 51
51 51 51
51 51 51
51 51 51
51 51 51
51 51 51
51 51 51
51 51 51
51 51 51
51 51 51
51 51 51
51 51 51
51 51 51
51 51 51
46 46 46
46 46 46
46 46 46
46 46 46
46 46 46
46 46 46
46 46 46
46 46 46
46 46 46
46 46 46
46 46 46
46 46 46
46 46 46
46 46 46
46 46 46
46 46 46
47 47 47
47 47 47
48 48 48
49 49 49
49 49 49
50 50 50
50 50 50
51 51 51
51 51 51
51 51 51
51 51 51
50 50 50
50 50 50
49 49 49
49 49 49
48 48 48
47 47 47
47 47 47
46 46 46
46 46 46
46 46 46
46 46 46
46 46 46
46 46 46
46 46 46
46 46 46
46 46 46
46 46 46
46 46 46
46 46 46
46 46 46
46 46 46
46 46 46
46 46 46
51 51 51
51 51 51
51 51 51
51 51 51
51 51 51
51 51 51
51 51 51
51 51 51
51 51 51
51 51 51
51 51 51
51 51 51
51 51 51
51 51 51
51 51 51
51 51 51
51 51 51
51 51 51
51 51 51
51 51 51
51 51 51
51 51 51
51 51 51
51 51 51
51 51 51
51 51 51
51 51 51
51 51 51
51 51 51
51 51 51
51 51 51
51 51 51
51 51 51
51 51 51
51 51 51
51 51 51
51 51 51
51 51 51
51 51 51
51 51 51
51 51 51
51 51 51
51 51 51
51 51 51
51 51 51
51 51 51
51 51 51
51 51 51
51 51 51
51 51 51
51 51 51
51 51 51
51 51 51
51 51 51
51 51 51
51 51 51
51 51 51
51 51 51
51 51 51
51 51 51
51 51 51
51 51 51
51 51 51
51 51 51
51 51 51
51 51 51
51 51 51
51 51 51
51 51 51
51 51 51
51 51 51
51 51 51
51 51 51
51 51 51
51 51 51
51 51 51
51 51 51
51 51 51
139 0 0
139 0 0
51 51 51
51 51 51
51 51 51
51 51 51
51 51 51
51 51 51
51 51 51
51 51 51
51 51 51
51 51 51
51 51 51
51 51 51
51 51 51
51 51 51
51 51 51
51 51 51
51 51 51
51 51 51
51 51 51
51 51 51
51 51 51
51 51 51
51 51 51
51 51 51
51 51 51
51 51 51
51 51 51
51 51 51
51 51 51
51 51 51
51 51 51
51 51 51
51 51 51
51 51 51
51 51 51
51 51 51
51 51 51
51 51 51
51 51 51
51 51 51
51 51 51
51 51 51
51 51 51
51 51 51
51 51 51
51 51 51
51 51 51
51 51 51
51 51 51
51 51 51
51 51 51
51 51 51
51 51 51
51 51 51
51 51 51
51 51 51
51 51 51
51 51 51
51 51 51
51 51 51
51 51 51
51 51 51
51 51 51
51 51 51
51 51 51
51 51 51
51 51 51
51 51 51
51 51 51
46 46 46
46 46 46
46 46 46
46 46 46
46 46 46
46 46 46
46 46 46
46 46 46
46 46 46
46 46 46
46 46 46
46 46 46
46 46 46
46 46 46
46 46 46
46 46 46
46 46 46
46 46 46
47 47 47
47 47 47
47 47 47
48 48 48
48 48 48
48 48 48
48 48 48
49 49 49
49 49 49
48 48 48
48 48 48
48 48 48
48 48 48
47 47 47
47 47 47
47 47 47
46 46 46
46 46 46
46 46 46
46 46 46
46 46 46
46 46 46
46 46 46
46 46 46
46 46 46
46 46 46
46 46 46
46 46 46
46 46 46
46 46 46
46 46 46
46 46 46
46 46 46
46 46 46
51 51 51
51 51 51
51 51 51
51 51 51
51 51 51
51 51 51
51 51 51
51 51 51
51 51 51
51 51 51
51 51 51
51 51 51
51 51 51
51 51 51
51 51 51
51 51 51
51 51 51
51 51 51
51 51 51
51 51 51
51 51 51
51 51 51
51 51 51
51 51 51
51 51 51
51 51 51
51 51 51
51 51 51
51 51 51
51 51 51
51 51 51
51 51 51
51 51 51
51 51 51
51 51 51
51 51 51
51 51 51
51 51 51
51 51 51
51 51 51
51 51 51
51 51 51
51 51 51
51 51 51
51 51 51
51 51 51
51 51 51
51 51 51
51 51 51
51 51 51
51 51 51
51 51 51
51 51 51
51 51 51
51 51 51
51 51 51
51 51 51
51 51 51
51 51 51
51 51 51
51 51 51
51 51 51
51 51 51
51 51 51
51 51 51
51 51 51
51 51 51
51 51 51
51 51 51
51 51 51
51 51 51
51 51 51
51 51 51
51 51 51
51 51 51
51 51 51
51 51 51
139 0 0
139 0 0
139 0 0
51 51 51
51 51 51
51 51 51
51 51 51
51 51 51
51 51 51
51 51 51
51 51 51
51 51 51
51 51 51
51 51 51
51 51 51
51 51 51
51 51 51
51 51 51
51 51 51
51 51 51
51 51 51
51 51 51
51 51 51
51 51 51
51 51 51
51 51 51
51 51 51
51 51 51
51 51 51
51 51 51
51 51 51
51 51 51
51 51 51
51 51 51
51 51 51
51 51 51
51 51 51
51 51 51
51 51 51
51 51 51
51 51 51
51 51 51
51 51 51
51 51 51
51 51 51
51 51 51
51 51 51
51 51 51
51 51 51
51 51 51
51 51 51
51 51 51
51 51 51
51 51 51
51 51 51
51 51 51
51 51 51
51 51 51
51 51 51
51 51 51
51 51 51
51 51 51
51 51 51
51 51 51
51 51 51
51 51 51
51 51 51
51 51 51
51 51 51
51 51 51
51 51 51
46 46 46
46 46 46
46 46 46
46 46 46
46 46 46
46 46 46
46 46 46
46 46 46
46 46 46
46 46 46
46 46 46
46 46 46
46 46 46
46 46 46
46 46 46
46 46 46
46 46 46
46 46 46
46 46 46
46 46 46
46 46 46
47 47 47
47 47 47
47 47 47
47 47 47
47 47 47
47 47 47
47 47 47
47 47 47
47 47 47
47 47 47
46 46 46
46 46 46
46 46 46
46 46 46
46 46 46
46 46 46
46 46 46
46 46 46
46 46 46
46 46 46
46 46 46
46 46 46
46 46 46
46 46 46
46 46 46
46 46 46
46 46 46
46 46 46
46 46 46
46 46 46
46 46 46
51 51 51
51 51 51
51 51 51
51 51 51
51 51 51
51 51 51
51 51 51
51 51 51
51 51 51
51 51 51
51 51 51
51 51 51
51 51 51
51 51 51
51 51 51
51 51 51
51 51 51
51 51 51
51 51 51
51 51 51
51 51 51
51 51 51
51 51 51
51 51 51
51 51 51
51 51 51
51 51 51
51 51 51
51 51 51
51 51 51
51 51 51
51 51 51
51 51 51
51 51 51
51 51 51
51 51 51
51 51 51
51 51 51
51 51 51
51 51 51
51 51 51
51 51 51
51 51 51
51 51 51
51 51 51
51 51 51
51 51 51
51 51 51
51 51 51
51 51 51
51 51 51
51 51 51
51 51 51
51 51 51
51 51 51
51 51 51
51 51 51
51 51 51
51 51 51
51 51 51
51 51 51
51 51 51
51 51 51
51 51 51
51 51 51
51 51 51
51 51 51
51 51 51
51 51 51
51 51 51
51 51 51
51 51 51
51 51 51
51 51 51
51 51 51
51 51 51
51 51 51
51 51 51
139 0 0
139 0 0
138 0 0
138 0 0
51 51 51
51 51 51
51 51 51
51 51 51
51 51 51
51 51 51
51 51 51
51 51 51
51 51 51
51 51 51
51 51 51
51 51 51
51 51 51
51 51 51
51 51 51
51 51 51
51 51 51
51 51 51
51 51 51
51 51 51
51 51 51
51 51 51
51 51 51
51 51 51
51 51 51
51 51 51
51 51 51
51 51 51
51 51 51
51 51 51
51 51 51
51 51 51
51 51 51
51 51 51
51 51 51
51 51 51
51 51 51
51 51 51
51 51 51
51 51 51
51 51 51
51 51 51
51 51 51
51 51 51
51 51 51
51 51 51
51 51 51
51 51 51
51 51 51
51 51 51
51 51 51
51 51 51
51 51 51
51 51 51
51 51 51
51 51 51
51 51 51
51 51 51
51 51 51
51 51 51
51 51 51
51 51 51
51 51 51
51 51 51
51 51 51
51 51 51
46 46 46
46 46 46
46 46 46
46 46 46
46 46 46
46 46 46
46 46 46
46 46 46
46 46 46
46 46 46
46 46 46
46 46 46
46 46 46
46 46 46
46 46 46
46 46 46
46 46 46
46 46 46
46 46 46
46 46 46
46 46 46
46 46 46
46 46 46
46 46 46
46 46 46
46 46 46
46 46 46
46 46 46
46 46 46
46 46 46
46 46 46
46 46 46
46 46 46
46 46 46
46 46 46
46 46 46
46 46 46
46 46 46
46 46 46
46 46 46
46 46 46
46 46 46
46 46 46
46 46 46
46 46 46
46 46 46
46 46 46
46 46 46
46 46 46
46 46 46
46 46 46
46 46 46
51 51 51
51 51 51
51 51 51
51 51 51
51 51 51
51 51 51
51 51 51
51 51 51
51 51 51
51 51 51
51 51 51
51 51 51
51 51 51
51 51 51
51 51 51
51 51 51
51 51 51
51 51 51
51 51 51
51 51 51
51 51 51
51 51 51
51 51 51
51 51 51
51 51 51
51 51 51
51 51 51
51 51 51
51 51 51
51 51 51
51 51 51
51 51 51
51 51 51
51 51 51
51 51 51
51 51 51
51 51 51
51 51 51
51 51 51
51 51 51
51 51 51
51 51 51
51 51 51
51 51 51
51 51 51
51 51 51
51 51 51
51 51 51
51 51 51
51 51 51
51 51 51
51 51 51
51 51 51
51 51 51
51 51 51
51 51 51
51 51 51
51 51 51
51 51 51
51 51 51
51 51 51
51 51 51
51 51 51
51 51 51
51 51 51
51 51 51
51 51 51
51 51 51
51 51 51
51 51 51
51 51 51
51 51 51
51 51 51
51 51 51
51 51 51
51 51 51
51 51 51
51 51 51
139 0 0
139 0 0
139 0 0
138 0 0
138 0 0
51 51 51
51 51 51
51 51 51
51 51 51
51 51 51
51 51 51
51 51 51
51 51 51
51 51 51
51 51 51
51 51 51
51 51 51
51 51 51
51 51 51
51 51 51
51 51 51
51 51 51
51 51 51
51 51 51
51 51 51
51 51 51
51 51 51
51 51 51
51 51 51
51 51 51
51 51 51
51 51 51
51 51 51
51 51 51
51 51 51
51 51 51
51 51 51
51 51 51
51 51 51
51 51 51
51 51 51
51 51 51
51 51 51
51 51 51
51 51 51
51 51 51
51 51 51
51 51 51
51 51 51
51 51 51
51 51 51
51 51 51
51 51 51
51 51 51
51 51 51
51 51 51
51 51 51
51 51 51
51 51 51
51 51 51
51 51 51
51 51 51
51 51 51
51 51 51
51 51 51
51 51 51
51 51 51
51 51 51
51 51 51
51 51 51
46 46 46
46 46 46
46 46 46
46 46 46
46 46 46
46 46 46
46 46 46
46 46 46
46 46 46
46 46 46
46 46 46
46 46 46
46 46 46
46 46 46
46 46 46
46 46 46
46 46 46
46 46 46
46 46 46
46 46 46
46 46 46
46 46 46
46 46 46
46 46 46
46 46 46
46 46 46
46 46 46
46 46 46
46 46 46
46 46 46
46 46 46
46 46 46
46 46 46
46 46 46
46 46 46
46 46 46
46 46 46
46 46 46
46 46 46
46 46 46
46 46 46
46 46 46
46 46 46
46 46 46
46 46 46
46 46 46
46 46 46
46 46 46
46 46 46
46 46 46
46 46 46
46 46 46
51 51 51
51 51 51
51 51 51
51 51 51
51 51 51
51 51 51
51 51 51
51 51 51
51 51 51
51 51 51
51 51 51
51 51 51
51 51 51
51 51 51
51 51 51
51 51 51
51 51 51
51 51 51
51 51 51
51 51 51
51 51 51
51 51 51
51 51 51
51 51 51
51 51 51
51 51 51
51 51 51
51 51 51
51 51 51
51 51 51
51 51 51
51 51 51
51 51 51
51 51 51
51 51 51
51 51 51
51 51 51
51 51 51
51 51 51
51 51 51
51 51 51
51 51 51
51 51 51
51 51 51
51 51 51
51 51 51
51 51 51
51 51 51
51 51 51
51 51 51
51 51 51
51 51 51
51 51 51
51 51 51
51 51 51
51 51 51
51 51 51
51 51 51
51 51 51
51 51 51
51 51 51
51 51 51
51 51 51
51 51 51
51 51 51
51 51 51
51 51 51
51 51 51
51 51 51
51 51 51
51 51 51
51 51 51
51 51 51
51 51 51
51 51 51
51 51 51
51 51 51
51 51 51
51 51 51
139 0 0
139 0 0
138 0 0
138 0 0
138 0 0
51 51 51
51 51 51
51 51 51
51 51 51
51 51 51
51 51 51
51 51 51
51 51 51
51 51 51
51 51 51
51 51 51
51 51 51
51 51 51
51 51 51
51 51 51
51 51 51
51 51 51
51 51 51
51 51 51
51 51 51
51 51 51
51 51 51
51 51 51
51 51 51
51 51 51
51 51 51
51 51 51
51 51 51
51 51 51
51 51 51
51 51 51
51 51 51
51 51 51
51 51 51
51 51 51
51 51 51
51 51 51
51 51 51
51 51 51
51 51 51
51 51 51
51 51 51
51 51 51
51 51 51
51 51 51
51 51 51
51 51 51
51 51 51
51 51 51
51 51 51
51 51 51
51 51 51
51 51 51
51 51 51
51 51 51
51 51 51
51 51 51
51 51 51
51 51 51
51 51 51
51 51 51
51 51 51
51 51 51
51 51 51
46 46 46
46 46 46
46 46 46
46 46 46
46 46 46
46 46 46
46 46 46
46 46 46
46 46 46
46 46 46
46 46 46
46 46 46
46 46 46
46 46 46
46 46 46
46 46 46
46 46 46
46 46 46
46 46 46
46 46 46
46 46 46
46 46 46
46 46 46
46 46 46
46 46 46
46 46 46
46 46 46
46 46 46
46 46 46
46 46 46
46 46 46
46 46 46
46 46 46
46 46 46
46 46 46
46 46 46
46 46 46
46 46 46
46 46 46
46 46 46
46 46 46
46 46 46
46 46 46
46 46 46
46 46 46
46 46 46
46 46 46
46 46 46
46 46 46
46 46 46
46 46 46
46 46 46
51 51 51
51 51 51
51 51 51
51 51 51
51 51 51
51 51 51
51 51 51
51 51 51
51 51 51
51 51 51
51 51 51
51 51 51
51 51 51
51 51 51
51 51 51
51 51 51
51 51 51
51 51 51
51 51 51
51 51 51
51 51 51
51 51 51
51 51 51
51 51 51
51 51 51
51 51 51
51 51 51
51 51 51
51 51 51
51 51 51
51 51 51
51 51 51
51 51 51
51 51 51
51 51 51
51 51 51
51 51 51
51 51 51
51 51 51
51 51 51
51 51 51
51 51 51
51 51 51
51 51 51
51 51 51
51 51 51
51 51 51
51 51 51
51 51 51
51 51 51
51 51 51
51 51 51
51 51 51
51 51 51
51 51 51
51 51 51
51 51 51
51 51 51
51 51 51
51 51 51
51 51 51
51 51 51
51 51 51
51 51 51
51 51 51
51 51 51
51 51 51
51 51 51
51 51 51
51 51 51
51 51 51
51 51 51
51 51 51
51 51 51
51 51 51
51 51 51
51 51 51
51 51 51
51 51 51
139 0 0
139 0 0
139 0 0
138 0 0
138 0 0
138 0 0
51 51 51
51 51 51
51 51 51
51 51 51
51 51 51
51 51 51
51 51 51
51 51 51
51 51 51
51 51 51
51 51 51
51 51 51
51 51 51
51 51 51
51 51 51
51 51 51
51 51 51
51 51 51
51 51 51
51 51 51
51 51 51
51 51 51
51 51 51
51 51 51
51 51 51
51 51 51
51 51 51
51 51 51
51 51 51
51 51 51
51 51 51
51 51 51
51 51 51
51 51 51
51 51 51
51 51 51
51 51 51
51 51 51
51 51 51
51 51 51
51 51 51
51 51 51
51 51 51
51 51 51
51 51 51
51 51 51
51 51 51
51 51 51
51 51 51
51 51 51
51 51 51
51 51 51
51 51 51
51 51 51
51 51 51
51 51 51
51 51 51
51 51 51
51 51 51
51 51 51
51 51 51
51 51 51
51 51 51
46 46 46
46 46 46
46 46 46
46 46 46
46 46 46
46 46 46
46 46 46
46 46 46
46 46 46
46 46 46
46 46 46
46 46 46
46 46 46
46 46 46
46 46 46
46 46 46
46 46 46
46 46 46
46 46 46
46 46 46
46 46 46
46 46 46
46 46 46
46 46 46
46 46 46
46 46 46
46 46 46
46 46 46
46 46 46
46 46 46
46 46 46
46 46 46
46 46 46
46 46 46
46 46 46
46 46 46
46 46 46
46 46 46
46 46 46
46 46 46
46 46 46
46 46 46
46 46 46
46 46 46
46 46 46
46 46 46
46 46 46
46 46 46
46 46 46
46 46 46
46 46 46
46 46 46
51 51 51
51 51 51
51 51 51
51 51 51
51 51 51
51 51 51
51 51 51
51 51 51
51 51 51
51 51 51
51 51 51
51 51 51
51 51 51
51 51 51
51 51 51
51 51 51
51 51 51
51 51 51
51 51 51
51 51 51
51 51 51
51 51 51
51 51 51
51 51 51
51 51 51
51 51 51
51 51 51
51 51 51
51 51 51
51 51 51
51 51 51
51 51 51
51 51 51
51 51 51
51 51 51
51 51 51
51 51 51
51 51 51
51 51 51
51 51 51
51 51 51
51 51 51
51 51 51
51 51 51
51 51 51
51 51 51
51 51 51
51 51 51
51 51 51
51 51 51
51 51 51
51 51 51
51 51 51
51 51 51
51 51 51
51 51 51
51 51 51
51 51 51
51 51 51
51 51 51
51 51 51
51 51 51
51 51 51
51 51 51
51 51 51
51 51 51
51 51 51
51 51 51
51 51 51
51 51 51
51 51 51
51 51 51
51 51 51
51 51 51
51 51 51
51 51 51
51 51 51
51 51 51
51 51 51
51 51 51
139 0 0
139 0 0
138 0 0
138 0 0
138 0 0
137 0 0
51 51 51
51 51 51
51 51 51
51 51 51
51 51 51
51 51 51
51 51 51
51 51 51
51 51 51
51 51 51
51 51 51
51 51 51
51 51 51
51 51 51
51 51 51
51 51 51
51 51 51
51 51 51
51 51 51
51 51 51
51 51 51
51 51 51
51 51 51
51 51 51
51 51 51
51 51 51
51 51 51
51 51 51
51 51 51
51 51 51
51 51 51
51 51 51
51 51 51
51 51 51
51 51 51
51 51 51
51 51 51
51 51 51
51 51 51
51 51 51
51 51 51
51 51 51
51 51 51
51 51 51
51 51 51
51 51 51
51 51 51
51 51 51
51 51 51
51 51 51
51 51 51
51 51 51
51 51 51
51 51 51
51 51 51
51 51 51
51 51 51
51 51 51
51 51 51
51 51 51
51 51 51
51 51 51
46 46 46
46 46 46
46 46 46
46 46 46
46 46 46
46 46 46
46 46 46
46 46 46
46 46 46
46 46 46
46 46 46
46 46 46
46 46 46
46 46 46
46 46 46
46 46 46
46 46 46
46 46 46
46 46 46
46 46 46
46 46 46
46 46 46
46 46 46
46 46 46
46 46 46
46 46 46
46 46 46
46 46 46
46 46 46
46 46 46
46 46 46
46 46 46
46 46 46
46 46 46
46 46 46
46 46 46
46 46 46
46 46 46
46 46 46
46 46 46
46 46 46
46 46 46
46 46 46
46 46 46
46 46 46
46 46 46
46 46 46
46 46 46
46 46 46
46 46 46
46 46 46
46 46 46
51 51 51
51 51 51
51 51 51
51 51 51
51 51 51
51 51 51
51 51 51
51 51 51
51 51 51
51 51 51
51 51 51
51 51 51
51 51 51
51 51 51
51 51 51
51 51 51
51 51 51
51 51 51
51 51 51
51 51 51
51 51 51
51 51 51
51 51 51
51 51 51
51 51 51
51 51 51
51 51 51
51 51 51
51 51 51
51 51 51
51 51 51
51 51 51
51 51 51
51 51 51
51 51 51
51 51 51
51 51 51
51 51 51
51 51 51
51 51 51
51 51 51
51 51 51
51 51 51
51 51 51
51 51 51
51 51 51
51 51 51
51 51 51
51 51 51
51 51 51
51 51 51
51 51 51
51 51 51
51 51 51
51 51 51
51 51 51
51 51 51
51 51 51
51 51 51
51 51 51
51 51 51
51 51 51
51 51 51
51 51 51
51 51 51
51 51 51
51 51 51
51 51 51
51 51 51
51 51 51
51 51 51
51 51 51
51 51 51
51 51 51
51 51 51
51 51 51
51 51 51
51 51 51
51 51 51
51 51 51
139 0 0
139 0 0
138 0 0
138 0 0
138 0 0
138 0 0
137 0 0
51 51 51
51 51 51
51 51 51
51 51 51
51 51 51
51 51 51
51 51 51
51 51 51
51 51 51
51 51 51
51 51 51
51 51 51
51 51 51
51 51 51
51 51 51
51 51 51
51 51 51
51 51 51
51 51 51
51 51 51
51 51 51
51 51 51
51 51 51
51 51 51
51 51 51
51 51 51
51 51 51
51 51 51
51 51 51
51 51 51
51 51 51
51 51 51
51 51 51
51 51 51
51 51 51
51 51 51
51 51 51
51 51 51
51 51 51
51 51 51
51 51 51
51 51 51
51 51 51
51 51 51
51 51 51
51 51 51
51 51 51
51 51 51
51 51 51
51 51 51
51 51 51
51 51 51
51 51 51
51 51 51
51 51 51
51 51 51
51 51 51
51 51 51
51 51 51
51 51 51
51 51 51
46 46 46
46 46 46
46 46 46
46 46 46
46 46 46
46 46 46
46 46 46
46 46 46
46 46 46
46 46 46
46 46 46
46 46 46
46 46 46
46 46 46
46 46 46
46 46 46
46 46 46
46 46 46
46 46 46
46 46 46
46 46 46
46 46 46
46 46 46
46 46 46
46 46 46
46 46 46
46 46 46
46 46 46
46 46 46
46 46 46
46 46 46
46 46 46
46 46 46
46 46 46
46 46 46
46 46 46
46 46 46
46 46 46
46 46 46
46 46 46
46 46 46
46 46 46
46 46 46
46 46 46
46 46 46
46 46 46
46 46 46
46 46 46
46 46 46
46 46 46
46 46 46
46 46 46
51 51 51
51 51 51
51 51 51
51 51 51
51 51 51
51 51 51
51 51 51
51 51 51
51 51 51
51 51 51
51 51 51
51 51 51
51 51 51
51 51 51
51 51 51
51 51 51
51 51 51
51 51 51
51 51 51
51 51 51
51 51 51
51 51 51
51 51 51
51 51 51
51 51 51
51 51 51
51 51 51
51 51 51
51 51 51
51 51 51
51 51 51
51 51 51
51 51 51
51 51 51
51 51 51
51 51 51
51 51 51
51 51 51
51 51 51
51 51 51
51 51 51
51 51 51
51 51 51
51 51 51
51 51 51
51 51 51
51 51 51
51 51 51
51 51 51
51 51 51
51 51 51
51 51 51
51 51 51
51 51 51
51 51 51
51 51 51
51 51 51
51 51 51
51 51 51
51 51 51
51 51 51
51 51 51
51 51 51
51 51 51
51 51 51
51 51 51
51 51 51
51 51 51
51 51 51
51 51 51
51 51 51
51 51 51
51 51 51
51 51 51
51 51 51
51 51 51
51 51 51
51 51 51
51 51 51
51 51 51
51 51 51
139 0 0
139 0 0
138 0 0
138 0 0
138 0 0
137 0 0
137 0 0
51 51 51
51 51 51
51 51 51
51 51 51
51 51 51
51 51 51
51 51 51
51 51 51
51 51 51
51 51 51
51 51 51
51 51 51
51 51 51
51 51 51
51 51 51
51 51 51
51 51 51
51 51 51
51 51 51
51 51 51
51 51 51
51 51 51
51 51 51
51 51 51
51 51 51
51 51 51
51 51 51
51 51 51
51 51 51
51 51 51
51 51 51
51 51 51
51 51 51
51 51 51
51 51 51
51 51 51
51 51 51
51 51 51
51 51 51
51 51 51
51 51 51
51 51 51
51 51 51
51 51 51
51 51 51
51 51 51
51 51 51
51 51 51
51 51 51
51 51 51
51 51 51
51 51 51
51 51 51
51 51 51
51 51 51
51 51 51
51 51 51
51 51 51
51 51 51
51 51 51
51 51 51
46 46 46
46 46 46
46 46 46
46 46 46
46 46 46
46 46 46
46 46 46
46 46 46
46 46 46
46 46 46
46 46 46
46 46 46
46 46 46
46 46 46
46 46 46
46 46 46
46 46 46
46 46 46
46 46 46
46 46 46
46 46 46
46 46 46
46 46 46
46 46 46
46 46 46
46 46 46
46 46 46
46 46 46
46 46 46
46 46 46
46 46 46
46 46 46
46 46 46
46 46 46
46 46 46
46 46 46
46 46 46
46 46 46
46 46 46
46 46 46
46 46 46
46 46 46
46 46 46
46 46 46
46 46 46
46 46 46
46 46 46
46 46 46
46 46 46
46 46 46
51 51 51
51 51 51
51 51 51
51 51 51
51 51 51
51 51 51
51 51 51
51 51 51
51 51 51
51 51 51
51 51 51
51 51 51
51 51 51
51 51 51
51 51 51
51 51 51
51 51 51
51 51 51
51 51 51
51 51 51
51 51 51
51 51 51
51 51 51
51 51 51
51 51 51
51 51 51
51 51 51
51 51 51
51 51 51
51 51 51
51 51 51
51 51 51
51 51 51
51 51 51
51 51 51
51 51 51
51 51 51
51 51 51
51 51 51
51 51 51
51 51 51
51 51 51
51 51 51
51 51 51
51 51 51
51 51 51
51 51 51
51 51 51
51 51 51
51 51 51
51 51 51
51 51 51
51 51 51
51 51 51
51 51 51
51 51 51
51 51 51
51 51 51
51 51 51
51 51 51
51 51 51
51 51 51
51 51 51
51 51 51
51 51 51
51 51 51
51 51 51
51 51 51
51 51 51
51 51 51
51 51 51
51 51 51
51 51 51
51 51 51
51 51 51
51 51 51
51 51 51
51 51 51
51 51 51
51 51 51
51 51 51
51 51 51
51 51 51
139 0 0
138 0 0
138 0 0
138 0 0
137 0 0
137 0 0
137 0 0
137 0 0
51 51 51
51 51 51
51 51 51
51 51 51
51 51 51
51 51 51
51 51 51
51 51 51
51 51 51
51 51 51
51 51 51
51 51 51
51 51 51
51 51 51
51 51 51
51 51 51
51 51 51
51 51 51
51 51 51
51 51 51
51 51 51
51 51 51
51 51 51
51 51 51
51 51 51
51 51 51
51 51 51
51 51 51
51 51 51
51 51 51
51 51 51
51 51 51
51 51 51
51 51 51
51 51 51
51 51 51
51 51 51
51 51 51
51 51 51
51 51 51
51 51 51
51 51 51
51 51 51
51 51 51
51 51 51
51 51 51
51 51 51
51 51 51
51 51 51
51 51 51
51 51 51
51 51 51
51 51 51
51 51 51
51 51 51
51 51 51
51 51 51
51 51 51
51 51 51
46 46 46
46 46 46
46 46 46
46 46 46
46 46 46
46 46 46
46 46 46
46 46 46
46 46 46
46 46 46
46 46 46
46 46 46
46 46 46
46 46 46
46 46 46
46 46 46
46 46 46
46 46 46
46 46 46
46 46 46
46 46 46
46 46 46
46 46 46
46 46 46
46 46 46
46 46 46
46 46 46
46 46 46
46 46 46
46 46 46
46 46 46
46 46 46
46 46 46
46 46 46
46 46 46
46 46 46
46 46 46
46 46 46
46 46 46
46 46 46
46 46 46
46 46 46
46 46 46
46 46 46
46 46 46
46 46 46
46 46 46
46 46 46
46 46 46
46 46 46
51 51 51
51 51 51
51 51 51
51 51 51
51 51 51
51 51 51
51 51 51
51 51 51
51 51 51
51 51 51
51 51 51
51 51 51
51 51 51
51 51 51
51 51 51
51 51 51
51 51 51
51 51 51
51 51 51
51 51 51
51 51 51
51 51 51
51 51 51
51 51 51
51 51 51
51 51 51
51 51 51
51 51 51
51 51 51
51 51 51
51 51 51
51 51 51
51 51 51
51 51 51
51 51 51
51 51 51
51 51 51
51 51 51
51 51 51
51 51 51
51 51 51
51 51 51
51 51 51
51 51 51
51 51 51
51 51 51
51 51 51
51 51 51
51 51 51
51 51 51
51 51 51
51 51 51
51 51 51
51 51 51
51 51 51
51 51 51
51 51 51
51 51 51
51 51 51
51 51 51
51 51 51
51 51 51
51 51 51
51 51 51
51 51 51
51 51 51
51 51 51
51 51 51
51 51 51
51 51 51
51 51 51
51 51 51
51 51 51
51 51 51
51 51 51
51 51 51
51 51 51
51 51 51
51 51 51
51 51 51
51 51 51
51 51 51
51 51 51
139 0 0
139 0 0
138 0 0
138 0 0
138 0 0
137 0 0
137 0 0
137 0 0
136 0 0
51 51 51
51 51 51
51 51 51
51 51 51
51 51 51
51 51 51
51 51 51
51 51 51
51 51 51
51 51 51
51 51 51
51 51 51
51 51 51
51 51 51
51 51 51
51 51 51
51 51 51
51 51 51
51 51 51
51 51 51
51 51 51
51 51 51
51 51 51
51 51 51
51 51 51
51 51 51
51 51 51
51 51 51
51 51 51
51 51 51
51 51 51
51 51 51
51 51 51
51 51 51
51 51 51
51 51 51
51 51 51
51 51 51
51 51 51
51 51 51
51 51 51
51 51 51
51 51 51
51 51 51
51 51 51
51 51 51
51 51 51
51 51 51
51 51 51
51 51 51
51 51 51
51 51 51
51 51 51
51 51 51
51 51 51
51 51 51
51 51 51
51 51 51
46 46 46
46 46 46
46 46 46
46 46 46
46 46 46
46 46 46
46 46 46
46 46 46
46 46 46
46 46 46
46 46 46
46 46 46
46 46 46
46 46 46
46 46 46
46 46 46
46 46 46
46 46 46
46 46 46
46 46 46
46 46 46
46 46 46
46 46 46
46 46 46
46 46 46
46 46 46
46 46 46
46 46 46
46 46 46
46 46 46
46 46 46
46 46 46
46 46 46
46 46 46
46 46 46
46 46 46
46 46 46
46 46 46
46 46 46
46 46 46
46 46 46
46 46 46
46 46 46
46 46 46
46 46 46
46 46 46
46 46 46
46 46 46
46 46 46
46 46 46
51 51 51
51 51 51
51 51 51
51 51 51
51 51 51
51 51 51
51 51 51
51 51 51
51 51 51
51 51 51
51 51 51
51 51 51
51 51 51
51 51 51
51 51 51
51 51 51
51 51 51
51 51 51
51 51 51
51 51 51
51 51 51
51 51 51
51 51 51
51 51 51
51 51 51
51 51 51
51 51 51
51 51 51
51 51 51
51 51 51
51 51 51
51 51 51
51 51 51
51 51 51
51 51 51
51 51 51
51 51 51
51 51 51
51 51 51
51 51 51
51 51 51
51 51 51
51 51 51
51 51 51
51 51 51
51 51 51
51 51 51
51 51 51
51 51 51
51 51 51
51 51 51
51 51 51
51 51 51
51 51 51
51 51 51
51 51 51
51 51 51
51 51 51
51 51 51
51 51 51
51 51 51
51 51 51
51 51 51
51 51 51
51 51 51
51 51 51
51 51 51
51 51 51
51 51 51
51 51 51
51 51 51
51 51 51
51 51 51
51 51 51
51 51 51
51 51 51
51 51 51
51 51 51
51 51 51
51 51 51
51 51 51
51 51 51
51 51 51
51 51 51
139 0 0
138 0 0
138 0 0
138 0 0
137 0 0
137 0 0
137 0 0
136 0 0
136 0 0
51 51 51
51 51 51
51 51 51
51 51 51
51 51 51
51 51 51
51 51 51
51 51 51
51 51 51
51 51 51
51 51 51
51 51 51
51 51 51
51 51 51
51 51 51
51 51 51
51 51 51
51 51 51
51 51 51
51 51 51
51 51 51
51 51 51
51 51 51
51 51 51
51 51 51
51 51 51
51 51 51
51 51 51
51 51 51
51 51 51
51 51 51
51 51 51
51 51 51
51 51 51
51 51 51
51 51 51
51 51 51
51 51 51
51 51 51
51 51 51
51 51 51
51 51 51
51 51 51
51 51 51
51 51 51
51 51 51
51 51 51
51 51 51
51 51 51
51 51 51
51 51 51
51 51 51
51 51 51
51 51 51
51 51 51
51 51 51
51 51 51
46 46 46
46 46 46
46 46 46
46 46 46
46 46 46
46 46 46
46 46 46
46 46 46
46 46 46
46 46 46
46 46 46
46 46 46
46 46 46
46 46 46
46 46 46
46 46 46
46 46 46
46 46 46
46 46 46
46 46 46
46 46 46
46 46 46
46 46 46
46 46 46
46 46 46
46 46 46
46 46 46
46 46 46
46 46 46
46 46 46
46 46 46
46 46 46
46 46 46
46 46 46
46 46 46
46 46 46
46 46 46
46 46 46
46 46 46
46 46 46
46 46 46
46 46 46
46 46 46
46 46 46
46 46 46
46 46 46
46 46 46
46 46 46
46 46 46
46 46 46
51 51 51
51 51 51
51 51 51
51 51 51
51 51 51
51 51 51
51 51 51
51 51 51
51 51 51
51 51 51
51 51 51
51 51 51
51 51 51
51 51 51
51 51 51
51 51 51
51 51 51
51 51 51
51 51 51
51 51 51
51 51 51
51 51 51
51 51 51
51 51 51
51 51 51
51 51 51
51 51 51
51 51 51
51 51 51
51 51 51
51 51 51
51 51 51
51 51 51
51 51 51
51 51 51
51 51 51
51 51 51
51 51 51
51 51 51
51 51 51
51 51 51
51 51 51
51 51 51
51 51 51
51 51 51
51 51 51
51 51 51
51 51 51
51 51 51
51 51 51
51 51 51
51 51 51
51 51 51
51 51 51
51 51 51
51 51 51
51 51 51
51 51 51
51 51 51
51 51 51
51 51 51
51 51 51
51 51 51
51 51 51
51 51 51
51 51 51
51 51 51
51 51 51
51 51 51
51 51 51
51 51 51
51 51 51
51 51 51
51 51 51
51 51 51
51 51 51
51 51 51
51 51 51
51 51 51
51 51 51
51 51 51
51 51 51
51 51 51
51 51 51
139 0 0
138 0 0
138 0 0
138 0 0
138 0 0
137 0 0
137 0 0
137 0 0
136 0 0
136 0 0
51 51 51
51 51 51
51 51 51
51 51 51
51 51 51
51 51 51
51 51 51
51 51 51
51 51 51
51 51 51
51 51 51
51 51 51
51 51 51
51 51 51
51 51 51
51 51 51
51 51 51
51 51 51
51 51 51
51 51 51
51 51 51
51 51 51
51 51 51
51 51 51
51 51 51
51 51 51
51 51 51
51 51 51
51 51 51
51 51 51
51 51 51
51 51 51
51 51 51
51 51 51
51 51 51
51 51 51
51 51 51
51 51 51
51 51 51
51 51 51
51 51 51
51 51 51
51 51 51
51 51 51
51 51 51
51 51 51
51 51 51
51 51 51
51 51 51
51 51 51
51 51 51
51 51 51
51 51 51
51 51 51
51 51 51
51 51 51
46 46 46
46 46 46
46 46 46
46 46 46
46 46 46
46 46 46
46 46 46
46 46 46
46 46 46
46 46 46
46 46 46
46 46 46
46 46 46
46 46 46
46 46 46
46 46 46
46 46 46
46 46 46
46 46 46
46 46 46
46 46 46
46 46 46
46 46 46
46 46 46
46 46 46
46 46 46
46 46 46
46 46 46
46 46 46
46 46 46
46 46 46
46 46 46
46 46 46
46 46 46
46 46 46
46 46 46
46 46 46
46 46 46
46 46 46
46 46 46
46 46 46
46 46 46
46 46 46
46 46 46
46 46 46
46 46 46
46 46 46
46 46 46
46 46 46
46 46 46
51 51 51
51 51 51
51 51 51
51 51 51
51 51 51
51 51 51
51 51 51
51 51 51
51 51 51
51 51 51
51 51 51
51 51 51
51 51 51
51 51 51
51 51 51
51 51 51
51 51 51
51 51 51
51 51 51
51 51 51
51 51 51
51 51 51
51 51 51
51 51 51
51 51 51
51 51 51
51 51 51
51 51 51
51 51 51
51 51 51
51 51 51
51 51 51
51 51 51
51 51 51
51 51 51
51 51 51
51 51 51
51 51 51
51 51 51
51 51 51
51 51 51
51 51 51
51 51 51
51 51 51
51 51 51
51 51 51
51 51 51
51 51 51
51 51 51
51 51 51
51 51 51
51 51 51
51 51 51
51 51 51
51 51 51
51 51 51
51 51 51
51 51 51
51 51 51
51 51 51
51 51 51
51 51 51
51 51 51
51 51 51
51 51 51
51 51 51
51 51 51
51 51 51
51 51 51
51 51 51
51 51 51
51 51 51
51 51 51
51 51 51
51 51 51
51 51 51
51 51 51
51 51 51
51 51 51
51 51 51
51 51 51
51 51 51
51 51 51
51 51 51
51 51 51
139 0 0
138 0 0
138 0 0
138 0 0
137 0 0
137 0 0
137 0 0
136 0 0
136 0 0
136 0 0
51 51 51
51 51 51
51 51 51
51 51 51
51 51 51
51 51 51
51 51 51
51 51 51
51 51 51
51 51 51
51 51 51
51 51 51
51 51 51
51 51 51
51 51 51
51 51 51
51 51 51
51 51 51
51 51 51
51 51 51
51 51 51
51 51 51
51 51 51
51 51 51
51 51 51
51 51 51
51 51 51
51 51 51
51 51 51
51 51 51
51 51 51
51 51 51
51 51 51
51 51 51
51 51 51
51 51 51
51 51 51
51 51 51
51 51 51
51 51 51
51 51 51
51 51 51
51 51 51
51 51 51
51 51 51
51 51 51
51 51 51
51 51 51
51 51 51
51 51 51
51 51 51
51 51 51
51 51 51
51 51 51
51 51 51
51 51 51
46 46 46
46 46 46
46 46 46
46 46 46
46 46 46
46 46 46
46 46 46
46 46 46
46 46 46
46 46 46
46 46 46
46 46 46
46 46 46
46 46 46
46 46 46
46 46 46
46 46 46
46 46 46
46 46 46
46 46 46
46 46 46
46 46 46
46 46 46
46 46 46
46 46 46
46 46 46
46 46 46
46 46 46
46 46 46
46 46 46
46 46 46
46 46 46
46 46 46
46 46 46
46 46 46
46 46 46
46 46 46
46 46 46
46 46 46
46 46 46
46 46 46
46 46 46
46 46 46
46 46 46
46 46 46
46 46 46
46 46 46
46 46 46
51 51 51
51 51 51
51 51 51
51 51 51
51 51 51
51 51 51
51 51 51
51 51 51
51 51 51
51 51 51
51 51 51
51 51 51
51 51 51
51 51 51
51 51 51
51 51 51
51 51 51
51 51 51
51 51 51
51 51 51
51 51 51
51 51 51
51 51 51
51 51 51
51 51 51
51 51 51
51 51 51
51 51 51
51 51 51
51 51 51
51 51 51
51 51 51
51 51 51
51 51 51
51 51 51
51 51 51
51 51 51
51 51 51
51 51 51
51 51 51
51 51 51
51 51 51
51 51 51
51 51 51
51 51 51
51 51 51
51 51 51
51 51 51
51 51 51
51 51 51
51 51 51
51 51 51
51 51 51
51 51 51
51 51 51
51 51 51
51 51 51
51 51 51
51 51 51
51 51 51
51 51 51
51 51 51
51 51 51
51 51 51
51 51 51
51 51 51
51 51 51
51 51 51
51 51 51
51 51 51
51 51 51
51 51 51
51 51 51
51 51 51
51 51 51
51 51 51
51 51 51
51 51 51
51 51 51
51 51 51
51 51 51
51 51 51
51 51 51
51 51 51
51 51 51
51 51 51
139 0 0
138 0 0
138 0 0
138 0 0
137 0 0
137 0 0
137 0 0
137 0 0
136 0 0
136 0 0
136 0 0
51 51 51
51 51 51
51 51 51
51 51 51
51 51 51
51 51 51
51 51 51
51 51 51
51 51 51
51 51 51
51 51 51
51 51 51
51 51 51
51 51 51
51 51 51
51 51 51
51 51 51
51 51 51
51 51 51
51 51 51
51 51 51
51 51 51
51 51 51
51 51 51
51 51 51
51 51 51
51 51 51
51 51 51
51 51 51
51 51 51
51 51 51
51 51 51
51 51 51
51 51 51
51 51 51
51 51 51
51 51 51
51 51 51
51 51 51
51 51 51
51 51 51
51 51 51
51 51 51
51 51 51
51 51 51
51 51 51
51 51 51
51 51 51
51 51 51
51 51 51
51 51 51
51 51 51
51 51 51
51 51 51
51 51 51
46 46 46
46 46 46
46 46 46
46 46 46
46 46 46
46 46 46
46 46 46
46 46 46
46 46 46
46 46 46
46 46 46
46 46 46
46 46 46
46 46 46
46 46 46
46 46 46
46 46 46
46 46 46
46 46 46
46 46 46
46 46 46
46 46 46
46 46 46
46 46 46
46 46 46
46 46 46
46 46 46
46 46 46
46 46 46
46 46 46
46 46 46
46 46 46
46 46 46
46 46 46
46 46 46
46 46 46
46 46 46
46 46 46
46 46 46
46 46 46
46 46 46
46 46 46
46 46 46
46 46 46
46 46 46
46 46 46
46 46 46
46 46 46
51 51 51
51 51 51
51 51 51
51 51 51
51 51 51
51 51 51
51 51 51
51 51 51
51 51 51
51 51 51
51 51 51
51 51 51
51 51 51
51 51 51
51 51 51
51 51 51
51 51 51
51 51 51
51 51 51
51 51 51
51 51 51
51 51 51
51 51 51
51 51 51
51 51 51
51 51 51
51 51 51
51 51 51
51 51 51
51 51 51
51 51 51
51 51 51
51 51 51
51 51 51
51 51 51
51 51 51
51 51 51
51 51 51
51 51 51
51 51 51
51 51 51
51 51 51
51 51 51
51 51 51
51 51 51
51 51 51
51 51 51
51 51 51
51 51 51
51 51 51
51 51 51
51 51 51
51 51 51
51 51 51
51 51 51
51 51 51
51 51 51
51 51 51
51 51 51
51 51 51
51 51 51
51 51 51
51 51 51
51 51 51
51 51 51
51 51 51
51 51 51
51 51 51
51 51 51
51 51 51
51 51 51
51 51 51
51 51 51
51 51 51
51 51 51
51 51 51
51 51 51
51 51 51
51 51 51
51 51 51
51 51 51
51 51 51
51 51 51
51 51 51
51 51 51
51 51 51
51 51 51
138 0 0
138 0 0
138 0 0
138 0 0
137 0 0
137 0 0
137 0 0
136 0 0
136 0 0
136 0 0
135 0 0
135 0 0
51 51 51
51 51 51
51 51 51
51 51 51
51 51 51
51 51 51
51 51 51
51 51 51
51 51 51
51 51 51
51 51 51
51 51 51
51 51 51
51 51 51
51 51 51
51 51 51
51 51 51
51 51 51
51 51 51
51 51 51
51 51 51
51 51 51
51 51 51
51 51 51
51 51 51
51 51 51
51 51 51
51 51 51
51 51 51
51 51 51
51 51 51
51 51 51
51 51 51
51 51 51
51 51 51
51 51 51
51 51 51
51 51 51
51 51 51
51 51 51
51 51 51
51 51 51
51 51 51
51 51 51
51 51 51
51 51 51
51 51 51
51 51 51
51 51 51
51 51 51
51 51 51
51 51 51
51 51 51
51 51 51
46 46 46
46 46 46
46 46 46
46 46 46
46 46 46
46 46 46
46 46 46
46 46 46
46 46 46
46 46 46
46 46 46
46 46 46
46 46 46
46 46 46
46 46 46
46 46 46
46 46 46
46 46 46
46 46 46
46 46 46
46 46 46
46 46 46
46 46 46
46 46 46
46 46 46
46 46 46
46 46 46
46 46 46
46 46 46
46 46 46
46 46 46
46 46 46
46 46 46
46 46 46
46 46 46
46 46 46
46 46 46
46 46 46
46 46 46
46 46 46
46 46 46
46 46 46
46 46 46
46 46 46
46 46 46
46 46 46
51 51 51
51 51 51
51 51 51
51 51 51
51 51 51
51 51 51
51 51 51
51 51 51
51 51 51
51 51 51
51 51 51
51 51 51
51 51 51
51 51 51
51 51 51
51 51 51
51 51 51
51 51 51
51 51 51
51 51 51
51 51 51
51 51 51
51 51 51
51 51 51
51 51 51
51 51 51
51 51 51
51 51 51
51 51 51
51 51 51
51 51 51
0 0 121
51 51 51
51 51 51
51 51 51
51 51 51
51 51 51
51 51 51
51 51 51
51 51 51
51 51 51
51 51 51
51 51 51
51 51 51
51 51 51
51 51 51
51 51 51
51 51 51
51 51 51
51 51 51
51 51 51
51 51 51
51 51 51
51 51 51
51 51 51
51 51 51
51 51 51
51 51 51
51 51 51
51 51 51
51 51 51
51 51 51
51 51 51
51 51 51
51 51 51
51 51 51
51 51 51
51 51 51
51 51 51
51 51 51
51 51 51
51 51 51
51 51 51
51 51 51
51 51 51
51 51 51
51 51 51
51 51 51
51 51 51
51 51 51
51 51 51
51 51 51
51 51 51
51 51 51
51 51 51
51 51 51
51 51 51
51 51 51
139 0 0
138 0 0
138 0 0
138 0 0
137 0 0
137 0 0
137 0 0
137 0 0
136 0 0
136 0 0
136 0 0
135 0 0
135 0 0
51 51 51
51 51 51
51 51 51
51 51 51
51 51 51
51 51 51
51 51 51
51 51 51
51 51 51
51 51 51
51 51 51
51 51 51
51 51 51
51 51 51
51 51 51
51 51 51
51 51 51
51 51 51
51 51 51
51 51 51
51 51 51
51 51 51
51 51 51
51 51 51
51 51 51
51 51 51
51 51 51
51 51 51
51 51 51
51 51 51
51 51 51
51 51 51
51 51 51
51 51 51
51 51 51
51 51 51
51 51 51
51 51 51
51 51 51
51 51 51
51 51 51
51 51 51
51 51 51
51 51 51
51 51 51
51 51 51
51 51 51
51 51 51
51 51 51
51 51 51
51 51 51
51 51 51
51 51 51
46 46 46
46 46 46
46 46 46
46 46 46
46 46 46
46 46 46
46 46 46
46 46 46
46 46 46
46 46 46
46 46 46
46 46 46
46 46 46
46 46 46
46 46 46
46 46 46
46 46 46
46 46 46
46 46 46
46 46 46
46 46 46
46 46 46
46 46 46
46 46 46
46 46 46
46 46 46
46 46 46
46 46 46
46 46 46
46 46 46
46 46 46
46 46 46
46 46 46
46 46 46
46 46 46
46 46 46
46 46 46
46 46 46
46 46 46
46 46 46
46 46 46
46 46 46
46 46 46
46 46 46
46 46 46
46 46 46
51 51 51
51 51 51
51 51 51
51 51 51
51 51 51
51 51 51
51 51 51
51 51 51
51 51 51
51 51 51
51 51 51
51 51 51
51 51 51
51 51 51
51 51 51
51 51 51
51 51 51
51 51 51
51 51 51
51 51 51
51 51 51
51 51 51
51 51 51
51 51 51
51 51 51
51 51 51
51 51 51
51 51 51
51 51 51
51 51 51
0 0 121
0 0 122
51 51 51
51 51 51
51 51 51
51 51 51
51 51 51
51 51 51
51 51 51
51 51 51
51 51 51
51 51 51
51 51 51
51 51 51
51 51 51
51 51 51
51 51 51
51 51 51
51 51 51
51 51 51
51 51 51
51 51 51
51 51 51
51 51 51
51 51 51
51 51 51
51 51 51
51 51 51
51 51 51
51 51 51
51 51 51
51 51 51
51 51 51
51 51 51
51 51 51
51 51 51
51 51 51
51 51 51
51 51 51
51 51 51
51 51 51
51 51 51
51 51 51
51 51 51
51 51 51
51 51 51
51 51 51
51 51 51
51 51 51
51 51 51
51 51 51
51 51 51
51 51 51
51 51 51
51 51 51
51 51 51
51 51 51
51 51 51
51 51 51
138 0 0
138 0 0
138 0 0
138 0 0
137 0 0
137 0 0
137 0 0
136 0 0
136 0 0
136 0 0
135 0 0
135 0 0
135 0 0
51 51 51
51 51 51
51 51 51
51 51 51
51 51 51
51 51 51
51 51 51
51 51 51
51 51 51
51 51 51
51 51 51
51 51 51
51 51 51
51 51 51
51 51 51
51 51 51
51 51 51
51 51 51
51 51 51
51 51 51
51 51 51
51 51 51
51 51 51
51 51 51
51 51 51
51 51 51
51 51 51
51 51 51
51 51 51
51 51 51
51 51 51
51 51 51
51 51 51
51 51 51
51 51 51
51 51 51
51 51 51
51 51 51
51 51 51
51 51 51
51 51 51
51 51 51
51 51 51
51 51 51
51 51 51
51 51 51
51 51 51
51 51 51
51 51 51
51 51 51
51 51 51
51 51 51
51 51 51
46 46 46
46 46 46
46 46 46
46 46 46
46 46 46
46 46 46
46 46 46
46 46 46
46 46 46
46 46 46
46 46 46
46 46 46
46 46 46
46 46 46
46 46 46
46 46 46
46 46 46
46 46 46
46 46 46
46 46 46
46 46 46
46 46 46
46 46 46
46 46 46
46 46 46
46 46 46
46 46 46
46 46 46
46 46 46
46 46 46
46 46 46
46 46 46
46 46 46
46 46 46
46 46 46
46 46 46
46 46 46
46 46 46
46 46 46
46 46 46
46 46 46
46 46 46
46 46 46
46 46 46
51 51 51
51 51 51
51 51 51
51 51 51
51 51 51
51 51 51
51 51 51
51 51 51
51 51 51
51 51 51
51 51 51
51 51 51
51 51 51
51 51 51
51 51 51
51 51 51
51 51 51
51 51 51
51 51 51
51 51 51
51 51 51
51 51 51
51 51 51
51 51 51
51 51 51
51 51 51
51 51 51
51 51 51
51 51 51
51 51 51
51 51 51
0 0 122
51 51 51
51 51 51
51 51 51
51 51 51
51 51 51
51 51 51
51 51 51
51 51 51
51 51 51
51 51 51
51 51 51
51 51 51
51 51 51
51 51 51
51 51 51
51 51 51
51 51 51
51 51 51
51 51 51
51 51 51
51 51 51
51 51 51
51 51 51
51 51 51
51 51 51
51 51 51
51 51 51
51 51 51
51 51 51
51 51 51
51 51 51
51 51 51
51 51 51
51 51 51
51 51 51
51 51 51
51 51 51
51 51 51
51 51 51
51 51 51
51 51 51
51 51 51
51 51 51
51 51 51
51 51 51
51 51 51
51 51 51
51 51 51
51 51 51
51 51 51
51 51 51
51 51 51
51 51 51
51 51 51
51 51 51
51 51 51
51 51 51
51 51 51
51 51 51
138 0 0
138 0 0
138 0 0
137 0 0
137 0 0
137 0 0
136 0 0
136 0 0
136 0 0
135 0 0
135 0 0
135 0 0
134 0 0
51 51 51
51 51 51
51 51 51
51 51 51
51 51 51
51 51 51
51 51 51
51 51 51
51 51 51
51 51 51
51 51 51
51 51 51
51 51 51
51 51 51
51 51 51
51 51 51
51 51 51
51 51 51
51 51 51
51 51 51
51 51 51
51 51 51
51 51 51
51 51 51
51 51 51
51 51 51
51 51 51
51 51 51
51 51 51
51 51 51
51 51 51
51 51 51
51 51 51
51 51 51
51 51 51
51 51 51
51 51 51
51 51 51
51 51 51
51 51 51
51 51 51
51 51 51
51 51 51
51 51 51
51 51 51
51 51 51
51 51 51
51 51 51
51 51 51
51 51 51
51 51 51
51 51 51
46 46 46
46 46 46
46 46 46
46 46 46
46 46 46
46 46 46
46 46 46
46 46 46
46 46 46
46 46 46
46 46 46
46 46 46
46 46 46
46 46 46
46 46 46
46 46 46
46 46 46
46 46 46
46 46 46
46 46 46
46 46 46
46 46 46
46 46 46
46 46 46
46 46 46
46 46 46
46 46 46
46 46 46
46 46 46
46 46 46
46 46 46
46 46 46
46 46 46
46 46 46
46 46 46
46 46 46
46 46 46
46 46 46
46 46 46
46 46 46
46 46 46
46 46 46
46 46 46
46 46 46
51 51 51
51 51 51
51 51 51
51 51 51
51 51 51
51 51 51
51 51 51
51 51 51
51 51 51
51 51 51
51 51 51
51 51 51
51 51 51
51 51 51
51 51 51
51 51 51
51 51 51
51 51 51
51 51 51
51 51 51
51 51 51
51 51 51
51 51 51
51 51 51
51 51 51
51 51 51
51 51 51
51 51 51
51 51 51
51 51 51
0 0 122
0 0 122
51 51 51
51 51 51
51 51 51
51 51 51
51 51 51
51 51 51
51 51 51
51 51 51
51 51 51
51 51 51
51 51 51
51 51 51
51 51 51
51 51 51
51 51 51
51 51 51
51 51 51
51 51 51
51 51 51
51 51 51
51 51 51
51 51 51
51 51 51
51 51 51
51 51 51
51 51 51
51 51 51
51 51 51
51 51 51
51 51 51
51 51 51
51 51 51
51 51 51
51 51 51
51 51 51
51 51 51
51 51 51
51 51 51
51 51 51
51 51 51
51 51 51
51 51 51
51 51 51
51 51 51
51 51 51
51 51 51
51 51 51
51 51 51
51 51 51
51 51 51
51 51 51
51 51 51
51 51 51
51 51 51
51 51 51
51 51 51
51 51 51
51 51 51
51 51 51
138 0 0
138 0 0
138 0 0
137 0 0
137 0 0
137 0 0
137 0 0
136 0 0
136 0 0
136 0 0
135 0 0
135 0 0
135 0 0
134 0 0
51 51 51
51 51 51
51 51 51
51 51 51
51 51 51
51 51 51
51 51 51
51 51 51
51 51 51
51 51 51
51 51 51
51 51 51
51 51 51
51 51 51
51 51 51
51 51 51
51 51 51
51 51 51
51 51 51
51 51 51
51 51 51
51 51 51
51 51 51
51 51 51
51 51 51
51 51 51
51 51 51
51 51 51
51 51 51
51 51 51
51 51 51
51 51 51
51 51 51
51 51 51
51 51 51
51 51 51
51 51 51
51 51 51
51 51 51
51 51 51
51 51 51
51 51 51
51 51 51
51 51 51
51 51 51
51 51 51
51 51 51
51 51 51
51 51 51
51 51 51
51 51 51
51 51 51
46 46 46
46 46 46
46 46 46
46 46 46
46 46 46
46 46 46
46 46 46
46 46 46
46 46 46
46 46 46
46 46 46
46 46 46
46 46 46
46 46 46
46 46 46
46 46 46
46 46 46
46 46 46
46 46 46
46 46 46
46 46 46
46 46 46
46 46 46
46 46 46
46 46 46
46 46 46
46 46 46
46 46 46
46 46 46
46 46 46
46 46 46
46 46 46
46 46 46
46 46 46
46 46 46
46 46 46
46 46 46
46 46 46
46 46 46
46 46 46
46 46 46
46 46 46
51 51 51
51 51 51
51 51 51
51 51 51
51 51 51
51 51 51
51 51 51
51 51 51
51 51 51
51 51 51
51 51 51
51 51 51
51 51 51
51 51 51
51 51 51
51 51 51
51 51 51
51 51 51
51 51 51
51 51 51
51 51 51
51 51 51
51 51 51
51 51 51
51 51 51
51 51 51
51 51 51
51 51 51
51 51 51
51 51 51
0 0 121
0 0 122
0 0 123
51 51 51
51 51 51
51 51 51
51 51 51
51 51 51
51 51 51
51 51 51
51 51 51
51 51 51
51 51 51
51 51 51
51 51 51
51 51 51
51 51 51
51 51 51
51 51 51
51 51 51
51 51 51
51 51 51
51 51 51
51 51 51
51 51 51
51 51 51
51 51 51
51 51 51
51 51 51
51 51 51
51 51 51
51 51 51
51 51 51
51 51 51
51 51 51
51 51 51
51 51 51
51 51 51
51 51 51
51 51 51
51 51 51
51 51 51
51 51 51
51 51 51
51 51 51
51 51 51
51 51 51
51 51 51
51 51 51
51 51 51
51 51 51
51 51 51
51 51 51
51 51 51
51 51 51
51 51 51
51 51 51
51 51 51
51 51 51
51 51 51
51 51 51
51 51 51
51 51 51
138 0 0
138 0 0
138 0 0
137 0 0
137 0 0
137 0 0
136 0 0
136 0 0
136 0 0
135 0 0
135 0 0
135 0 0
134 0 0
134 0 0
51 51 51
51 51 51
51 51 51
51 51 51
51 51 51
51 51 51
51 51 51
51 51 51
51 51 51
51 51 51
51 51 51
51 51 51
51 51 51
51 51 51
51 51 51
51 51 51
51 51 51
51 51 51
51 51 51
51 51 51
51 51 51
51 51 51
51 51 51
51 51 51
51 51 51
51 51 51
51 51 51
51 51 51
51 51 51
51 51 51
51 51 51
51 51 51
51 51 51
51 51 51
51 51 51
51 51 51
51 51 51
51 51 51
51 51 51
51 51 51
51 51 51
51 51 51
51 51 51
51 51 51
51 51 51
51 51 51
51 51 51
51 51 51
51 51 51
51 51 51
51 51 51
51 51 51
46 46 46
46 46 46
46 46 46
46 46 46
46 46 46
46 46 46
46 46 46
46 46 46
46 46 46
46 46 46
46 46 46
46 46 46
46 46 46
46 46 46
46 46 46
46 46 46
46 46 46
46 46 46
46 46 46
46 46 46
46 46 46
46 46 46
46 46 46
46 46 46
46 46 46
46 46 46
46 46 46
46 46 46
46 46 46
46 46 46
46 46 46
46 46 46
46 46 46
46 46 46
46 46 46
46 46 46
46 46 46
46 46 46
46 46 46
46 46 46
51 51 51
51 51 51
51 51 51
51 51 51
51 51 51
51 51 51
51 51 51
51 51 51
51 51 51
51 51 51
51 51 51
51 51 51
51 51 51
51 51 51
51 51 51
51 51 51
51 51 51
51 51 51
51 51 51
51 51 51
51 51 51
51 51 51
51 51 51
51 51 51
51 51 51
51 51 51
51 51 51
51 51 51
51 51 51
51 51 51
0 0 121
0 0 122
0 0 123
51 51 51
51 51 51
51 51 51
51 51 51
51 51 51
51 51 51
51 51 51
51 51 51
51 51 51
51 51 51
51 51 51
51 51 51
51 51 51
51 51 51
51 51 51
51 51 51
51 51 51
51 51 51
51 51 51
51 51 51
51 51 51
51 51 51
51 51 51
51 51 51
51 51 51
51 51 51
51 51 51
51 51 51
51 51 51
51 51 51
51 51 51
51 51 51
51 51 51
51 51 51
51 51 51
51 51 51
51 51 51
51 51 51
51 51 51
51 51 51
51 51 51
51 51 51
51 51 51
51 51 51
51 51 51
51 51 51
51 51 51
51 51 51
51 51 51
51 51 51
51 51 51
51 51 51
51 51 51
51 51 51
51 51 51
51 51 51
51 51 51
51 51 51
51 51 51
51 51 51
51 51 51
138 0 0
138 0 0
138 0 0
137 0 0
137 0 0
137 0 0
136 0 0
136 0 0
136 0 0
136 0 0
135 0 0
135 0 0
135 0 0
134 0 0
134 0 0
51 51 51
51 51 51
51 51 51
51 51 51
51 51 51
51 51 51
51 51 51
51 51 51
51 51 51
51 51 51
51 51 51
51 51 51
51 51 51
51 51 51
51 51 51
51 51 51
51 51 51
51 51 51
51 51 51
51 51 51
51 51 51
51 51 51
51 51 51
51 51 51
51 51 51
51 51 51
51 51 51
51 51 51
51 51 51
51 51 51
51 51 51
51 51 51
51 51 51
51 51 51
51 51 51
51 51 51
51 51 51
51 51 51
51 51 51
51 51 51
51 51 51
51 51 51
51 51 51
51 51 51
51 51 51
51 51 51
51 51 51
51 51 51
51 51 51
51 51 51
51 51 51
46 46 46
46 46 46
46 46 46
46 46 46
46 46 46
46 46 46
46 46 46
46 46 46
46 46 46
46 46 46
46 46 46
46 46 46
46 46 46
46 46 46
46 46 46
46 46 46
46 46 46
46 46 46
46 46 46
46 46 46
46 46 46
46 46 46
46 46 46
46 46 46
46 46 46
46 46 46
46 46 46
46 46 46
46 46 46
46 46 46
46 46 46
46 46 46
46 46 46
46 46 46
46 46 46
46 46 46
46 46 46
46 46 46
46 46 46
46 46 46
51 51 51
51 51 51
51 51 51
51 51 51
51 51 51
51 51 51
51 51 51
51 51 51
51 51 51
51 51 51
51 51 51
51 51 51
51 51 51
51 51 51
51 51 51
51 51 51
51 51 51
51 51 51
51 51 51
51 51 51
51 51 51
51 51 51
51 51 51
51 51 51
51 51 51
51 51 51
51 51 51
51 51 51
51 51 51
0 0 121
0 0 122
0 0 122
0 0 123
51 51 51
51 51 51
51 51 51
51 51 51
51 51 51
51 51 51
51 51 51
51 51 51
51 51 51
51 51 51
51 51 51
51 51 51
51 51 51
51 51 51
51 51 51
51 51 51
51 51 51
51 51 51
51 51 51
51 51 51
51 51 51
51 51 51
51 51 51
51 51 51
51 51 51
51 51 51
51 51 51
51 51 51
51 51 51
51 51 51
51 51 51
51 51 51
51 51 51
51 51 51
51 51 51
51 51 51
51 51 51
51 51 51
51 51 51
51 51 51
51 51 51
51 51 51
51 51 51
51 51 51
51 51 51
51 51 51
51 51 51
51 51 51
51 51 51
51 51 51
51 51 51
51 51 51
51 51 51
51 51 51
51 51 51
51 51 51
51 51 51
51 51 51
51 51 51
51 51 51
51 51 51
51 51 51
138 0 0
138 0 0
137 0 0
137 0 0
137 0 0
137 0 0
136 0 0
136 0 0
136 0 0
135 0 0
135 0 0
135 0 0
134 0 0
134 0 0
134 0 0
133 0 0
51 51 51
51 51 51
51 51 51
51 51 51
51 51 51
51 51 51
51 51 51
51 51 51
51 51 51
51 51 51
51 51 51
51 51 51
51 51 51
51 51 51
51 51 51
51 51 51
51 51 51
51 51 51
51 51 51
51 51 51
51 51 51
51 51 51
51 51 51
51 51 51
51 51 51
51 51 51
51 51 51
51 51 51
51 51 51
51 51 51
51 51 51
51 51 51
51 51 51
51 51 51
51 51 51
51 51 51
51 51 51
51 51 51
51 51 51
51 51 51
51 51 51
51 51 51
51 51 51
51 51 51
51 51 51
51 51 51
51 51 51
51 51 51
51 51 51
51 51 51
46 46 46
46 46 46
46 46 46
46 46 46
46 46 46
46 46 46
46 46 46
46 46 46
46 46 46
46 46 46
46 46 46
46 46 46
46 46 46
46 46 46
46 46 46
46 46 46
46 46 46
46 46 46
46 46 46
46 46 46
46 46 46
46 46 46
46 46 46
46 46 46
46 46 46
46 46 46
46 46 46
46 46 46
46 46 46
46 46 46
46 46 46
46 46 46
46 46 46
46 46 46
46 46 46
46 46 46
46 46 46
46 46 46
51 51 51
51 51 51
51 51 51
51 51 51
51 51 51
51 51 51
51 51 51
51 51 51
51 51 51
51 51 51
51 51 51
51 51 51
51 51 51
51 51 51
51 51 51
51 51 51
51 51 51
51 51 51
51 51 51
51 51 51
51 51 51
51 51 51
51 51 51
51 51 51
51 51 51
51 51 51
51 51 51
51 51 51
51 51 51
51 51 51
0 0 121
0 0 122
0 0 123
0 0 124
51 51 51
51 51 51
51 51 51
51 51 51
51 51 51
51 51 51
51 51 51
51 51 51
51 51 51
51 51 51
51 51 51
51 51 51
51 51 51
51 51 51
51 51 51
51 51 51
51 51 51
51 51 51
51 51 51
51 51 51
51 51 51
51 51 51
51 51 51
51 51 51
51 51 51
51 51 51
51 51 51
51 51 51
51 51 51
51 51 51
51 51 51
51 51 51
51 51 51
51 51 51
51 51 51
51 51 51
51 51 51
51 51 51
51 51 51
51 51 51
51 51 51
51 51 51
51 51 51
51 51 51
51 51 51
51 51 51
51 51 51
51 51 51
51 51 51
51 51 51
51 51 51
51 51 51
51 51 51
51 51 51
51 51 51
51 51 51
51 51 51
51 51 51
51 51 51
51 51 51
51 51 51
51 51 51
138 0 0
138 0 0
138 0 0
137 0 0
137 0 0
137 0 0
136 0 0
136 0 0
136 0 0
135 0 0
135 0 0
135 0 0
134 0 0
134 0 0
134 0 0
133 0 0
133 0 0
51 51 51
51 51 51
51 51 51
51 51 51
51 51 51
51 51 51
51 51 51
51 51 51
51 51 51
51 51 51
51 51 51
51 51 51
51 51 51
51 51 51
51 51 51
51 51 51
51 51 51
51 51 51
51 51 51
51 51 51
51 51 51
51 51 51
51 51 51
51 51 51
51 51 51
51 51 51
51 51 51
51 51 51
51 51 51
51 51 51
51 51 51
51 51 51
51 51 51
51 51 51
51 51 51
51 51 51
51 51 51
51 51 51
51 51 51
51 51 51
51 51 51
51 51 51
51 51 51
51 51 51
51 51 51
51 51 51
51 51 51
51 51 51
51 51 51
51 51 51
46 46 46
46 46 46
46 46 46
46 46 46
46 46 46
46 46 46
46 46 46
46 46 46
46 46 46
46 46 46
46 46 46
46 46 46
46 46 46
46 46 46
46 46 46
46 46 46
46 46 46
46 46 46
46 46 46
46 46 46
46 46 46
46 46 46
46 46 46
46 46 46
46 46 46
46 46 46
46 46 46
46 46 46
46 46 46
46 46 46
46 46 46
46 46 46
46 46 46
46 46 46
46 46 46
46 46 46
51 51 51
51 51 51
51 51 51
51 51 51
51 51 51
51 51 51
51 51 51
51 51 51
51 51 51
51 51 51
51 51 51
51 51 51
51 51 51
51 51 51
51 51 51
51 51 51
51 51 51
51 51 51
51 51 51
51 51 51
51 51 51
51 51 51
51 51 51
51 51 51
51 51 51
51 51 51
51 51 51
51 51 51
51 51 51
51 51 51
0 0 121
0 0 122
0 0 123
0 0 124
51 51 51
51 51 51
51 51 51
51 51 51
51 51 51
51 51 51
51 51 51
51 51 51
51 51 51
51 51 51
51 51 51
51 51 51
51 51 51
51 51 51
51 51 51
51 51 51
51 51 51
51 51 51
51 51 51
51 51 51
51 51 51
51 51 51
51 51 51
51 51 51
51 51 51
51 51 51
51 51 51
51 51 51
51 51 51
51 51 51
51 51 51
51 51 51
51 51 51
51 51 51
51 51 51
51 51 51
51 51 51
51 51 51
51 51 51
51 51 51
51 51 51
51 51 51
51 51 51
51 51 51
51 51 51
51 51 51
51 51 51
51 51 51
51 51 51
51 51 51
51 51 51
51 51 51
51 51 51
51 51 51
51 51 51
51 51 51
51 51 51
51 51 51
51 51 51
51 51 51
51 51 51
51 51 51
51 51 51
51 51 51
138 0 0
138 0 0
137 0 0
137 0 0
137 0 0
136 0 0
136 0 0
136 0 0
136 0 0
135 0 0
135 0 0
135 0 0
134 0 0
134 0 0
134 0 0
133 0 0
133 0 0
51 51 51
51 51 51
51 51 51
51 51 51
51 51 51
51 51 51
51 51 51
51 51 51
51 51 51
51 51 51
51 51 51
51 51 51
51 51 51
51 51 51
51 51 51
51 51 51
51 51 51
51 51 51
51 51 51
51 51 51
51 51 51
51 51 51
51 51 51
51 51 51
51 51 51
51 51 51
51 51 51
51 51 51
51 51 51
51 51 51
51 51 51
51 51 51
51 51 51
51 51 51
51 51 51
51 51 51
51 51 51
51 51 51
51 51 51
51 51 51
51 51 51
51 51 51
51 51 51
51 51 51
51 51 51
51 51 51
51 51 51
51 51 51
51 51 51
51 51 51
46 46 46
46 46 46
46 46 46
46 46 46
46 46 46
46 46 46
46 46 46
46 46 46
46 46 46
46 46 46
46 46 46
46 46 46
46 46 46
46 46 46
46 46 46
46 46 46
46 46 46
46 46 46
46 46 46
46 46 46
46 46 46
46 46 46
46 46 46
46 46 46
46 46 46
46 46 46
46 46 46
46 46 46
46 46 46
46 46 46
46 46 46
46 46 46
46 46 46
46 46 46
51 51 51
51 51 51
51 51 51
51 51 51
51 51 51
51 51 51
51 51 51
51 51 51
51 51 51
51 51 51
51 51 51
51 51 51
51 51 51
51 51 51
51 51 51
51 51 51
51 51 51
51 51 51
51 51 51
51 51 51
51 51 51
51 51 51
51 51 51
51 51 51
51 51 51
51 51 51
51 51 51
51 51 51
51 51 51
51 51 51
0 0 121
0 0 122
0 0 122
0 0 123
0 0 124
51 51 51
51 51 51
51 51 51
51 51 51
51 51 51
51 51 51
51 51 51
51 51 51
51 51 51
51 51 51
51 51 51
51 51 51
51 51 51
51 51 51
51 51 51
51 51 51
51 51 51
51 51 51
51 51 51
51 51 51
51 51 51
51 51 51
51 51 51
51 51 51
51 51 51
51 51 51
51 51 51
51 51 51
51 51 51
51 51 51
51 51 51
51 51 51
51 51 51
51 51 51
51 51 51
51 51 51
51 51 51
51 51 51
51 51 51
51 51 51
51 51 51
51 51 51
51 51 51
51 51 51
51 51 51
51 51 51
51 51 51
51 51 51
51 51 51
51 51 51
51 51 51
51 51 51
51 51 51
51 51 51
51 51 51
51 51 51
51 51 51
51 51 51
51 51 51
51 51 51
51 51 51
51 51 51
51 51 51
51 51 51
138 0 0
138 0 0
137 0 0
137 0 0
137 0 0
137 0 0
136 0 0
136 0 0
136 0 0
135 0 0
135 0 0
135 0 0
134 0 0
134 0 0
134 0 0
133 0 0
133 0 0
133 0 0
51 51 51
51 51 51
51 51 51
51 51 51
51 51 51
51 51 51
51 51 51
51 51 51
51 51 51
51 51 51
51 51 51
51 51 51
51 51 51
51 51 51
51 51 51
51 51 51
51 51 51
51 51 51
51 51 51
51 51 51
51 51 51
51 51 51
51 51 51
51 51 51
51 51 51
51 51 51
51 51 51
51 51 51
51 51 51
51 51 51
51 51 51
51 51 51
51 51 51
51 51 51
51 51 51
51 51 51
51 51 51
51 51 51
51 51 51
51 51 51
51 51 51
51 51 51
51 51 51
51 51 51
51 51 51
51 51 51
51 51 51
51 51 51
51 51 51
51 51 51
46 46 46
46 46 46
46 46 46
46 46 46
46 46 46
46 46 46
46 46 46
46 46 46
46 46 46
46 46 46
46 46 46
46 46 46
46 46 46
46 46 46
46 46 46
46 46 46
46 46 46
46 46 46
46 46 46
46 46 46
46 46 46
46 46 46
46 46 46
46 46 46
46 46 46
46 46 46
46 46 46
46 46 46
46 46 46
46 46 46
46 46 46
46 46 46
51 51 51
51 51 51
51 51 51
51 51 51
51 51 51
51 51 51
51 51 51
51 51 51
51 51 51
51 51 51
51 51 51
51 51 51
51 51 51
51 51 51
51 51 51
51 51 51
51 51 51
51 51 51
51 51 51
51 51 51
51 51 51
51 51 51
51 51 51
51 51 51
51 51 51
51 51 51
51 51 51
51 51 51
51 51 51
51 51 51
0 0 121
0 0 121
0 0 122
0 0 123
0 0 124
0 0 124
51 51 51
51 51 51
51 51 51
51 51 51
51 51 51
51 51 51
51 51 51
51 51 51
51 51 51
51 51 51
51 51 51
51 51 51
51 51 51
51 51 51
51 51 51
51 51 51
51 51 51
51 51 51
51 51 51
51 51 51
51 51 51
51 51 51
51 51 51
51 51 51
51 51 51
51 51 51
51 51 51
51 51 51
51 51 51
51 51 51
51 51 51
51 51 51
51 51 51
51 51 51
51 51 51
51 51 51
51 51 51
51 51 51
51 51 51
51 51 51
51 51 51
51 51 51
51 51 51
51 51 51
51 51 51
51 51 51
51 51 51
51 51 51
51 51 51
51 51 51
51 51 51
51 51 51
51 51 51
51 51 51
51 51 51
51 51 51
51 51 51
51 51 51
51 51 51
51 51 51
51 51 51
51 51 51
51 51 51
51 51 51
51 51 51
138 0 0
137 0 0
137 0 0
137 0 0
137 0 0
136 0 0
136 0 0
136 0 0
136 0 0
135 0 0
135 0 0
135 0 0
134 0 0
134 0 0
133 0 0
133 0 0
133 0 0
132 0 0
51 51 51
51 51 51
51 51 51
51 51 51
51 51 51
51 51 51
51 51 51
51 51 51
51 51 51
51 51 51
51 51 51
51 51 51
51 51 51
51 51 51
51 51 51
51 51 51
51 51 51
51 51 51
51 51 51
51 51 51
51 51 51
51 51 51
51 51 51
51 51 51
51 51 51
51 51 51
51 51 51
51 51 51
51 51 51
51 51 51
51 51 51
51 51 51
51 51 51
51 51 51
51 51 51
51 51 51
51 51 51
51 51 51
51 51 51
51 51 51
51 51 51
51 51 51
51 51 51
51 51 51
51 51 51
51 51 51
51 51 51
51 51 51
51 51 51
51 51 51
51 51 51
46 46 46
46 46 46
46 46 46
46 46 46
46 46 46
46 46 46
46 46 46
46 46 46
46 46 46
46 46 46
46 46 46
46 46 46
46 46 46
46 46 46
46 46 46
46 46 46
46 46 46
46 46 46
46 46 46
46 46 46
46 46 46
46 46 46
46 46 46
46 46 46
46 46 46
46 46 46
46 46 46
46 46 46
51 51 51
51 51 51
51 51 51
51 51 51
51 51 51
51 51 51
51 51 51
51 51 51
51 51 51
51 51 51
51 51 51
51 51 51
51 51 51
51 51 51
51 51 51
51 51 51
51 51 51
51 51 51
51 51 51
51 51 51
51 51 51
51 51 51
51 51 51
51 51 51
51 51 51
51 51 51
51 51 51
51 51 51
51 51 51
51 51 51
51 51 51
0 0 120
0 0 121
0 0 122
0 0 123
0 0 124
0 0 124
51 51 51
51 51 51
51 51 51
51 51 51
51 51 51
51 51 51
51 51 51
51 51 51
51 51 51
51 51 51
51 51 51
51 51 51
51 51 51
51 51 51
51 51 51
51 51 51
51 51 51
51 51 51
51 51 51
51 51 51
51 51 51
51 51 51
51 51 51
51 51 51
51 51 51
51 51 51
51 51 51
51 51 51
51 51 51
51 51 51
51 51 51
51 51 51
51 51 51
51 51 51
51 51 51
51 51 51
51 51 51
51 51 51
51 51 51
51 51 51
51 51 51
51 51 51
51 51 51
51 51 51
51 51 51
51 51 51
51 51 51
51 51 51
51 51 51
51 51 51
51 51 51
51 51 51
51 51 51
51 51 51
51 51 51
51 51 51
51 51 51
51 51 51
51 51 51
51 51 51
51 51 51
51 51 51
51 51 51
51 51 51
51 51 51
51 51 51
138 0 0
138 0 0
137 0 0
137 0 0
137 0 0
136 0 0
136 0 0
136 0 0
136 0 0
135 0 0
135 0 0
135 0 0
134 0 0
134 0 0
134 0 0
133 0 0
133 0 0
133 0 0
132 0 0
51 51 51
51 51 51
51 51 51
51 51 51
51 51 51
51 51 51
51 51 51
51 51 51
51 51 51
51 51 51
51 51 51
51 51 51
51 51 51
51 51 51
51 51 51
51 51 51
51 51 51
51 51 51
51 51 51
51 51 51
51 51 51
51 51 51
51 51 51
51 51 51
51 51 51
51 51 51
51 51 51
51 51 51
51 51 51
51 51 51
51 51 51
51 51 51
51 51 51
51 51 51
51 51 51
51 51 51
51 51 51
51 51 51
51 51 51
51 51 51
51 51 51
51 51 51
51 51 51
51 51 51
51 51 51
51 51 51
51 51 51
51 51 51
51 51 51
51 51 51
51 51 51
46 46 46
46 46 46
46 46 46
46 46 46
46 46 46
46 46 46
46 46 46
46 46 46
46 46 46
46 46 46
46 46 46
46 46 46
46 46 46
46 46 46
46 46 46
46 46 46
46 46 46
46 46 46
46 46 46
46 46 46
46 46 46
46 46 46
46 46 46
46 46 46
46 46 46
46 46 46
51 51 51
51 51 51
51 51 51
51 51 51
51 51 51
51 51 51
51 51 51
51 51 51
51 51 51
51 51 51
51 51 51
51 51 51
51 51 51
51 51 51
51 51 51
51 51 51
51 51 51
51 51 51
51 51 51
51 51 51
51 51 51
51 51 51
51 51 51
51 51 51
51 51 51
51 51 51
51 51 51
51 51 51
51 51 51
51 51 51
51 51 51
0 0 120
0 0 121
0 0 122
0 0 122
0 0 123
0 0 124
0 0 125
51 51 51
51 51 51
51 51 51
51 51 51
51 51 51
51 51 51
51 51 51
51 51 51
51 51 51
51 51 51
51 51 51
51 51 51
51 51 51
51 51 51
51 51 51
51 51 51
51 51 51
51 51 51
51 51 51
51 51 51
51 51 51
51 51 51
51 51 51
51 51 51
51 51 51
51 51 51
51 51 51
51 51 51
51 51 51
51 51 51
51 51 51
51 51 51
51 51 51
51 51 51
51 51 51
51 51 51
51 51 51
51 51 51
51 51 51
51 51 51
51 51 51
51 51 51
51 51 51
51 51 51
51 51 51
51 51 51
51 51 51
51 51 51
51 51 51
51 51 51
51 51 51
51 51 51
51 51 51
51 51 51
51 51 51
51 51 51
51 51 51
51 51 51
51 51 51
51 51 51
51 51 51
51 51 51
51 51 51
51 51 51
51 51 51
51 51 51
51 51 51
138 0 0
137 0 0
137 0 0
137 0 0
137 0 0
136 0 0
136 0 0
136 0 0
135 0 0
135 0 0
135 0 0
134 0 0
134 0 0
134 0 0
133 0 0
133 0 0
133 0 0
132 0 0
132 0 0
131 0 0
51 51 51
51 51 51
51 51 51
51 51 51
51 51 51
51 51 51
51 51 51
51 51 51
51 51 51
51 51 51
51 51 51
51 51 51
51 51 51
51 51 51
51 51 51
51 51 51
51 51 51
51 51 51
51 51 51
51 51 51
51 51 51
51 51 51
51 51 51
51 51 51
51 51 51
51 51 51
51 51 51
51 51 51
51 51 51
51 51 51
51 51 51
51 51 51
51 51 51
51 51 51
51 51 51
51 51 51
51 51 51
51 51 51
51 51 51
51 51 51
51 51 51
51 51 51
51 51 51
51 51 51
51 51 51
51 51 51
51 51 51
51 51 51
51 51 51
51 51 51
51 51 51
46 46 46
46 46 46
46 46 46
46 46 46
46 46 46
46 46 46
46 46 46
46 46 46
46 46 46
46 46 46
46 46 46
46 46 46
46 46 46
46 46 46
46 46 46
46 46 46
46 46 46
46 46 46
46 46 46
46 46 46
46 46 46
46 46 46
51 51 51
51 51 51
51 51 51
51 51 51
51 51 51
51 51 51
51 51 51
51 51 51
51 51 51
51 51 51
51 51 51
51 51 51
51 51 51
51 51 51
51 51 51
51 51 51
51 51 51
51 51 51
51 51 51
51 51 51
51 51 51
51 51 51
51 51 51
51 51 51
51 51 51
51 51 51
51 51 51
51 51 51
51 51 51
51 51 51
51 51 51
51 51 51
51 51 51
0 0 121
0 0 121
0 0 122
0 0 123
0 0 124
0 0 124
0 0 125
51 51 51
51 51 51
51 51 51
51 51 51
51 51 51
51 51 51
51 51 51
51 51 51
51 51 51
51 51 51
51 51 51
51 51 51
51 51 51
51 51 51
51 51 51
51 51 51
51 51 51
51 51 51
51 51 51
51 51 51
51 51 51
51 51 51
51 51 51
51 51 51
51 51 51
51 51 51
51 51 51
51 51 51
51 51 51
51 51 51
51 51 51
51 51 51
51 51 51
51 51 51
51 51 51
51 51 51
51 51 51
51 51 51
51 51 51
51 51 51
51 51 51
51 51 51
51 51 51
51 51 51
51 51 51
51 51 51
51 51 51
51 51 51
51 51 51
51 51 51
51 51 51
51 51 51
51 51 51
51 51 51
51 51 51
51 51 51
51 51 51
51 51 51
51 51 51
51 51 51
51 51 51
51 51 51
51 51 51
51 51 51
51 51 51
51 51 51
51 51 51
51 51 51
137 0 0
137 0 0
137 0 0
137 0 0
136 0 0
136 0 0
136 0 0
136 0 0
135 0 0
135 0 0
135 0 0
134 0 0
134 0 0
134 0 0
133 0 0
133 0 0
132 0 0
132 0 0
132 0 0
131 0 0
51 51 51
51 51 51
51 51 51
51 51 51
51 51 51
51 51 51
51 51 51
51 51 51
51 51 51
51 51 51
51 51 51
51 51 51
51 51 51
51 51 51
51 51 51
51 51 51
51 51 51
51 51 51
51 51 51
51 51 51
51 51 51
51 51 51
51 51 51
51 51 51
51 51 51
51 51 51
51 51 51
51 51 51
51 51 51
51 51 51
51 51 51
51 51 51
51 51 51
51 51 51
51 51 51
51 51 51
51 51 51
51 51 51
51 51 51
51 51 51
51 51 51
51 51 51
51 51 51
51 51 51
51 51 51
51 51 51
51 51 51
51 51 51
51 51 51
51 51 51
51 51 51
51 51 51
46 46 46
46 46 46
46 46 46
46 46 46
46 46 46
46 46 46
46 46 46
46 46 46
46 46 46
46 46 46
46 46 46
46 46 46
46 46 46
46 46 46
46 46 46
46 46 46
46 46 46
46 46 46
51 51 51
51 51 51
51 51 51
51 51 51
51 51 51
51 51 51
51 51 51
51 51 51
51 51 51
51 51 51
51 51 51
51 51 51
51 51 51
51 51 51
51 51 51
51 51 51
51 51 51
51 51 51
51 51 51
51 51 51
51 51 51
51 51 51
51 51 51
51 51 51
51 51 51
51 51 51
51 51 51
51 51 51
51 51 51
51 51 51
51 51 51
51 51 51
51 51 51
51 51 51
0 0 120
0 0 121
0 0 122
0 0 123
0 0 123
0 0 124
0 0 125
51 51 51
51 51 51
51 51 51
51 51 51
51 51 51
51 51 51
51 51 51
51 51 51
51 51 51
51 51 51
51 51 51
51 51 51
51 51 51
51 51 51
51 51 51
51 51 51
51 51 51
51 51 51
51 51 51
51 51 51
51 51 51
51 51 51
51 51 51
51 51 51
51 51 51
51 51 51
51 51 51
51 51 51
51 51 51
51 51 51
51 51 51
51 51 51
51 51 51
51 51 51
51 51 51
51 51 51
51 51 51
51 51 51
51 51 51
51 51 51
51 51 51
51 51 51
51 51 51
51 51 51
51 51 51
51 51 51
51 51 51
51 51 51
51 51 51
51 51 51
51 51 51
51 51 51
51 51 51
51 51 51
51 51 51
51 51 51
51 51 51
51 51 51
51 51 51
51 51 51
51 51 51
51 51 51
51 51 51
51 51 51
51 51 51
51 51 51
51 51 51
51 51 51
51 51 51
138 0 0
137 0 0
137 0 0
137 0 0
136 0 0
136 0 0
136 0 0
136 0 0
135 0 0
135 0 0
135 0 0
134 0 0
134 0 0
134 0 0
133 0 0
133 0 0
133 0 0
132 0 0
132 0 0
131 0 0
131 0 0
51 51 51
51 51 51
51 51 51
51 51 51
51 51 51
51 51 51
51 51 51
51 51 51
51 51 51
51 51 51
51 51 51
51 51 51
51 51 51
51 51 51
51 51 51
51 51 51
51 51 51
51 51 51
51 51 51
51 51 51
51 51 51
51 51 51
51 51 51
51 51 51
51 51 51
51 51 51
51 51 51
51 51 51
51 51 51
51 51 51
51 51 51
51 51 51
51 51 51
51 51 51
51 51 51
51 51 51
51 51 51
51 51 51
51 51 51
51 51 51
51 51 51
51 51 51
51 51 51
51 51 51
51 51 51
51 51 51
51 51 51
51 51 51
51 51 51
51 51 51
51 51 51
51 51 51
51 51 51
51 51 51
51 51 51
46 46 46
46 46 46
46 46 46
46 46 46
46 46 46
46 46 46
46 46 46
46 46 46
46 46 46
46 46 46
51 51 51
51 51 51
51 51 51
51 51 51
51 51 51
51 51 51
51 51 51
51 51 51
51 51 51
51 51 51
51 51 51
51 51 51
51 51 51
51 51 51
51 51 51
51 51 51
51 51 51
51 51 51
51 51 51
51 51 51
51 51 51
51 51 51
51 51 51
51 51 51
51 51 51
51 51 51
51 51 51
51 51 51
51 51 51
51 51 51
51 51 51
51 51 51
51 51 51
51 51 51
51 51 51
51 51 51
51 51 51
0 0 120
0 0 121
0 0 122
0 0 122
0 0 123
0 0 124
0 0 125
0 0 125
51 51 51
51 51 51
51 51 51
51 51 51
51 51 51
51 51 51
51 51 51
51 51 51
51 51 51
51 51 51
51 51 51
51 51 51
51 51 51
51 51 51
51 51 51
51 51 51
51 51 51
51 51 51
51 51 51
51 51 51
51 51 51
51 51 51
51 51 51
51 51 51
51 51 51
51 51 51
51 51 51
51 51 51
51 51 51
51 51 51
51 51 51
51 51 51
51 51 51
51 51 51
51 51 51
51 51 51
51 51 51
51 51 51
51 51 51
51 51 51
51 51 51
51 51 51
51 51 51
51 51 51
51 51 51
51 51 51
51 51 51
51 51 51
51 51 51
51 51 51
51 51 51
51 51 51
51 51 51
51 51 51
51 51 51
51 51 51
51 51 51
51 51 51
51 51 51
51 51 51
51 51 51
51 51 51
51 51 51
51 51 51
51 51 51
51 51 51
51 51 51
51 51 51
51 51 51
51 51 51
137 0 0
137 0 0
137 0 0
137 0 0
136 0 0
136 0 0
136 0 0
135 0 0
135 0 0
135 0 0
135 0 0
134 0 0
134 0 0
134 0 0
133 0 0
133 0 0
132 0 0
132 0 0
132 0 0
131 0 0
131 0 0
51 51 51
51 51 51
51 51 51
51 51 51
51 51 51
51 51 51
51 51 51
51 51 51
51 51 51
51 51 51
51 51 51
51 51 51
51 51 51
51 51 51
51 51 51
51 51 51
51 51 51
51 51 51
51 51 51
51 51 51
51 51 51
51 51 51
51 51 51
51 51 51
51 51 51
51 51 51
51 51 51
51 51 51
51 51 51
51 51 51
51 51 51
51 51 51
51 51 51
51 51 51
51 51 51
51 51 51
51 51 51
51 51 51
51 51 51
51 51 51
51 51 51
51 51 51
51 51 51
51 51 51
51 51 51
51 51 51
51 51 51
51 51 51
51 51 51
51 51 51
51 51 51
51 51 51
51 51 51
51 51 51
51 51 51
51 51 51
51 51 51
51 51 51
51 51 51
51 51 51
51 51 51
51 51 51
51 51 51
51 51 51
51 51 51
51 51 51
51 51 51
51 51 51
51 51 51
51 51 51
51 51 51
51 51 51
51 51 51
51 51 51
51 51 51
51 51 51
51 51 51
51 51 51
51 51 51
51 51 51
51 51 51
51 51 51
51 51 51
51 51 51
51 51 51
51 51 51
51 51 51
51 51 51
51 51 51
51 51 51
51 51 51
51 51 51
51 51 51
51 51 51
51 51 51
51 51 51
51 51 51
51 51 51
51 51 51
51 51 51
0 0 120
0 0 121
0 0 121
0 0 122
0 0 123
0 0 124
0 0 124
0 0 125
51 51 51
51 51 51
51 51 51
51 51 51
51 51 51
51 51 51
51 51 51
51 51 51
51 51 51
51 51 51
51 51 51
51 51 51
51 51 51
51 51 51
51 51 51
51 51 51
51 51 51
51 51 51
51 51 51
51 51 51
51 51 51
51 51 51
51 51 51
51 51 51
51 51 51
51 51 51
51 51 51
51 51 51
51 51 51
51 51 51
51 51 51
51 51 51
51 51 51
51 51 51
51 51 51
51 51 51
51 51 51
51 51 51
51 51 51
51 51 51
51 51 51
51 51 51
51 51 51
51 51 51
51 51 51
51 51 51
51 51 51
51 51 51
51 51 51
51 51 51
51 51 51
51 51 51
51 51 51
51 51 51
51 51 51
51 51 51
51 51 51
51 51 51
51 51 51
51 51 51
51 51 51
51 51 51
51 51 51
51 51 51
51 51 51
51 51 51
51 51 51
51 51 51
51 51 51
51 51 51
51 51 51
137 0 0
137 0 0
137 0 0
137 0 0
136 0 0
136 0 0
136 0 0
136 0 0
135 0 0
135 0 0
135 0 0
134 0 0
134 0 0
134 0 0
133 0 0
133 0 0
133 0 0
132 0 0
132 0 0
131 0 0
131 0 0
131 0 0
51 51 51
51 51 51
51 51 51
51 51 51
51 51 51
51 51 51
51 51 51
51 51 51
51 51 51
51 51 51
51 51 51
51 51 51
51 51 51
51 51 51
51 51 51
51 51 51
51 51 51
51 51 51
51 51 51
51 51 51
51 51 51
51 51 51
51 51 51
51 51 51
51 51 51
51 51 51
51 51 51
51 51 51
51 51 51
51 51 51
51 51 51
51 51 51
51 51 51
51 51 51
51 51 51
51 51 51
51 51 51
51 51 51
51 51 51
51 51 51
51 51 51
51 51 51
51 51 51
51 51 51
51 51 51
51 51 51
51 51 51
51 51 51
51 51 51
51 51 51
51 51 51
51 51 51
51 51 51
51 51 51
51 51 51
51 51 51
51 51 51
51 51 51
51 51 51
51 51 51
51 51 51
51 51 51
51 51 51
51 51 51
51 51 51
51 51 51
51 51 51
51 51 51
51 51 51
51 51 51
51 51 51
51 51 51
51 51 51
51 51 51
51 51 51
51 51 51
51 51 51
51 51 51
51 51 51
51 51 51
51 51 51
51 51 51
51 51 51
51 51 51
51 51 51
51 51 51
51 51 51
51 51 51
51 51 51
51 51 51
51 51 51
51 51 51
51 51 51
51 51 51
51 51 51
51 51 51
51 51 51
51 51 51
0 0 119
0 0 120
0 0 121
0 0 122
0 0 123
0 0 123
0 0 124
0 0 125
0 0 125
51 51 51
51 51 51
51 51 51
51 51 51
51 51 51
51 51 51
51 51 51
51 51 51
51 51 51
51 51 51
51 51 51
51 51 51
51 51 51
51 51 51
51 51 51
51 51 51
51 51 51
51 51 51
51 51 51
51 51 51
51 51 51
51 51 51
51 51 51
51 51 51
51 51 51
51 51 51
51 51 51
51 51 51
51 51 51
51 51 51
51 51 51
51 51 51
51 51 51
51 51 51
51 51 51
51 51 51
51 51 51
51 51 51
51 51 51
51 51 51
51 51 51
51 51 51
51 51 51
51 51 51
51 51 51
51 51 51
51 51 51
51 51 51
51 51 51
51 51 51
51 51 51
51 51 51
51 51 51
51 51 51
51 51 51
51 51 51
51 51 51
51 51 51
51 51 51
51 51 51
51 51 51
51 51 51
51 51 51
51 51 51
51 51 51
51 51 51
51 51 51
51 51 51
51 51 51
51 51 51
51 51 51
51 51 51
137 0 0
137 0 0
137 0 0
136 0 0
136 0 0
136 0 0
136 0 0
135 0 0
135 0 0
135 0 0
134 0 0
134 0 0
134 0 0
133 0 0
133 0 0
133 0 0
132 0 0
132 0 0
132 0 0
131 0 0
131 0 0
130 0 0
51 51 51
51 51 51
51 51 51
51 51 51
51 51 51
51 51 51
51 51 51
51 51 51
51 51 51
51 51 51
51 51 51
51 51 51
51 51 51
51 51 51
51 51 51
51 51 51
51 51 51
51 51 51
51 51 51
51 51 51
51 51 51
51 51 51
51 51 51
51 51 51
51 51 51
51 51 51
51 51 51
51 51 51
51 51 51
51 51 51
51 51 51
51 51 51
51 51 51
51 51 51
51 51 51
51 51 51
51 51 51
51 51 51
51 51 51
51 51 51
51 51 51
51 51 51
51 51 51
51 51 51
51 51 51
51 51 51
51 51 51
51 51 51
51 51 51
51 51 51
51 51 51
51 51 51
51 51 51
51 51 51
51 51 51
51 51 51
51 51 51
51 51 51
51 51 51
51 51 51
51 51 51
51 51 51
51 51 51
51 51 51
51 51 51
51 51 51
51 51 51
51 51 51
51 51 51
51 51 51
51 51 51
51 51 51
51 51 51
51 51 51
51 51 51
51 51 51
51 51 51
51 51 51
51 51 51
51 51 51
51 51 51
51 51 51
51 51 51
51 51 51
51 51 51
51 51 51
51 51 51
51 51 51
51 51 51
51 51 51
51 51 51
51 51 51
51 51 51
51 51 51
51 51 51
51 51 51
51 51 51
0 0 120
0 0 121
0 0 122
0 0 122
0 0 123
0 0 124
0 0 124
0 0 125
0 0 126
51 51 51
51 51 51
51 51 51
51 51 51
51 51 51
51 51 51
51 51 51
51 51 51
51 51 51
51 51 51
51 51 51
51 51 51
51 51 51
51 51 51
51 51 51
51 51 51
51 51 51
51 51 51
51 51 51
51 51 51
51 51 51
51 51 51
51 51 51
51 51 51
51 51 51
51 51 51
51 51 51
51 51 51
51 51 51
51 51 51
51 51 51
51 51 51
51 51 51
51 51 51
51 51 51
51 51 51
51 51 51
51 51 51
51 51 51
51 51 51
51 51 51
51 51 51
51 51 51
51 51 51
51 51 51
51 51 51
51 51 51
51 51 51
51 51 51
51 51 51
51 51 51
51 51 51
51 51 51
51 51 51
51 51 51
51 51 51
51 51 51
51 51 51
51 51 51
51 51 51
51 51 51
51 51 51
51 51 51
51 51 51
51 51 51
51 51 51
51 51 51
51 51 51
51 51 51
51 51 51
51 51 51
51 51 51
137 0 0
137 0 0
137 0 0
137 0 0
136 0 0
136 0 0
136 0 0
135 0 0
135 0 0
135 0 0
135 0 0
134 0 0
134 0 0
134 0 0
133 0 0
133 0 0
133 0 0
132 0 0
132 0 0
131 0 0
131 0 0
131 0 0
130 0 0
51 51 51
51 51 51
51 51 51
51 51 51
51 51 51
51 51 51
51 51 51
51 51 51
51 51 51
51 51 51
51 51 51
51 51 51
51 51 51
51 51 51
51 51 51
51 51 51
51 51 51
51 51 51
51 51 51
51 51 51
51 51 51
51 51 51
51 51 51
51 51 51
51 51 51
51 51 51
51 51 51
51 51 51
51 51 51
51 51 51
51 51 51
51 51 51
51 51 51
51 51 51
51 51 51
51 51 51
51 51 51
51 51 51
51 51 51
51 51 51
51 51 51
51 51 51
51 51 51
51 51 51
51 51 51
51 51 51
51 51 51
51 51 51
51 51 51
51 51 51
51 51 51
51 51 51
51 51 51
51 51 51
51 51 51
51 51 51
51 51 51
51 51 51
51 51 51
51 51 51
51 51 51
51 51 51
51 51 51
51 51 51
51 51 51
51 51 51
51 51 51
51 51 51
51 51 51
51 51 51
51 51 51
51 51 51
51 51 51
51 51 51
51 51 51
51 51 51
51 51 51
51 51 51
51 51 51
51 51 51
51 51 51
51 51 51
51 51 51
51 51 51
51 51 51
51 51 51
51 51 51
51 51 51
51 51 51
51 51 51
51 51 51
51 51 51
51 51 51
51 51 51
51 51 51
0 0 120
0 0 121
0 0 121
0 0 122
0 0 123
0 0 124
0 0 124
0 0 125
0 0 125
51 51 51
51 51 51
51 51 51
51 51 51
51 51 51
51 51 51
51 51 51
51 51 51
51 51 51
51 51 51
51 51 51
51 51 51
51 51 51
51 51 51
51 51 51
51 51 51
51 51 51
51 51 51
51 51 51
51 51 51
51 51 51
51 51 51
51 51 51
51 51 51
51 51 51
51 51 51
51 51 51
51 51 51
51 51 51
51 51 51
51 51 51
51 51 51
51 51 51
51 51 51
51 51 51
51 51 51
51 51 51
51 51 51
51 51 51
51 51 51
51 51 51
51 51 51
51 51 51
51 51 51
51 51 51
51 51 51
51 51 51
51 51 51
51 51 51
51 51 51
51 51 51
51 51 51
51 51 51
51 51 51
51 51 51
51 51 51
51 51 51
51 51 51
51 51 51
51 51 51
51 51 51
51 51 51
51 51 51
51 51 51
51 51 51
51 51 51
51 51 51
51 51 51
51 51 51
51 51 51
51 51 51
51 51 51
51 51 51
51 51 51
137 0 0
137 0 0
137 0 0
136 0 0
136 0 0
136 0 0
136 0 0
135 0 0
135 0 0
135 0 0
134 0 0
134 0 0
134 0 0
133 0 0
133 0 0
133 0 0
132 0 0
132 0 0
132 0 0
131 0 0
131 0 0
130 0 0
130 0 0
129 0 0
51 51 51
51 51 51
51 51 51
51 51 51
51 51 51
51 51 51
51 51 51
51 51 51
51 51 51
51 51 51
51 51 51
51 51 51
51 51 51
51 51 51
51 51 51
51 51 51
51 51 51
51 51 51
51 51 51
51 51 51
51 51 51
51 51 51
51 51 51
51 51 51
51 51 51
51 51 51
51 51 51
51 51 51
51 51 51
51 51 51
51 51 51
51 51 51
51 51 51
51 51 51
51 51 51
51 51 51
51 51 51
51 51 51
51 51 51
51 51 51
51 51 51
51 51 51
51 51 51
51 51 51
51 51 51
51 51 51
51 51 51
51 51 51
51 51 51
51 51 51
51 51 51
51 51 51
51 51 51
51 51 51
51 51 51
51 51 51
51 51 51
51 51 51
51 51 51
51 51 51
51 51 51
51 51 51
51 51 51
51 51 51
51 51 51
51 51 51
51 51 51
51 51 51
51 51 51
51 51 51
51 51 51
51 51 51
51 51 51
51 51 51
51 51 51
51 51 51
51 51 51
51 51 51
51 51 51
51 51 51
51 51 51
51 51 51
51 51 51
51 51 51
51 51 51
51 51 51
51 51 51
51 51 51
51 51 51
51 51 51
51 51 51
51 51 51
0 0 119
0 0 120
0 0 121
0 0 122
0 0 123
0 0 123
0 0 124
0 0 125
0 0 125
0 0 126
51 51 51
51 51 51
51 51 51
51 51 51
51 51 51
51 51 51
51 51 51
51 51 51
51 51 51
51 51 51
51 51 51
51 51 51
51 51 51
51 51 51
51 51 51
51 51 51
51 51 51
51 51 51
51 51 51
51 51 51
51 51 51
51 51 51
51 51 51
51 51 51
51 51 51
51 51 51
51 51 51
51 51 51
51 51 51
51 51 51
51 51 51
51 51 51
51 51 51
51 51 51
51 51 51
51 51 51
51 51 51
51 51 51
51 51 51
51 51 51
51 51 51
51 51 51
51 51 51
51 51 51
51 51 51
51 51 51
51 51 51
51 51 51
51 51 51
51 51 51
51 51 51
51 51 51
51 51 51
51 51 51
51 51 51
51 51 51
51 51 51
51 51 51
51 51 51
51 51 51
51 51 51
51 51 51
51 51 51
51 51 51
51 51 51
51 51 51
51 51 51
51 51 51
51 51 51
51 51 51
51 51 51
51 51 51
51 51 51
51 51 51
51 51 51
137 0 0
137 0 0
136 0 0
136 0 0
136 0 0
136 0 0
135 0 0
135 0 0
135 0 0
134 0 0
134 0 0
134 0 0
134 0 0
133 0 0
133 0 0
132 0 0
132 0 0
132 0 0
131 0 0
131 0 0
131 0 0
130 0 0
130 0 0
129 0 0
51 51 51
51 51 51
51 51 51
51 51 51
51 51 51
51 51 51
51 51 51
51 51 51
51 51 51
51 51 51
51 51 51
51 51 51
51 51 51
51 51 51
51 51 51
51 51 51
51 51 51
51 51 51
51 51 51
51 51 51
51 51 51
51 51 51
51 51 51
51 51 51
51 51 51
51 51 51
51 51 51
51 51 51
51 51 51
51 51 51
51 51 51
51 51 51
51 51 51
51 51 51
51 51 51
51 51 51
51 51 51
51 51 51
51 51 51
51 51 51
51 51 51
51 51 51
51 51 51
51 51 51
51 51 51
51 51 51
51 51 51
51 51 51
51 51 51
51 51 51
51 51 51
51 51 51
51 51 51
51 51 51
51 51 51
51 51 51
51 51 51
51 51 51
51 51 51
51 51 51
51 51 51
51 51 51
51 51 51
51 51 51
51 51 51
51 51 51
51 51 51
51 51 51
51 51 51
51 51 51
51 51 51
51 51 51
51 51 51
51 51 51
51 51 51
51 51 51
51 51 51
51 51 51
51 51 51
51 51 51
51 51 51
51 51 51
51 51 51
51 51 51
51 51 51
51 51 51
51 51 51
51 51 51
51 51 51
51 51 51
0 0 119
0 0 120
0 0 121
0 0 122
0 0 122
0 0 123
0 0 124
0 0 124
0 0 125
0 0 126
0 0 126
51 51 51
51 51 51
51 51 51
51 51 51
51 51 51
51 51 51
51 51 51
51 51 51
51 51 51
51 51 51
51 51 51
51 51 51
51 51 51
51 51 51
51 51 51
51 51 51
51 51 51
51 51 51
51 51 51
51 51 51
51 51 51
51 51 51
51 51 51
51 51 51
51 51 51
51 51 51
51 51 51
51 51 51
51 51 51
51 51 51
51 51 51
51 51 51
51 51 51
51 51 51
51 51 51
51 51 51
51 51 51
51 51 51
51 51 51
51 51 51
51 51 51
51 51 51
51 51 51
51 51 51
51 51 51
51 51 51
51 51 51
51 51 51
51 51 51
51 51 51
51 51 51
51 51 51
51 51 51
51 51 51
51 51 51
51 51 51
51 51 51
51 51 51
51 51 51
51 51 51
51 51 51
51 51 51
51 51 51
51 51 51
51 51 51
51 51 51
51 51 51
51 51 51
51 51 51
51 51 51
51 51 51
51 51 51
51 51 51
51 51 51
51 51 51
137 0 0
137 0 0
136 0 0
136 0 0
136 0 0
136 0 0
135 0 0
135 0 0
135 0 0
135 0 0
134 0 0
134 0 0
134 0 0
133 0 0
133 0 0
133 0 0
132 0 0
132 0 0
132 0 0
131 0 0
131 0 0
130 0 0
130 0 0
129 0 0
129 0 0
51 51 51
51 51 51
51 51 51
51 51 51
51 51 51
51 51 51
51 51 51
51 51 51
51 51 51
51 51 51
51 51 51
51 51 51
51 51 51
51 51 51
51 51 51
51 51 51
51 51 51
51 51 51
51 51 51
51 51 51
51 51 51
51 51 51
51 51 51
51 51 51
51 51 51
51 51 51
51 51 51
51 51 51
51 51 51
51 51 51
51 51 51
51 51 51
51 51 51
51 51 51
51 51 51
51 51 51
51 51 51
51 51 51
51 51 51
51 51 51
51 51 51
51 51 51
51 51 51
51 51 51
51 51 51
51 51 51
51 51 51
51 51 51
51 51 51
51 51 51
51 51 51
51 51 51
51 51 51
51 51 51
51 51 51
51 51 51
51 51 51
51 51 51
51 51 51
51 51 51
51 51 51
51 51 51
51 51 51
51 51 51
51 51 51
51 51 51
51 51 51
51 51 51
51 51 51
51 51 51
51 51 51
51 51 51
51 51 51
51 51 51
51 51 51
51 51 51
51 51 51
51 51 51
51 51 51
51 51 51
51 51 51
51 51 51
51 51 51
51 51 51
51 51 51
51 51 51
51 51 51
51 51 51
0 0 119
0 0 120
0 0 121
0 0 121
0 0 122
0 0 123
0 0 123
0 0 124
0 0 125
0 0 125
0 0 126
51 51 51
51 51 51
51 51 51
51 51 51
51 51 51
51 51 51
51 51 51
51 51 51
51 51 51
51 51 51
51 51 51
51 51 51
51 51 51
51 51 51
51 51 51
51 51 51
51 51 51
51 51 51
51 51 51
51 51 51
51 51 51
51 51 51
51 51 51
51 51 51
51 51 51
51 51 51
51 51 51
51 51 51
51 51 51
51 51 51
51 51 51
51 51 51
51 51 51
51 51 51
51 51 51
51 51 51
51 51 51
51 51 51
51 51 51
51 51 51
51 51 51
51 51 51
51 51 51
51 51 51
51 51 51
51 51 51
51 51 51
51 51 51
51 51 51
51 51 51
51 51 51
51 51 51
51 51 51
51 51 51
51 51 51
51 51 51
51 51 51
51 51 51
51 51 51
51 51 51
51 51 51
51 51 51
51 51 51
51 51 51
51 51 51
51 51 51
51 51 51
51 51 51
51 51 51
51 51 51
51 51 51
51 51 51
51 51 51
51 51 51
51 51 51
51 51 51
51 51 51
137 0 0
137 0 0
136 0 0
136 0 0
136 0 0
136 0 0
135 0 0
135 0 0
135 0 0
134 0 0
134 0 0
134 0 0
133 0 0
133 0 0
133 0 0
132 0 0
132 0 0
132 0 0
131 0 0
131 0 0
131 0 0
130 0 0
130 0 0
129 0 0
129 0 0
51 51 51
51 51 51
51 51 51
51 51 51
51 51 51
51 51 51
51 51 51
51 51 51
51 51 51
51 51 51
51 51 51
51 51 51
51 51 51
51 51 51
51 51 51
51 51 51
51 51 51
51 51 51
51 51 51
51 51 51
51 51 51
51 51 51
51 51 51
51 51 51
51 51 51
51 51 51
51 51 51
51 51 51
51 51 51
51 51 51
51 51 51
51 51 51
51 51 51
51 51 51
51 51 51
51 51 51
51 51 51
51 51 51
51 51 51
51 51 51
51 51 51
51 51 51
51 51 51
51 51 51
51 51 51
51 51 51
51 51 51
51 51 51
51 51 51
51 51 51
51 51 51
51 51 51
51 51 51
51 51 51
51 51 51
51 51 51
51 51 51
51 51 51
51 51 51
51 51 51
51 51 51
51 51 51
51 51 51
51 51 51
51 51 51
51 51 51
51 51 51
51 51 51
51 51 51
51 51 51
51 51 51
51 51 51
51 51 51
51 51 51
51 51 51
51 51 51
51 51 51
51 51 51
51 51 51
51 51 51
51 51 51
51 51 51
51 51 51
51 51 51
51 51 51
51 51 51
51 51 51
0 0 119
0 0 120
0 0 121
0 0 122
0 0 122
0 0 123
0 0 124
0 0 124
0 0 125
0 0 126
0 0 126
51 51 51
51 51 51
51 51 51
51 51 51
51 51 51
51 51 51
51 51 51
51 51 51
51 51 51
51 51 51
51 51 51
51 51 51
51 51 51
51 51 51
51 51 51
51 51 51
51 51 51
51 51 51
51 51 51
51 51 51
51 51 51
51 51 51
51 51 51
51 51 51
51 51 51
51 51 51
51 51 51
51 51 51
51 51 51
51 51 51
51 51 51
51 51 51
51 51 51
51 51 51
51 51 51
51 51 51
51 51 51
51 51 51
51 51 51
51 51 51
51 51 51
51 51 51
51 51 51
51 51 51
51 51 51
51 51 51
51 51 51
51 51 51
51 51 51
51 51 51
51 51 51
51 51 51
51 51 51
51 51 51
51 51 51
51 51 51
51 51 51
51 51 51
51 51 51
51 51 51
51 51 51
51 51 51
51 51 51
51 51 51
51 51 51
51 51 51
51 51 51
51 51 51
51 51 51
51 51 51
51 51 51
51 51 51
51 51 51
51 51 51
51 51 51
51 51 51
51 51 51
137 0 0
137 0 0
136 0 0
136 0 0
136 0 0
136 0 0
135 0 0
135 0 0
135 0 0
134 0 0
134 0 0
134 0 0
134 0 0
133 0 0
133 0 0
133 0 0
132 0 0
132 0 0
131 0 0
131 0 0
131 0 0
130 0 0
130 0 0
129 0 0
129 0 0
129 0 0
51 51 51
51 51 51
51 51 51
51 51 51
51 51 51
51 51 51
51 51 51
51 51 51
51 51 51
51 51 51
51 51 51
51 51 51
51 51 51
51 51 51
51 51 51
51 51 51
51 51 51
51 51 51
51 51 51
51 51 51
51 51 51
51 51 51
51 51 51
51 51 51
51 51 51
51 51 51
51 51 51
51 51 51
51 51 51
51 51 51
51 51 51
51 51 51
51 51 51
51 51 51
51 51 51
51 51 51
51 51 51
51 51 51
51 51 51
51 51 51
51 51 51
51 51 51
51 51 51
51 51 51
51 51 51
51 51 51
51 51 51
51 51 51
51 51 51
51 51 51
51 51 51
51 51 51
51 51 51
51 51 51
51 51 51
51 51 51
51 51 51
51 51 51
51 51 51
51 51 51
51 51 51
51 51 51
51 51 51
51 51 51
51 51 51
51 51 51
51 51 51
51 51 51
51 51 51
51 51 51
51 51 51
51 51 51
51 51 51
51 51 51
51 51 51
51 51 51
51 51 51
51 51 51
51 51 51
51 51 51
51 51 51
51 51 51
51 51 51
51 51 51
51 51 51
0 0 119
0 0 120
0 0 121
0 0 121
0 0 122
0 0 123
0 0 124
0 0 124
0 0 125
0 0 125
0 0 126
0 0 126
51 51 51
51 51 51
51 51 51
51 51 51
51 51 51
51 51 51
51 51 51
51 51 51
51 51 51
51 51 51
51 51 51
51 51 51
51 51 51
51 51 51
51 51 51
51 51 51
51 51 51
51 51 51
51 51 51
51 51 51
51 51 51
51 51 51
51 51 51
51 51 51
51 51 51
51 51 51
51 51 51
51 51 51
51 51 51
51 51 51
51 51 51
51 51 51
51 51 51
51 51 51
51 51 51
51 51 51
51 51 51
51 51 51
51 51 51
51 51 51
51 51 51
51 51 51
51 51 51
51 51 51
51 51 51
51 51 51
51 51 51
51 51 51
51 51 51
51 51 51
51 51 51
51 51 51
51 51 51
51 51 51
51 51 51
51 51 51
51 51 51
51 51 51
51 51 51
51 51 51
51 51 51
51 51 51
51 51 51
51 51 51
51 51 51
51 51 51
51 51 51
51 51 51
51 51 51
51 51 51
51 51 51
51 51 51
51 51 51
51 51 51
51 51 51
51 51 51
51 51 51
51 51 51
137 0 0
136 0 0
136 0 0
136 0 0
136 0 0
135 0 0
135 0 0
135 0 0
135 0 0
134 0 0
134 0 0
134 0 0
133 0 0
133 0 0
133 0 0
132 0 0
132 0 0
132 0 0
131 0 0
131 0 0
130 0 0
130 0 0
130 0 0
129 0 0
129 0 0
128 0 0
51 51 51
51 51 51
51 51 51
51 51 51
51 51 51
51 51 51
51 51 51
51 51 51
51 51 51
51 51 51
51 51 51
51 51 51
51 51 51
51 51 51
51 51 51
51 51 51
51 51 51
51 51 51
51 51 51
51 51 51
51 51 51
51 51 51
51 51 51
51 51 51
51 51 51
51 51 51
51 51 51
51 51 51
51 51 51
51 51 51
51 51 51
51 51 51
51 51 51
51 51 51
51 51 51
51 51 51
51 51 51
51 51 51
51 51 51
51 51 51
51 51 51
51 51 51
51 51 51
51 51 51
51 51 51
51 51 51
51 51 51
51 51 51
51 51 51
51 51 51
51 51 51
51 51 51
51 51 51
51 51 51
51 51 51
51 51 51
51 51 51
51 51 51
51 51 51
51 51 51
51 51 51
51 51 51
51 51 51
51 51 51
51 51 51
51 51 51
51 51 51
51 51 51
51 51 51
51 51 51
51 51 51
51 51 51
51 51 51
51 51 51
51 51 51
51 51 51
51 51 51
51 51 51
51 51 51
51 51 51
51 51 51
51 51 51
51 51 51
0 0 119
0 0 120
0 0 120
0 0 121
0 0 122
0 0 123
0 0 123
0 0 124
0 0 125
0 0 125
0 0 126
0 0 126
51 51 51
51 51 51
51 51 51
51 51 51
51 51 51
51 51 51
51 51 51
51 51 51
51 51 51
51 51 51
51 51 51
51 51 51
51 51 51
51 51 51
51 51 51
51 51 51
51 51 51
51 51 51
51 51 51
51 51 51
51 51 51
51 51 51
51 51 51
51 51 51
51 51 51
51 51 51
51 51 51
51 51 51
51 51 51
51 51 51
51 51 51
51 51 51
51 51 51
51 51 51
51 51 51
51 51 51
51 51 51
51 51 51
51 51 51
51 51 51
51 51 51
51 51 51
51 51 51
51 51 51
51 51 51
51 51 51
51 51 51
51 51 51
51 51 51
51 51 51
51 51 51
51 51 51
51 51 51
51 51 51
51 51 51
51 51 51
51 51 51
51 51 51
51 51 51
51 51 51
51 51 51
51 51 51
51 51 51
51 51 51
51 51 51
51 51 51
51 51 51
51 51 51
51 51 51
51 51 51
51 51 51
51 51 51
51 51 51
51 51 51
51 51 51
51 51 51
51 51 51
51 51 51
51 51 51
137 0 0
136 0 0
136 0 0
136 0 0
136 0 0
135 0 0
135 0 0
135 0 0
135 0 0
134 0 0
134 0 0
134 0 0
133 0 0
133 0 0
133 0 0
132 0 0
132 0 0
132 0 0
131 0 0
131 0 0
131 0 0
130 0 0
130 0 0
129 0 0
129 0 0
129 0 0
128 0 0
128 0 0
51 51 51
51 51 51
51 51 51
51 51 51
51 51 51
51 51 51
51 51 51
51 51 51
51 51 51
51 51 51
51 51 51
51 51 51
51 51 51
51 51 51
51 51 51
51 51 51
51 51 51
51 51 51
51 51 51
51 51 51
51 51 51
51 51 51
51 51 51
51 51 51
51 51 51
51 51 51
51 51 51
51 51 51
51 51 51
51 51 51
51 51 51
51 51 51
51 51 51
51 51 51
51 51 51
51 51 51
51 51 51
51 51 51
51 51 51
51 51 51
51 51 51
51 51 51
51 51 51
51 51 51
51 51 51
51 51 51
51 51 51
51 51 51
51 51 51
51 51 51
51 51 51
51 51 51
51 51 51
51 51 51
51 51 51
51 51 51
51 51 51
51 51 51
51 51 51
51 51 51
51 51 51
51 51 51
51 51 51
51 51 51
51 51 51
51 51 51
51 51 51
51 51 51
51 51 51
51 51 51
51 51 51
51 51 51
51 51 51
51 51 51
51 51 51
51 51 51
51 51 51
51 51 51
51 51 51
51 51 51
0 0 119
0 0 119
0 0 120
0 0 121
0 0 122
0 0 122
0 0 123
0 0 124
0 0 124
0 0 125
0 0 125
0 0 126
0 0 127
51 51 51
51 51 51
51 51 51
51 51 51
51 51 51
51 51 51
51 51 51
51 51 51
51 51 51
51 51 51
51 51 51
51 51 51
51 51 51
51 51 51
51 51 51
51 51 51
51 51 51
51 51 51
51 51 51
51 51 51
51 51 51
51 51 51
51 51 51
51 51 51
51 51 51
51 51 51
51 51 51
51 51 51
51 51 51
51 51 51
51 51 51
51 51 51
51 51 51
51 51 51
51 51 51
51 51 51
51 51 51
51 51 51
51 51 51
51 51 51
51 51 51
51 51 51
51 51 51
51 51 51
51 51 51
51 51 51
51 51 51
51 51 51
51 51 51
51 51 51
51 51 51
51 51 51
51 51 51
51 51 51
51 51 51
51 51 51
51 51 51
51 51 51
51 51 51
51 51 51
51 51 51
51 51 51
51 51 51
51 51 51
51 51 51
51 51 51
51 51 51
51 51 51
51 51 51
51 51 51
51 51 51
51 51 51
51 51 51
51 51 51
51 51 51
51 51 51
51 51 51
51 51 51
51 51 51
51 51 51
137 0 0
136 0 0
136 0 0
136 0 0
136 0 0
135 0 0
135 0 0
135 0 0
134 0 0
134 0 0
134 0 0
134 0 0
133 0 0
133 0 0
133 0 0
132 0 0
132 0 0
132 0 0
131 0 0
131 0 0
130 0 0
130 0 0
130 0 0
129 0 0
129 0 0
128 0 0
128 0 0
127 0 0
51 51 51
51 51 51
51 51 51
51 51 51
51 51 51
51 51 51
51 51 51
51 51 51
51 51 51
51 51 51
51 51 51
51 51 51
51 51 51
51 51 51
51 51 51
51 51 51
51 51 51
51 51 51
51 51 51
51 51 51
51 51 51
51 51 51
51 51 51
51 51 51
51 51 51
51 51 51
51 51 51
51 51 51
51 51 51
51 51 51
51 51 51
51 51 51
51 51 51
51 51 51
51 51 51
51 51 51
51 51 51
51 51 51
51 51 51
51 51 51
51 51 51
51 51 51
51 51 51
51 51 51
51 51 51
51 51 51
51 51 51
51 51 51
51 51 51
51 51 51
51 51 51
51 51 51
51 51 51
51 51 51
51 51 51
51 51 51
51 51 51
51 51 51
51 51 51
51 51 51
51 51 51
51 51 51
51 51 51
51 51 51
51 51 51
51 51 51
51 51 51
51 51 51
51 51 51
51 51 51
51 51 51
51 51 51
51 51 51
51 51 51
51 51 51
51 51 51
51 51 51
51 51 51
0 0 118
0 0 119
0 0 120
0 0 121
0 0 121
0 0 122
0 0 123
0 0 123
0 0 124
0 0 125
0 0 125
0 0 126
0 0 126
0 0 127
51 51 51
51 51 51
51 51 51
51 51 51
51 51 51
51 51 51
51 51 51
51 51 51
51 51 51
51 51 51
51 51 51
51 51 51
51 51 51
51 51 51
51 51 51
51 51 51
51 51 51
51 51 51
51 51 51
51 51 51
51 51 51
51 51 51
51 51 51
51 51 51
51 51 51
51 51 51
51 51 51
51 51 51
51 51 51
51 51 51
51 51 51
51 51 51
51 51 51
51 51 51
51 51 51
51 51 51
51 51 51
51 51 51
51 51 51
51 51 51
51 51 51
51 51 51
51 51 51
51 51 51
51 51 51
51 51 51
51 51 51
51 51 51
51 51 51
51 51 51
51 51 51
51 51 51
51 51 51
51 51 51
51 51 51
51 51 51
51 51 51
51 51 51
51 51 51
51 51 51
51 51 51
51 51 51
51 51 51
51 51 51
51 51 51
51 51 51
51 51 51
51 51 51
51 51 51
51 51 51
51 51 51
51 51 51
51 51 51
51 51 51
51 51 51
51 51 51
51 51 51
51 51 51
51 51 51
51 51 51
137 0 0
136 0 0
136 0 0
136 0 0
136 0 0
135 0 0
135 0 0
135 0 0
135 0 0
134 0 0
134 0 0
134 0 0
133 0 0
133 0 0
133 0 0
132 0 0
132 0 0
132 0 0
131 0 0
131 0 0
131 0 0
130 0 0
130 0 0
129 0 0
129 0 0
128 0 0
128 0 0
128 0 0
127 0 0
51 51 51
51 51 51
51 51 51
51 51 51
51 51 51
51 51 51
51 51 51
51 51 51
51 51 51
51 51 51
51 51 51
51 51 51
51 51 51
51 51 51
51 51 51
51 51 51
51 51 51
51 51 51
51 51 51
51 51 51
51 51 51
51 51 51
51 51 51
51 51 51
51 51 51
51 51 51
51 51 51
51 51 51
51 51 51
51 51 51
51 51 51
51 51 51
51 51 51
51 51 51
51 51 51
51 51 51
51 51 51
51 51 51
51 51 51
51 51 51
51 51 51
51 51 51
51 51 51
51 51 51
51 51 51
51 51 51
51 51 51
51 51 51
51 51 51
51 51 51
51 51 51
51 51 51
51 51 51
51 51 51
51 51 51
51 51 51
51 51 51
51 51 51
51 51 51
51 51 51
51 51 51
51 51 51
51 51 51
51 51 51
51 51 51
51 51 51
51 51 51
51 51 51
51 51 51
51 51 51
51 51 51
51 51 51
51 51 51
51 51 51
51 51 51
51 51 51
51 51 51
0 0 119
0 0 120
0 0 120
0 0 121
0 0 122
0 0 122
0 0 123
0 0 124
0 0 124
0 0 125
0 0 125
0 0 126
0 0 127
51 51 51
51 51 51
51 51 51
51 51 51
51 51 51
51 51 51
51 51 51
51 51 51
51 51 51
51 51 51
51 51 51
51 51 51
51 51 51
51 51 51
51 51 51
51 51 51
51 51 51
51 51 51
51 51 51
51 51 51
51 51 51
51 51 51
51 51 51
51 51 51
51 51 51
51 51 51
51 51 51
51 51 51
51 51 51
51 51 51
51 51 51
51 51 51
51 51 51
51 51 51
51 51 51
51 51 51
51 51 51
51 51 51
51 51 51
51 51 51
51 51 51
51 51 51
51 51 51
51 51 51
51 51 51
51 51 51
51 51 51
51 51 51
51 51 51
51 51 51
51 51 51
51 51 51
51 51 51
51 51 51
51 51 51
51 51 51
51 51 51
51 51 51
51 51 51
51 51 51
51 51 51
51 51 51
51 51 51
51 51 51
51 51 51
51 51 51
51 51 51
51 51 51
51 51 51
51 51 51
51 51 51
51 51 51
51 51 51
51 51 51
51 51 51
51 51 51
51 51 51
51 51 51
51 51 51
51 51 51
51 51 51
51 51 51
136 0 0
136 0 0
136 0 0
136 0 0
135 0 0
135 0 0
135 0 0
135 0 0
134 0 0
134 0 0
134 0 0
133 0 0
133 0 0
133 0 0
133 0 0
132 0 0
132 0 0
132 0 0
131 0 0
131 0 0
130 0 0
130 0 0
130 0 0
129 0 0
129 0 0
128 0 0
128 0 0
127 0 0
127 0 0
51 51 51
51 51 51
51 51 51
51 51 51
51 51 51
51 51 51
51 51 51
51 51 51
51 51 51
51 51 51
51 51 51
51 51 51
51 51 51
51 51 51
51 51 51
51 51 51
51 51 51
51 51 51
51 51 51
51 51 51
51 51 51
51 51 51
51 51 51
51 51 51
51 51 51
51 51 51
51 51 51
51 51 51
51 51 51
51 51 51
51 51 51
51 51 51
51 51 51
51 51 51
51 51 51
51 51 51
51 51 51
51 51 51
51 51 51
51 51 51
51 51 51
51 51 51
51 51 51
51 51 51
51 51 51
51 51 51
51 51 51
51 51 51
51 51 51
51 51 51
51 51 51
51 51 51
51 51 51
51 51 51
51 51 51
51 51 51
51 51 51
51 51 51
51 51 51
51 51 51
51 51 51
51 51 51
51 51 51
51 51 51
51 51 51
51 51 51
51 51 51
51 51 51
51 51 51
51 51 51
51 51 51
51 51 51
51 51 51
51 51 51
51 51 51
0 0 118
0 0 119
0 0 120
0 0 121
0 0 121
0 0 122
0 0 123
0 0 123
0 0 124
0 0 125
0 0 125
0 0 126
0 0 126
0 0 127
51 51 51
51 51 51
51 51 51
51 51 51
51 51 51
51 51 51
51 51 51
51 51 51
51 51 51
51 51 51
51 51 51
51 51 51
51 51 51
51 51 51
51 51 51
51 51 51
51 51 51
51 51 51
51 51 51
51 51 51
51 51 51
51 51 51
51 51 51
51 51 51
51 51 51
51 51 51
51 51 51
51 51 51
51 51 51
51 51 51
51 51 51
51 51 51
51 51 51
51 51 51
51 51 51
51 51 51
51 51 51
51 51 51
51 51 51
51 51 51
51 51 51
51 51 51
51 51 51
51 51 51
51 51 51
51 51 51
51 51 51
51 51 51
51 51 51
51 51 51
51 51 51
51 51 51
51 51 51
51 51 51
51 51 51
51 51 51
51 51 51
51 51 51
51 51 51
51 51 51
51 51 51
51 51 51
51 51 51
51 51 51
51 51 51
51 51 51
51 51 51
51 51 51
51 51 51
51 51 51
51 51 51
51 51 51
51 51 51
51 51 51
51 51 51
51 51 51
51 51 51
51 51 51
51 51 51
51 51 51
51 51 51
51 51 51
51 51 51
136 0 0
136 0 0
136 0 0
136 0 0
135 0 0
135 0 0
135 0 0
134 0 0
134 0 0
134 0 0
134 0 0
133 0 0
133 0 0
133 0 0
132 0 0
132 0 0
132 0 0
131 0 0
131 0 0
131 0 0
130 0 0
130 0 0
129 0 0
129 0 0
128 0 0
128 0 0
128 0 0
127 0 0
127 0 0
51 51 51
51 51 51
51 51 51
51 51 51
51 51 51
51 51 51
51 51 51
51 51 51
51 51 51
51 51 51
51 51 51
51 51 51
51 51 51
51 51 51
51 51 51
51 51 51
51 51 51
51 51 51
51 51 51
51 51 51
51 51 51
51 51 51
51 51 51
51 51 51
51 51 51
51 51 51
51 51 51
51 51 51
51 51 51
51 51 51
51 51 51
51 51 51
51 51 51
51 51 51
51 51 51
51 51 51
51 51 51
51 51 51
51 51 51
51 51 51
51 51 51
51 51 51
51 51 51
51 51 51
51 51 51
51 51 51
51 51 51
51 51 51
51 51 51
51 51 51
51 51 51
51 51 51
51 51 51
51 51 51
51 51 51
51 51 51
51 51 51
51 51 51
51 51 51
51 51 51
51 51 51
51 51 51
51 51 51
51 51 51
51 51 51
51 51 51
51 51 51
51 51 51
51 51 51
51 51 51
51 51 51
51 51 51
51 51 51
0 0 118
0 0 119
0 0 120
0 0 121
0 0 121
0 0 122
0 0 123
0 0 123
0 0 124
0 0 124
0 0 125
0 0 126
0 0 126
0 0 127
0 0 127
51 51 51
51 51 51
51 51 51
51 51 51
51 51 51
51 51 51
51 51 51
51 51 51
51 51 51
51 51 51
51 51 51
51 51 51
51 51 51
51 51 51
51 51 51
51 51 51
51 51 51
51 51 51
51 51 51
51 51 51
51 51 51
51 51 51
51 51 51
51 51 51
51 51 51
51 51 51
51 51 51
51 51 51
51 51 51
51 51 51
51 51 51
51 51 51
51 51 51
51 51 51
51 51 51
51 51 51
51 51 51
51 51 51
51 51 51
51 51 51
51 51 51
51 51 51
51 51 51
51 51 51
51 51 51
51 51 51
51 51 51
51 51 51
51 51 51
51 51 51
51 51 51
51 51 51
51 51 51
51 51 51
51 51 51
51 51 51
51 51 51
51 51 51
51 51 51
51 51 51
51 51 51
51 51 51
51 51 51
51 51 51
51 51 51
51 51 51
51 51 51
51 51 51
51 51 51
51 51 51
51 51 51
51 51 51
51 51 51
51 51 51
51 51 51
51 51 51
51 51 51
51 51 51
51 51 51
51 51 51
51 51 51
51 51 51
51 51 51
136 0 0
136 0 0
136 0 0
136 0 0
135 0 0
135 0 0
135 0 0
135 0 0
134 0 0
134 0 0
134 0 0
133 0 0
133 0 0
133 0 0
132 0 0
132 0 0
132 0 0
131 0 0
131 0 0
131 0 0
130 0 0
130 0 0
130 0 0
129 0 0
129 0 0
128 0 0
128 0 0
127 0 0
127 0 0
126 0 0
51 51 51
51 51 51
51 51 51
51 51 51
51 51 51
51 51 51
51 51 51
51 51 51
51 51 51
51 51 51
51 51 51
51 51 51
51 51 51
51 51 51
51 51 51
51 51 51
51 51 51
51 51 51
51 51 51
51 51 51
51 51 51
51 51 51
51 51 51
51 51 51
51 51 51
51 51 51
51 51 51
51 51 51
51 51 51
51 51 51
51 51 51
51 51 51
51 51 51
51 51 51
51 51 51
51 51 51
51 51 51
51 51 51
51 51 51
51 51 51
51 51 51
51 51 51
51 51 51
51 51 51
51 51 51
51 51 51
51 51 51
51 51 51
51 51 51
51 51 51
51 51 51
51 51 51
51 51 51
51 51 51
51 51 51
51 51 51
51 51 51
51 51 51
51 51 51
51 51 51
51 51 51
51 51 51
51 51 51
51 51 51
51 51 51
51 51 51
51 51 51
51 51 51
51 51 51
51 51 51
51 51 51
0 0 118
0 0 119
0 0 119
0 0 120
0 0 121
0 0 122
0 0 122
0 0 123
0 0 124
0 0 124
0 0 125
0 0 125
0 0 126
0 0 126
0 0 127
51 51 51
51 51 51
51 51 51
51 51 51
51 51 51
51 51 51
51 51 51
51 51 51
51 51 51
51 51 51
51 51 51
51 51 51
51 51 51
51 51 51
51 51 51
51 51 51
51 51 51
51 51 51
51 51 51
51 51 51
51 51 51
51 51 51
51 51 51
51 51 51
51 51 51
51 51 51
51 51 51
51 51 51
51 51 51
51 51 51
51 51 51
51 51 51
51 51 51
51 51 51
51 51 51
51 51 51
51 51 51
51 51 51
51 51 51
51 51 51
51 51 51
51 51 51
51 51 51
51 51 51
51 51 51
51 51 51
51 51 51
51 51 51
51 51 51
51 51 51
51 51 51
51 51 51
51 51 51
51 51 51
51 51 51
51 51 51
51 51 51
51 51 51
51 51 51
51 51 51
51 51 51
51 51 51
51 51 51
51 51 51
51 51 51
51 51 51
51 51 51
51 51 51
51 51 51
51 51 51
51 51 51
51 51 51
51 51 51
51 51 51
51 51 51
51 51 51
51 51 51
51 51 51
51 51 51
51 51 51
51 51 51
51 51 51
51 51 51
51 51 51
51 51 51
136 0 0
136 0 0
136 0 0
135 0 0
135 0 0
135 0 0
135 0 0
134 0 0
134 0 0
134 0 0
133 0 0
133 0 0
133 0 0
133 0 0
132 0 0
132 0 0
132 0 0
131 0 0
131 0 0
130 0 0
130 0 0
130 0 0
129 0 0
129 0 0
128 0 0
128 0 0
128 0 0
127 0 0
127 0 0
126 0 0
51 51 51
51 51 51
51 51 51
51 51 51
51 51 51
51 51 51
51 51 51
51 51 51
51 51 51
51 51 51
51 51 51
51 51 51
51 51 51
51 51 51
51 51 51
51 51 51
51 51 51
51 51 51
51 51 51
51 51 51
51 51 51
51 51 51
51 51 51
51 51 51
51 51 51
51 51 51
51 51 51
51 51 51
51 51 51
51 51 51
51 51 51
51 51 51
51 51 51
51 51 51
51 51 51
51 51 51
51 51 51
51 51 51
51 51 51
51 51 51
51 51 51
51 51 51
51 51 51
51 51 51
51 51 51
51 51 51
51 51 51
51 51 51
51 51 51
51 51 51
51 51 51
51 51 51
51 51 51
51 51 51
51 51 51
51 51 51
51 51 51
51 51 51
51 51 51
51 51 51
51 51 51
51 51 51
51 51 51
51 51 51
51 51 51
51 51 51
51 51 51
51 51 51
51 51 51
0 0 118
0 0 118
0 0 119
0 0 120
0 0 121
0 0 121
0 0 122
0 0 123
0 0 123
0 0 124
0 0 124
0 0 125
0 0 126
0 0 126
0 0 127
0 0 127
51 51 51
51 51 51
51 51 51
51 51 51
51 51 51
51 51 51
51 51 51
51 51 51
51 51 51
51 51 51
51 51 51
51 51 51
51 51 51
51 51 51
51 51 51
51 51 51
51 51 51
51 51 51
51 51 51
51 51 51
51 51 51
51 51 51
51 51 51
51 51 51
51 51 51
51 51 51
51 51 51
51 51 51
51 51 51
51 51 51
51 51 51
51 51 51
51 51 51
51 51 51
51 51 51
51 51 51
51 51 51
51 51 51
51 51 51
51 51 51
51 51 51
51 51 51
51 51 51
51 51 51
51 51 51
51 51 51
51 51 51
51 51 51
51 51 51
51 51 51
51 51 51
51 51 51
51 51 51
51 51 51
51 51 51
51 51 51
51 51 51
51 51 51
51 51 51
51 51 51
51 51 51
51 51 51
51 51 51
51 51 51
51 51 51
51 51 51
51 51 51
51 51 51
51 51 51
51 51 51
51 51 51
51 51 51
51 51 51
51 51 51
51 51 51
51 51 51
51 51 51
51 51 51
51 51 51
51 51 51
51 51 51
51 51 51
51 51 51
51 51 51
51 51 51
136 0 0
136 0 0
136 0 0
135 0 0
135 0 0
135 0 0
135 0 0
134 0 0
134 0 0
134 0 0
134 0 0
133 0 0
133 0 0
133 0 0
132 0 0
132 0 0
132 0 0
131 0 0
131 0 0
131 0 0
130 0 0
130 0 0
129 0 0
129 0 0
129 0 0
128 0 0
128 0 0
127 0 0
127 0 0
126 0 0
126 0 0
125 0 0
51 51 51
51 51 51
51 51 51
51 51 51
51 51 51
51 51 51
51 51 51
51 51 51
51 51 51
51 51 51
51 51 51
51 51 51
51 51 51
51 51 51
51 51 51
51 51 51
51 51 51
51 51 51
51 51 51
51 51 51
51 51 51
51 51 51
51 51 51
51 51 51
51 51 51
51 51 51
51 51 51
51 51 51
51 51 51
51 51 51
51 51 51
51 51 51
51 51 51
51 51 51
51 51 51
51 51 51
51 51 51
51 51 51
51 51 51
51 51 51
51 51 51
51 51 51
51 51 51
51 51 51
51 51 51
51 51 51
51 51 51
51 51 51
51 51 51
51 51 51
51 51 51
51 51 51
51 51 51
51 51 51
51 51 51
51 51 51
51 51 51
51 51 51
51 51 51
51 51 51
51 51 51
51 51 51
51 51 51
51 51 51
51 51 51
51 51 51
51 51 51
0 0 118
0 0 119
0 0 120
0 0 120
0 0 121
0 0 122
0 0 122
0 0 123
0 0 124
0 0 124
0 0 125
0 0 125
0 0 126
0 0 126
0 0 127
0 0 127
51 51 51
51 51 51
51 51 51
51 51 51
51 51 51
51 51 51
51 51 51
51 51 51
51 51 51
51 51 51
51 51 51
51 51 51
51 51 51
51 51 51
51 51 51
51 51 51
51 51 51
51 51 51
51 51 51
51 51 51
51 51 51
51 51 51
51 51 51
51 51 51
51 51 51
51 51 51
51 51 51
51 51 51
51 51 51
51 51 51
51 51 51
51 51 51
51 51 51
51 51 51
51 51 51
51 51 51
51 51 51
51 51 51
51 51 51
51 51 51
51 51 51
51 51 51
51 51 51
51 51 51
51 51 51
51 51 51
51 51 51
51 51 51
51 51 51
51 51 51
51 51 51
51 51 51
51 51 51
51 51 51
51 51 51
51 51 51
51 51 51
51 51 51
51 51 51
51 51 51
51 51 51
51 51 51
51 51 51
51 51 51
51 51 51
51 51 51
51 51 51
51 51 51
51 51 51
51 51 51
51 51 51
51 51 51
51 51 51
51 51 51
51 51 51
51 51 51
51 51 51
51 51 51
51 51 51
51 51 51
51 51 51
51 51 51
51 51 51
51 51 51
51 51 51
51 51 51
136 0 0
136 0 0
136 0 0
135 0 0
135 0 0
135 0 0
135 0 0
134 0 0
134 0 0
134 0 0
133 0 0
133 0 0
133 0 0
132 0 0
132 0 0
132 0 0
131 0 0
131 0 0
131 0 0
130 0 0
130 0 0
130 0 0
129 0 0
129 0 0
128 0 0
128 0 0
128 0 0
127 0 0
127 0 0
126 0 0
126 0 0
125 0 0
51 51 51
51 51 51
51 51 51
51 51 51
51 51 51
51 51 51
51 51 51
51 51 51
51 51 51
51 51 51
51 51 51
51 51 51
51 51 51
51 51 51
51 51 51
51 51 51
51 51 51
51 51 51
51 51 51
51 51 51
51 51 51
51 51 51
51 51 51
51 51 51
51 51 51
51 51 51
51 51 51
51 51 51
51 51 51
51 51 51
51 51 51
51 51 51
51 51 51
51 51 51
51 51 51
51 51 51
51 51 51
51 51 51
51 51 51
51 51 51
51 51 51
51 51 51
51 51 51
51 51 51
51 51 51
51 51 51
51 51 51
51 51 51
51 51 51
51 51 51
51 51 51
51 51 51
51 51 51
51 51 51
51 51 51
51 51 51
51 51 51
51 51 51
51 51 51
51 51 51
51 51 51
51 51 51
51 51 51
51 51 51
51 51 51
0 0 118
0 0 119
0 0 119
0 0 120
0 0 121
0 0 121
0 0 122
0 0 123
0 0 123
0 0 124
0 0 125
0 0 125
0 0 126
0 0 126
0 0 127
0 0 127
51 51 51
51 51 51
51 51 51
51 51 51
51 51 51
51 51 51
51 51 51
51 51 51
51 51 51
51 51 51
51 51 51
51 51 51
51 51 51
51 51 51
51 51 51
51 51 51
51 51 51
51 51 51
51 51 51
51 51 51
51 51 51
51 51 51
51 51 51
51 51 51
51 51 51
51 51 51
51 51 51
51 51 51
51 51 51
51 51 51
51 51 51
51 51 51
51 51 51
51 51 51
51 51 51
51 51 51
51 51 51
51 51 51
51 51 51
51 51 51
51 51 51
51 51 51
51 51 51
51 51 51
51 51 51
51 51 51
51 51 51
51 51 51
51 51 51
51 51 51
51 51 51
51 51 51
51 51 51
51 51 51
51 51 51
51 51 51
51 51 51
51 51 51
51 51 51
51 51 51
51 51 51
51 51 51
51 51 51
51 51 51
51 51 51
51 51 51
51 51 51
51 51 51
51 51 51
51 51 51
51 51 51
51 51 51
51 51 51
51 51 51
51 51 51
51 51 51
51 51 51
51 51 51
51 51 51
51 51 51
51 51 51
51 51 51
51 51 51
51 51 51
51 51 51
51 51 51
51 51 51
136 0 0
136 0 0
136 0 0
135 0 0
135 0 0
135 0 0
135 0 0
134 0 0
134 0 0
134 0 0
133 0 0
133 0 0
133 0 0
133 0 0
132 0 0
132 0 0
132 0 0
131 0 0
131 0 0
131 0 0
130 0 0
130 0 0
129 0 0
129 0 0
129 0 0
128 0 0
128 0 0
127 0 0
127 0 0
126 0 0
126 0 0
125 0 0
125 0 0
51 51 51
51 51 51
51 51 51
51 51 51
51 51 51
51 51 51
51 51 51
51 51 51
51 51 51
51 51 51
51 51 51
51 51 51
51 51 51
51 51 51
51 51 51
51 51 51
51 51 51
51 51 51
51 51 51
51 51 51
51 51 51
51 51 51
51 51 51
51 51 51
51 51 51
51 51 51
51 51 51
51 51 51
51 51 51
51 51 51
51 51 51
51 51 51
51 51 51
51 51 51
51 51 51
51 51 51
51 51 51
51 51 51
51 51 51
51 51 51
51 51 51
51 51 51
51 51 51
51 51 51
51 51 51
51 51 51
51 51 51
51 51 51
51 51 51
51 51 51
51 51 51
51 51 51
51 51 51
51 51 51
51 51 51
51 51 51
51 51 51
51 51 51
51 51 51
51 51 51
51 51 51
51 51 51
51 51 51
0 0 117
0 0 118
0 0 119
0 0 120
0 0 121
0 0 121
0 0 122
0 0 122
0 0 123
0 0 124
0 0 124
0 0 125
0 0 125
0 0 126
0 0 126
0 0 127
0 0 127
51 51 51
51 51 51
51 51 51
51 51 51
51 51 51
51 51 51
51 51 51
51 51 51
51 51 51
51 51 51
51 51 51
51 51 51
51 51 51
51 51 51
51 51 51
51 51 51
51 51 51
51 51 51
51 51 51
51 51 51
51 51 51
51 51 51
51 51 51
51 51 51
51 51 51
51 51 51
51 51 51
51 51 51
51 51 51
51 51 51
51 51 51
51 51 51
51 51 51
51 51 51
51 51 51
51 51 51
51 51 51
51 51 51
51 51 51
51 51 51
51 51 51
51 51 51
51 51 51
51 51 51
51 51 51
51 51 51
51 51 51
51 51 51
51 51 51
51 51 51
51 51 51
51 51 51
51 51 51
51 51 51
51 51 51
51 51 51
51 51 51
51 51 51
51 51 51
51 51 51
51 51 51
51 51 51
51 51 51
51 51 51
51 51 51
51 51 51
51 51 51
51 51 51
51 51 51
51 51 51
51 51 51
51 51 51
51 51 51
51 51 51
51 51 51
51 51 51
51 51 51
51 51 51
51 51 51
51 51 51
51 51 51
51 51 51
51 51 51
51 51 51
51 51 51
51 51 51
51 51 51
51 51 51
136 0 0
136 0 0
135 0 0
135 0 0
135 0 0
135 0 0
134 0 0
134 0 0
134 0 0
134 0 0
133 0 0
133 0 0
133 0 0
132 0 0
132 0 0
132 0 0
131 0 0
131 0 0
131 0 0
130 0 0
130 0 0
130 0 0
129 0 0
129 0 0
128 0 0
128 0 0
128 0 0
127 0 0
127 0 0
126 0 0
126 0 0
125 0 0
125 0 0
51 51 51
51 51 51
51 51 51
51 51 51
51 51 51
51 51 51
51 51 51
51 51 51
51 51 51
51 51 51
51 51 51
51 51 51
51 51 51
51 51 51
51 51 51
51 51 51
51 51 51
51 51 51
51 51 51
51 51 51
51 51 51
51 51 51
51 51 51
51 51 51
51 51 51
51 51 51
51 51 51
51 51 51
51 51 51
51 51 51
51 51 51
51 51 51
51 51 51
51 51 51
51 51 51
51 51 51
51 51 51
51 51 51
51 51 51
51 51 51
51 51 51
51 51 51
51 51 51
51 51 51
51 51 51
51 51 51
51 51 51
51 51 51
51 51 51
51 51 51
51 51 51
51 51 51
51 51 51
51 51 51
51 51 51
51 51 51
51 51 51
51 51 51
51 51 51
51 51 51
51 51 51
0 0 117
0 0 118
0 0 119
0 0 120
0 0 120
0 0 121
0 0 122
0 0 122
0 0 123
0 0 123
0 0 124
0 0 125
0 0 125
0 0 126
0 0 126
0 0 127
0 0 127
0 0 128
51 51 51
51 51 51
51 51 51
51 51 51
51 51 51
51 51 51
51 51 51
51 51 51
51 51 51
51 51 51
51 51 51
51 51 51
51 51 51
51 51 51
51 51 51
51 51 51
51 51 51
51 51 51
51 51 51
51 51 51
51 51 51
51 51 51
51 51 51
51 51 51
51 51 51
51 51 51
51 51 51
51 51 51
51 51 51
51 51 51
51 51 51
51 51 51
51 51 51
51 51 51
51 51 51
51 51 51
51 51 51
51 51 51
51 51 51
51 51 51
51 51 51
51 51 51
51 51 51
51 51 51
51 51 51
51 51 51
51 51 51
51 51 51
51 51 51
51 51 51
51 51 51
51 51 51
51 51 51
51 51 51
51 51 51
51 51 51
51 51 51
51 51 51
51 51 51
51 51 51
51 51 51
51 51 51
51 51 51
51 51 51
51 51 51
51 51 51
51 51 51
51 51 51
51 51 51
51 51 51
51 51 51
51 51 51
51 51 51
51 51 51
51 51 51
51 51 51
51 51 51
51 51 51
51 51 51
51 51 51
51 51 51
51 51 51
51 51 51
51 51 51
51 51 51
51 51 51
51 51 51
51 51 51
136 0 0
136 0 0
135 0 0
135 0 0
135 0 0
135 0 0
134 0 0
134 0 0
134 0 0
134 0 0
133 0 0
133 0 0
133 0 0
132 0 0
132 0 0
132 0 0
132 0 0
131 0 0
131 0 0
130 0 0
130 0 0
130 0 0
129 0 0
129 0 0
129 0 0
128 0 0
128 0 0
127 0 0
127 0 0
126 0 0
126 0 0
125 0 0
125 0 0
124 0 0
51 51 51
51 51 51
51 51 51
51 51 51
51 51 51
51 51 51
51 51 51
51 51 51
51 51 51
51 51 51
51 51 51
51 51 51
51 51 51
51 51 51
51 51 51
51 51 51
51 51 51
51 51 51
51 51 51
51 51 51
51 51 51
51 51 51
51 51 51
51 51 51
51 51 51
51 51 51
51 51 51
51 51 51
51 51 51
51 51 51
51 51 51
51 51 51
51 51 51
51 51 51
51 51 51
51 51 51
51 51 51
51 51 51
51 51 51
51 51 51
51 51 51
51 51 51
51 51 51
51 51 51
51 51 51
51 51 51
51 51 51
51 51 51
51 51 51
51 51 51
51 51 51
51 51 51
51 51 51
51 51 51
51 51 51
51 51 51
51 51 51
51 51 51
51 51 51
0 0 117
0 0 118
0 0 118
0 0 119
0 0 120
0 0 121
0 0 121
0 0 122
0 0 123
0 0 123
0 0 124
0 0 124
0 0 125
0 0 125
0 0 126
0 0 126
0 0 127
0 0 127
51 51 51
51 51 51
51 51 51
51 51 51
51 51 51
51 51 51
51 51 51
51 51 51
51 51 51
51 51 51
51 51 51
51 51 51
51 51 51
51 51 51
51 51 51
51 51 51
51 51 51
51 51 51
51 51 51
51 51 51
51 51 51
51 51 51
51 51 51
51 51 51
51 51 51
51 51 51
51 51 51
51 51 51
51 51 51
51 51 51
51 51 51
51 51 51
51 51 51
51 51 51
51 51 51
51 51 51
51 51 51
51 51 51
51 51 51
51 51 51
51 51 51
51 51 51
51 51 51
51 51 51
51 51 51
51 51 51
51 51 51
51 51 51
51 51 51
51 51 51
51 51 51
51 51 51
51 51 51
51 51 51
51 51 51
51 51 51
51 51 51
51 51 51
51 51 51
51 51 51
51 51 51
51 51 51
51 51 51
51 51 51
51 51 51
51 51 51
51 51 51
51 51 51
51 51 51
51 51 51
51 51 51
51 51 51
51 51 51
51 51 51
51 51 51
51 51 51
51 51 51
51 51 51
51 51 51
51 51 51
51 51 51
51 51 51
51 51 51
51 51 51
51 51 51
51 51 51
51 51 51
51 51 51
51 51 51
51 51 51
136 0 0
136 0 0
135 0 0
135 0 0
135 0 0
135 0 0
134 0 0
134 0 0
134 0 0
133 0 0
133 0 0
133 0 0
133 0 0
132 0 0
132 0 0
132 0 0
131 0 0
131 0 0
131 0 0
130 0 0
130 0 0
130 0 0
129 0 0
129 0 0
128 0 0
128 0 0
127 0 0
127 0 0
127 0 0
126 0 0
126 0 0
125 0 0
125 0 0
124 0 0
51 51 51
51 51 51
51 51 51
51 51 51
51 51 51
51 51 51
51 51 51
51 51 51
51 51 51
51 51 51
51 51 51
51 51 51
51 51 51
51 51 51
51 51 51
51 51 51
51 51 51
51 51 51
51 51 51
51 51 51
51 51 51
51 51 51
51 51 51
51 51 51
51 51 51
51 51 51
51 51 51
51 51 51
51 51 51
51 51 51
51 51 51
51 51 51
51 51 51
51 51 51
51 51 51
51 51 51
51 51 51
51 51 51
51 51 51
51 51 51
51 51 51
51 51 51
51 51 51
51 51 51
51 51 51
51 51 51
51 51 51
51 51 51
51 51 51
51 51 51
51 51 51
51 51 51
51 51 51
51 51 51
51 51 51
51 51 51
51 51 51
51 51 51
0 0 117
0 0 118
0 0 119
0 0 120
0 0 120
0 0 121
0 0 122
0 0 122
0 0 123
0 0 123
0 0 124
0 0 125
0 0 125
0 0 126
0 0 126
0 0 127
0 0 127
0 0 127
51 51 51
51 51 51
51 51 51
51 51 51
51 51 51
51 51 51
51 51 51
51 51 51
51 51 51
51 51 51
51 51 51
51 51 51
51 51 51
51 51 51
51 51 51
51 51 51
51 51 51
51 51 51
51 51 51
51 51 51
51 51 51
51 51 51
51 51 51
51 51 51
51 51 51
51 51 51
51 51 51
51 51 51
51 51 51
51 51 51
51 51 51
51 51 51
51 51 51
51 51 51
51 51 51
51 51 51
51 51 51
51 51 51
51 51 51
51 51 51
51 51 51
51 51 51
51 51 51
51 51 51
51 51 51
51 51 51
51 51 51
51 51 51
51 51 51
51 51 51
51 51 51
51 51 51
51 51 51
51 51 51
51 51 51
51 51 51
51 51 51
51 51 51
51 51 51
51 51 51
51 51 51
51 51 51
51 51 51
51 51 51
51 51 51
51 51 51
51 51 51
51 51 51
51 51 51
51 51 51
51 51 51
51 51 51
51 51 51
51 51 51
51 51 51
51 51 51
51 51 51
51 51 51
51 51 51
51 51 51
51 51 51
51 51 51
51 51 51
51 51 51
51 51 51
51 51 51
51 51 51
51 51 51
51 51 51
51 51 51
51 51 51
136 0 0
135 0 0
135 0 0
135 0 0
135 0 0
134 0 0
134 0 0
134 0 0
134 0 0
133 0 0
133 0 0
133 0 0
132 0 0
132 0 0
132 0 0
131 0 0
131 0 0
131 0 0
130 0 0
130 0 0
130 0 0
129 0 0
129 0 0
129 0 0
128 0 0
128 0 0
127 0 0
127 0 0
126 0 0
126 0 0
125 0 0
125 0 0
124 0 0
124 0 0
123 0 0
51 51 51
51 51 51
51 51 51
51 51 51
51 51 51
51 51 51
51 51 51
51 51 51
51 51 51
51 51 51
51 51 51
51 51 51
51 51 51
51 51 51
51 51 51
51 51 51
51 51 51
51 51 51
51 51 51
51 51 51
51 51 51
51 51 51
51 51 51
51 51 51
51 51 51
51 51 51
51 51 51
51 51 51
51 51 51
51 51 51
51 51 51
51 51 51
51 51 51
51 51 51
51 51 51
51 51 51
51 51 51
51 51 51
51 51 51
51 51 51
51 51 51
51 51 51
51 51 51
51 51 51
51 51 51
51 51 51
51 51 51
51 51 51
51 51 51
51 51 51
51 51 51
51 51 51
51 51 51
51 51 51
51 51 51
0 0 117
0 0 118
0 0 119
0 0 119
0 0 120
0 0 121
0 0 121
0 0 122
0 0 123
0 0 123
0 0 124
0 0 124
0 0 125
0 0 125
0 0 126
0 0 126
0 0 127
0 0 127
0 0 128
51 51 51
51 51 51
51 51 51
51 51 51
51 51 51
51 51 51
51 51 51
51 51 51
51 51 51
51 51 51
51 51 51
51 51 51
51 51 51
51 51 51
51 51 51
51 51 51
51 51 51
51 51 51
51 51 51
51 51 51
51 51 51
51 51 51
51 51 51
51 51 51
51 51 51
51 51 51
51 51 51
51 51 51
51 51 51
51 51 51
51 51 51
51 51 51
51 51 51
51 51 51
51 51 51
51 51 51
51 51 51
51 51 51
51 51 51
51 51 51
51 51 51
51 51 51
51 51 51
51 51 51
51 51 51
51 51 51
51 51 51
51 51 51
51 51 51
51 51 51
51 51 51
51 51 51
51 51 51
51 51 51
51 51 51
51 51 51
51 51 51
51 51 51
51 51 51
51 51 51
51 51 51
51 51 51
51 51 51
51 51 51
51 51 51
51 51 51
51 51 51
51 51 51
51 51 51
51 51 51
51 51 51
51 51 51
51 51 51
51 51 51
51 51 51
51 51 51
51 51 51
51 51 51
51 51 51
51 51 51
51 51 51
51 51 51
51 51 51
51 51 51
51 51 51
51 51 51
51 51 51
51 51 51
51 51 51
51 51 51
51 51 51
136 0 0
135 0 0
135 0 0
135 0 0
135 0 0
134 0 0
134 0 0
134 0 0
134 0 0
133 0 0
133 0 0
133 0 0
132 0 0
132 0 0
132 0 0
132 0 0
131 0 0
131 0 0
131 0 0
130 0 0
130 0 0
129 0 0
129 0 0
129 0 0
128 0 0
128 0 0
127 0 0
127 0 0
127 0 0
126 0 0
126 0 0
125 0 0
125 0 0
124 0 0
123 0 0
123 0 0
51 51 51
51 51 51
51 51 51
51 51 51
51 51 51
51 51 51
51 51 51
51 51 51
51 51 51
51 51 51
51 51 51
51 51 51
51 51 51
51 51 51
51 51 51
51 51 51
51 51 51
51 51 51
51 51 51
51 51 51
51 51 51
51 51 51
51 51 51
51 51 51
51 51 51
51 51 51
51 51 51
51 51 51
51 51 51
51 51 51
51 51 51
51 51 51
51 51 51
51 51 51
51 51 51
51 51 51
51 51 51
51 51 51
51 51 51
51 51 51
51 51 51
51 51 51
51 51 51
51 51 51
51 51 51
51 51 51
51 51 51
51 51 51
51 51 51
51 51 51
51 51 51
51 51 51
51 51 51
0 0 117
0 0 118
0 0 118
0 0 119
0 0 120
0 0 120
0 0 121
0 0 122
0 0 122
0 0 123
0 0 123
0 0 124
0 0 125
0 0 125
0 0 126
0 0 126
0 0 127
0 0 127
0 0 127
51 51 51
51 51 51
51 51 51
51 51 51
51 51 51
51 51 51
51 51 51
51 51 51
51 51 51
51 51 51
51 51 51
51 51 51
51 51 51
51 51 51
51 51 51
51 51 51
51 51 51
51 51 51
51 51 51
51 51 51
51 51 51
51 51 51
51 51 51
51 51 51
51 51 51
51 51 51
51 51 51
51 51 51
51 51 51
51 51 51
51 51 51
51 51 51
51 51 51
51 51 51
51 51 51
51 51 51
51 51 51
51 51 51
51 51 51
51 51 51
51 51 51
51 51 51
51 51 51
51 51 51
51 51 51
51 51 51
51 51 51
51 51 51
51 51 51
51 51 51
51 51 51
51 51 51
51 51 51
51 51 51
51 51 51
51 51 51
51 51 51
51 51 51
51 51 51
51 51 51
51 51 51
51 51 51
51 51 51
51 51 51
51 51 51
51 51 51
51 51 51
51 51 51
51 51 51
51 51 51
51 51 51
51 51 51
51 51 51
51 51 51
51 51 51
51 51 51
51 51 51
51 51 51
51 51 51
51 51 51
51 51 51
51 51 51
51 51 51
51 51 51
51 51 51
51 51 51
51 51 51
51 51 51
51 51 51
51 51 51
51 51 51
51 51 51
51 51 51
135 0 0
135 0 0
135 0 0
135 0 0
134 0 0
134 0 0
134 0 0
134 0 0
133 0 0
133 0 0
133 0 0
133 0 0
132 0 0
132 0 0
132 0 0
131 0 0
131 0 0
131 0 0
130 0 0
130 0 0
130 0 0
129 0 0
129 0 0
128 0 0
128 0 0
128 0 0
127 0 0
127 0 0
126 0 0
126 0 0
125 0 0
125 0 0
124 0 0
124 0 0
123 0 0
123 0 0
51 51 51
51 51 51
51 51 51
51 51 51
51 51 51
51 51 51
51 51 51
51 51 51
51 51 51
51 51 51
51 51 51
51 51 51
51 51 51
51 51 51
51 51 51
51 51 51
51 51 51
51 51 51
51 51 51
51 51 51
51 51 51
51 51 51
51 51 51
51 51 51
51 51 51
51 51 51
51 51 51
51 51 51
51 51 51
51 51 51
51 51 51
51 51 51
51 51 51
51 51 51
51 51 51
51 51 51
51 51 51
51 51 51
51 51 51
51 51 51
51 51 51
51 51 51
51 51 51
51 51 51
51 51 51
51 51 51
51 51 51
51 51 51
51 51 51
51 51 51
51 51 51
0 0 116
0 0 117
0 0 118
0 0 119
0 0 119
0 0 120
0 0 121
0 0 121
0 0 122
0 0 123
0 0 123
0 0 124
0 0 124
0 0 125
0 0 125
0 0 126
0 0 126
0 0 127
0 0 127
0 0 128
51 51 51
51 51 51
51 51 51
51 51 51
51 51 51
51 51 51
51 51 51
51 51 51
51 51 51
51 51 51
51 51 51
51 51 51
51 51 51
51 51 51
51 51 51
51 51 51
51 51 51
51 51 51
51 51 51
51 51 51
51 51 51
51 51 51
51 51 51
51 51 51
51 51 51
51 51 51
51 51 51
51 51 51
51 51 51
51 51 51
51 51 51
51 51 51
51 51 51
51 51 51
51 51 51
51 51 51
51 51 51
51 51 51
51 51 51
51 51 51
51 51 51
51 51 51
51 51 51
51 51 51
51 51 51
51 51 51
51 51 51
51 51 51
51 51 51
51 51 51
51 51 51
51 51 51
51 51 51
51 51 51
51 51 51
51 51 51
51 51 51
51 51 51
51 51 51
51 51 51
51 51 51
51 51 51
51 51 51
51 51 51
51 51 51
51 51 51
51 51 51
51 51 51
51 51 51
51 51 51
51 51 51
51 51 51
51 51 51
51 51 51
51 51 51
51 51 51
51 51 51
51 51 51
51 51 51
51 51 51
51 51 51
51 51 51
51 51 51
51 51 51
51 51 51
51 51 51
51 51 51
51 51 51
51 51 51
51 51 51
51 51 51
51 51 51
51 51 51
135 0 0
135 0 0
135 0 0
135 0 0
135 0 0
134 0 0
134 0 0
134 0 0
134 0 0
133 0 0
133 0 0
133 0 0
132 0 0
132 0 0
132 0 0
131 0 0
131 0 0
131 0 0
130 0 0
130 0 0
130 0 0
129 0 0
129 0 0
129 0 0
128 0 0
128 0 0
127 0 0
127 0 0
127 0 0
126 0 0
126 0 0
125 0 0
125 0 0
124 0 0
124 0 0
123 0 0
122 0 0
51 51 51
51 51 51
51 51 51
51 51 51
51 51 51
51 51 51
51 51 51
51 51 51
51 51 51
51 51 51
51 51 51
51 51 51
51 51 51
51 51 51
51 51 51
51 51 51
51 51 51
51 51 51
51 51 51
51 51 51
51 51 51
51 51 51
51 51 51
51 51 51
51 51 51
51 51 51
51 51 51
51 51 51
51 51 51
51 51 51
51 51 51
51 51 51
51 51 51
51 51 51
51 51 51
51 51 51
51 51 51
51 51 51
51 51 51
51 51 51
51 51 51
51 51 51
51 51 51
51 51 51
51 51 51
51 51 51
51 51 51
51 51 51
51 51 51
0 0 116
0 0 117
0 0 118
0 0 118
0 0 119
0 0 120
0 0 121
0 0 121
0 0 122
0 0 122
0 0 123
0 0 124
0 0 124
0 0 125
0 0 125
0 0 126
0 0 126
0 0 127
0 0 127
0 0 127
0 0 128
51 51 51
51 51 51
51 51 51
51 51 51
51 51 51
51 51 51
51 51 51
51 51 51
51 51 51
51 51 51
51 51 51
51 51 51
51 51 51
51 51 51
51 51 51
51 51 51
51 51 51
51 51 51
51 51 51
51 51 51
51 51 51
51 51 51
51 51 51
51 51 51
51 51 51
51 51 51
51 51 51
51 51 51
51 51 51
51 51 51
51 51 51
51 51 51
51 51 51
51 51 51
51 51 51
51 51 51
51 51 51
51 51 51
51 51 51
51 51 51
51 51 51
51 51 51
51 51 51
51 51 51
51 51 51
51 51 51
51 51 51
51 51 51
51 51 51
51 51 51
51 51 51
51 51 51
51 51 51
51 51 51
51 51 51
51 51 51
51 51 51
51 51 51
51 51 51
51 51 51
51 51 51
51 51 51
51 51 51
51 51 51
51 51 51
51 51 51
51 51 51
51 51 51
51 51 51
51 51 51
51 51 51
51 51 51
51 51 51
51 51 51
51 51 51
51 51 51
51 51 51
51 51 51
51 51 51
51 51 51
51 51 51
51 51 51
51 51 51
51 51 51
51 51 51
51 51 51
51 51 51
51 51 51
51 51 51
51 51 51
51 51 51
51 51 51
51 51 51
51 51 51
135 0 0
135 0 0
135 0 0
135 0 0
134 0 0
134 0 0
134 0 0
134 0 0
133 0 0
133 0 0
133 0 0
132 0 0
132 0 0
132 0 0
132 0 0
131 0 0
131 0 0
131 0 0
130 0 0
130 0 0
130 0 0
129 0 0
129 0 0
128 0 0
128 0 0
128 0 0
127 0 0
127 0 0
126 0 0
126 0 0
125 0 0
125 0 0
124 0 0
124 0 0
123 0 0
123 0 0
122 0 0
51 51 51
51 51 51
51 51 51
51 51 51
51 51 51
51 51 51
51 51 51
51 51 51
51 51 51
51 51 51
51 51 51
51 51 51
51 51 51
51 51 51
51 51 51
51 51 51
51 51 51
51 51 51
51 51 51
51 51 51
51 51 51
51 51 51
51 51 51
51 51 51
51 51 51
51 51 51
51 51 51
51 51 51
51 51 51
51 51 51
51 51 51
51 51 51
51 51 51
51 51 51
51 51 51
51 51 51
51 51 51
51 51 51
51 51 51
51 51 51
51 51 51
51 51 51
51 51 51
51 51 51
51 51 51
51 51 51
51 51 51
0 0 116
0 0 117
0 0 117
0 0 118
0 0 119
0 0 120
0 0 120
0 0 121
0 0 122
0 0 122
0 0 123
0 0 123
0 0 124
0 0 124
0 0 125
0 0 125
0 0 126
0 0 126
0 0 127
0 0 127
0 0 128
51 51 51
51 51 51
51 51 51
51 51 51
51 51 51
51 51 51
51 51 51
51 51 51
51 51 51
51 51 51
51 51 51
51 51 51
51 51 51
51 51 51
51 51 51
51 51 51
51 51 51
51 51 51
51 51 51
51 51 51
51 51 51
51 51 51
51 51 51
51 51 51
51 51 51
51 51 51
51 51 51
51 51 51
51 51 51
51 51 51
51 51 51
51 51 51
51 51 51
51 51 51
51 51 51
51 51 51
51 51 51
51 51 51
51 51 51
51 51 51
51 51 51
51 51 51
51 51 51
51 51 51
51 51 51
51 51 51
51 51 51
51 51 51
51 51 51
51 51 51
51 51 51
51 51 51
51 51 51
51 51 51
51 51 51
51 51 51
51 51 51
51 51 51
51 51 51
51 51 51
51 51 51
51 51 51
51 51 51
51 51 51
51 51 51
51 51 51
51 51 51
51 51 51
51 51 51
51 51 51
51 51 51
51 51 51
51 51 51
51 51 51
51 51 51
51 51 51
51 51 51
51 51 51
51 51 51
51 51 51
51 51 51
51 51 51
51 51 51
51 51 51
51 51 51
51 51 51
51 51 51
51 51 51
51 51 51
51 51 51
51 51 51
51 51 51
51 51 51
51 51 51
51 51 51
135 0 0
135 0 0
135 0 0
135 0 0
134 0 0
134 0 0
134 0 0
134 0 0
133 0 0
133 0 0
133 0 0
133 0 0
132 0 0
132 0 0
132 0 0
131 0 0
131 0 0
131 0 0
130 0 0
130 0 0
130 0 0
129 0 0
129 0 0
129 0 0
128 0 0
128 0 0
127 0 0
127 0 0
127 0 0
126 0 0
126 0 0
125 0 0
125 0 0
124 0 0
124 0 0
123 0 0
122 0 0
122 0 0
51 51 51
51 51 51
51 51 51
51 51 51
51 51 51
51 51 51
51 51 51
51 51 51
51 51 51
51 51 51
51 51 51
51 51 51
51 51 51
51 51 51
51 51 51
51 51 51
51 51 51
51 51 51
51 51 51
51 51 51
51 51 51
51 51 51
51 51 51
51 51 51
51 51 51
51 51 51
51 51 51
51 51 51
51 51 51
51 51 51
51 51 51
51 51 51
51 51 51
51 51 51
51 51 51
51 51 51
51 51 51
51 51 51
51 51 51
51 51 51
51 51 51
51 51 51
51 51 51
51 51 51
51 51 51
51 51 51
0 0 116
0 0 117
0 0 118
0 0 119
0 0 119
0 0 120
0 0 121
0 0 121
0 0 122
0 0 122
0 0 123
0 0 124
0 0 124
0 0 125
0 0 125
0 0 126
0 0 126
0 0 127
0 0 127
0 0 127
0 0 128
51 51 51
51 51 51
51 51 51
51 51 51
51 51 51
51 51 51
51 51 51
51 51 51
51 51 51
51 51 51
51 51 51
51 51 51
51 51 51
51 51 51
51 51 51
51 51 51
51 51 51
51 51 51
51 51 51
51 51 51
51 51 51
51 51 51
51 51 51
51 51 51
51 51 51
51 51 51
51 51 51
51 51 51
51 51 51
51 51 51
51 51 51
51 51 51
51 51 51
51 51 51
51 51 51
51 51 51
51 51 51
51 51 51
51 51 51
51 51 51
51 51 51
51 51 51
51 51 51
51 51 51
51 51 51
51 51 51
51 51 51
51 51 51
51 51 51
51 51 51
51 51 51
51 51 51
51 51 51
51 51 51
51 51 51
51 51 51
51 51 51
51 51 51
51 51 51
51 51 51
51 51 51
51 51 51
51 51 51
51 51 51
51 51 51
51 51 51
51 51 51
51 51 51
51 51 51
51 51 51
51 51 51
51 51 51
51 51 51
51 51 51
51 51 51
51 51 51
51 51 51
51 51 51
51 51 51
51 51 51
51 51 51
51 51 51
51 51 51
51 51 51
51 51 51
51 51 51
51 51 51
51 51 51
51 51 51
51 51 51
51 51 51
51 51 51
51 51 51
51 51 51
51 51 51
51 51 51
135 0 0
135 0 0
135 0 0
134 0 0
134 0 0
134 0 0
134 0 0
133 0 0
133 0 0
133 0 0
133 0 0
132 0 0
132 0 0
132 0 0
131 0 0
131 0 0
131 0 0
131 0 0
130 0 0
130 0 0
129 0 0
129 0 0
129 0 0
128 0 0
128 0 0
128 0 0
127 0 0
127 0 0
126 0 0
126 0 0
125 0 0
125 0 0
124 0 0
124 0 0
123 0 0
123 0 0
122 0 0
122 0 0
51 51 51
51 51 51
51 51 51
51 51 51
51 51 51
51 51 51
51 51 51
51 51 51
51 51 51
51 51 51
51 51 51
51 51 51
51 51 51
51 51 51
51 51 51
51 51 51
51 51 51
51 51 51
51 51 51
51 51 51
51 51 51
51 51 51
51 51 51
51 51 51
51 51 51
51 51 51
51 51 51
51 51 51
51 51 51
51 51 51
51 51 51
51 51 51
51 51 51
51 51 51
51 51 51
51 51 51
51 51 51
51 51 51
51 51 51
51 51 51
51 51 51
51 51 51
51 51 51
51 51 51
0 0 116
0 0 117
0 0 118
0 0 118
0 0 119
0 0 120
0 0 120
0 0 121
0 0 122
0 0 122
0 0 123
0 0 123
0 0 124
0 0 124
0 0 125
0 0 125
0 0 126
0 0 126
0 0 127
0 0 127
0 0 128
0 0 128
51 51 51
51 51 51
51 51 51
51 51 51
51 51 51
51 51 51
51 51 51
51 51 51
51 51 51
51 51 51
51 51 51
51 51 51
51 51 51
51 51 51
51 51 51
51 51 51
51 51 51
51 51 51
51 51 51
51 51 51
51 51 51
51 51 51
51 51 51
51 51 51
51 51 51
51 51 51
51 51 51
51 51 51
51 51 51
51 51 51
51 51 51
51 51 51
51 51 51
51 51 51
51 51 51
51 51 51
51 51 51
51 51 51
51 51 51
51 51 51
51 51 51
51 51 51
51 51 51
51 51 51
51 51 51
51 51 51
51 51 51
51 51 51
51 51 51
51 51 51
51 51 51
51 51 51
51 51 51
51 51 51
51 51 51
51 51 51
51 51 51
51 51 51
51 51 51
51 51 51
51 51 51
51 51 51
51 51 51
51 51 51
51 51 51
51 51 51
51 51 51
51 51 51
51 51 51
51 51 51
51 51 51
51 51 51
51 51 51
51 51 51
51 51 51
51 51 51
51 51 51
51 51 51
51 51 51
51 51 51
51 51 51
51 51 51
51 51 51
51 51 51
51 51 51
51 51 51
51 51 51
51 51 51
51 51 51
51 51 51
51 51 51
51 51 51
51 51 51
51 51 51
51 51 51
51 51 51
135 0 0
135 0 0
135 0 0
135 0 0
134 0 0
134 0 0
134 0 0
134 0 0
133 0 0
133 0 0
133 0 0
132 0 0
132 0 0
132 0 0
132 0 0
131 0 0
131 0 0
131 0 0
130 0 0
130 0 0
130 0 0
129 0 0
129 0 0
129 0 0
128 0 0
128 0 0
127 0 0
127 0 0
126 0 0
126 0 0
126 0 0
125 0 0
125 0 0
124 0 0
124 0 0
123 0 0
122 0 0
122 0 0
121 0 0
121 0 0
51 51 51
51 51 51
51 51 51
51 51 51
51 51 51
51 51 51
51 51 51
51 51 51
51 51 51
51 51 51
51 51 51
51 51 51
51 51 51
51 51 51
51 51 51
51 51 51
51 51 51
51 51 51
51 51 51
51 51 51
51 51 51
51 51 51
51 51 51
51 51 51
51 51 51
51 51 51
51 51 51
51 51 51
51 51 51
51 51 51
51 51 51
51 51 51
51 51 51
51 51 51
51 51 51
51 51 51
51 51 51
51 51 51
51 51 51
51 51 51
51 51 51
0 0 116
0 0 117
0 0 117
0 0 118
0 0 119
0 0 119
0 0 120
0 0 121
0 0 121
0 0 122
0 0 122
0 0 123
0 0 124
0 0 124
0 0 125
0 0 125
0 0 126
0 0 126
0 0 126
0 0 127
0 0 127
0 0 128
51 51 51
51 51 51
51 51 51
51 51 51
51 51 51
51 51 51
51 51 51
51 51 51
51 51 51
51 51 51
51 51 51
51 51 51
51 51 51
51 51 51
51 51 51
51 51 51
51 51 51
51 51 51
51 51 51
51 51 51
51 51 51
51 51 51
51 51 51
51 51 51
51 51 51
51 51 51
51 51 51
51 51 51
51 51 51
51 51 51
51 51 51
51 51 51
51 51 51
51 51 51
51 51 51
51 51 51
51 51 51
51 51 51
51 51 51
51 51 51
51 51 51
51 51 51
51 51 51
51 51 51
51 51 51
51 51 51
51 51 51
51 51 51
51 51 51
51 51 51
51 51 51
51 51 51
51 51 51
51 51 51
51 51 51
51 51 51
51 51 51
51 51 51
51 51 51
51 51 51
51 51 51
51 51 51
51 51 51
51 51 51
51 51 51
51 51 51
51 51 51
51 51 51
51 51 51
51 51 51
51 51 51
51 51 51
51 51 51
51 51 51
51 51 51
51 51 51
51 51 51
51 51 51
51 51 51
51 51 51
51 51 51
51 51 51
51 51 51
51 51 51
51 51 51
51 51 51
51 51 51
51 51 51
51 51 51
51 51 51
51 51 51
51 51 51
51 51 51
51 51 51
51 51 51
51 51 51
51 51 51
51 51 51
135 0 0
135 0 0
135 0 0
134 0 0
134 0 0
134 0 0
134 0 0
133 0 0
133 0 0
133 0 0
133 0 0
132 0 0
132 0 0
132 0 0
131 0 0
131 0 0
131 0 0
130 0 0
130 0 0
130 0 0
129 0 0
129 0 0
129 0 0
128 0 0
128 0 0
128 0 0
127 0 0
127 0 0
126 0 0
126 0 0
125 0 0
125 0 0
124 0 0
124 0 0
123 0 0
123 0 0
122 0 0
122 0 0
121 0 0
120 0 0
51 51 51
51 51 51
51 51 51
51 51 51
51 51 51
51 51 51
51 51 51
51 51 51
51 51 51
51 51 51
51 51 51
51 51 51
51 51 51
51 51 51
51 51 51
51 51 51
51 51 51
51 51 51
51 51 51
51 51 51
51 51 51
51 51 51
51 51 51
51 51 51
51 51 51
51 51 51
51 51 51
51 51 51
51 51 51
51 51 51
51 51 51
51 51 51
51 51 51
51 51 51
51 51 51
51 51 51
51 51 51
51 51 51
51 51 51
0 0 115
0 0 116
0 0 117
0 0 118
0 0 118
0 0 119
0 0 120
0 0 120
0 0 121
0 0 122
0 0 122
0 0 123
0 0 123
0 0 124
0 0 124
0 0 125
0 0 125
0 0 126
0 0 126
0 0 127
0 0 127
0 0 128
0 0 128
51 51 51
51 51 51
51 51 51
51 51 51
51 51 51
51 51 51
51 51 51
51 51 51
51 51 51
51 51 51
51 51 51
51 51 51
51 51 51
51 51 51
51 51 51
51 51 51
51 51 51
51 51 51
51 51 51
51 51 51
51 51 51
51 51 51
51 51 51
51 51 51
51 51 51
51 51 51
51 51 51
51 51 51
51 51 51
51 51 51
51 51 51
51 51 51
51 51 51
51 51 51
51 51 51
51 51 51
51 51 51
51 51 51
51 51 51
51 51 51
51 51 51
51 51 51
51 51 51
51 51 51
51 51 51
51 51 51
51 51 51
51 51 51
51 51 51
51 51 51
51 51 51
51 51 51
51 51 51
51 51 51
51 51 51
51 51 51
51 51 51
51 51 51
51 51 51
51 51 51
51 51 51
51 51 51
51 51 51
51 51 51
51 51 51
51 51 51
51 51 51
51 51 51
51 51 51
51 51 51
51 51 51
51 51 51
51 51 51
51 51 51
51 51 51
51 51 51
51 51 51
51 51 51
51 51 51
51 51 51
51 51 51
51 51 51
51 51 51
51 51 51
51 51 51
51 51 51
51 51 51
51 51 51
51 51 51
51 51 51
51 51 51
51 51 51
51 51 51
51 51 51
51 51 51
51 51 51
51 51 51
51 51 51
51 51 51
135 0 0
135 0 0
134 0 0
134 0 0
134 0 0
134 0 0
133 0 0
133 0 0
133 0 0
133 0 0
132 0 0
132 0 0
132 0 0
131 0 0
131 0 0
131 0 0
131 0 0
130 0 0
130 0 0
130 0 0
129 0 0
129 0 0
128 0 0
128 0 0
128 0 0
127 0 0
127 0 0
126 0 0
126 0 0
126 0 0
125 0 0
125 0 0
124 0 0
124 0 0
123 0 0
123 0 0
122 0 0
121 0 0
121 0 0
120 0 0
51 51 51
51 51 51
51 51 51
51 51 51
51 51 51
51 51 51
51 51 51
51 51 51
51 51 51
51 51 51
51 51 51
51 51 51
51 51 51
51 51 51
51 51 51
51 51 51
51 51 51
51 51 51
51 51 51
51 51 51
51 51 51
51 51 51
51 51 51
51 51 51
51 51 51
51 51 51
51 51 51
51 51 51
51 51 51
51 51 51
51 51 51
51 51 51
51 51 51
51 51 51
51 51 51
51 51 51
51 51 51
0 0 115
0 0 116
0 0 117
0 0 117
0 0 118
0 0 119
0 0 120
0 0 120
0 0 121
0 0 121
0 0 122
0 0 123
0 0 123
0 0 124
0 0 124
0 0 125
0 0 125
0 0 126
0 0 126
0 0 126
0 0 127
0 0 127
0 0 128
0 0 128
51 51 51
51 51 51
51 51 51
51 51 51
51 51 51
51 51 51
51 51 51
51 51 51
51 51 51
51 51 51
51 51 51
51 51 51
51 51 51
51 51 51
51 51 51
51 51 51
51 51 51
51 51 51
51 51 51
51 51 51
51 51 51
51 51 51
51 51 51
51 51 51
51 51 51
51 51 51
51 51 51
51 51 51
51 51 51
51 51 51
51 51 51
51 51 51
51 51 51
51 51 51
51 51 51
51 51 51
51 51 51
51 51 51
51 51 51
51 51 51
51 51 51
51 51 51
51 51 51
51 51 51
51 51 51
51 51 51
51 51 51
51 51 51
51 51 51
51 51 51
51 51 51
51 51 51
51 51 51
51 51 51
51 51 51
51 51 51
51 51 51
51 51 51
51 51 51
51 51 51
51 51 51
51 51 51
51 51 51
51 51 51
51 51 51
51 51 51
51 51 51
51 51 51
51 51 51
51 51 51
51 51 51
51 51 51
51 51 51
51 51 51
51 51 51
51 51 51
51 51 51
51 51 51
51 51 51
51 51 51
51 51 51
51 51 51
51 51 51
51 51 51
51 51 51
51 51 51
51 51 51
51 51 51
51 51 51
51 51 51
51 51 51
51 51 51
51 51 51
51 51 51
51 51 51
51 51 51
51 51 51
51 51 51
51 51 51
135 0 0
135 0 0
134 0 0
134 0 0
134 0 0
134 0 0
134 0 0
133 0 0
133 0 0
133 0 0
132 0 0
132 0 0
132 0 0
132 0 0
131 0 0
131 0 0
131 0 0
130 0 0
130 0 0
130 0 0
129 0 0
129 0 0
129 0 0
128 0 0
128 0 0
127 0 0
127 0 0
127 0 0
126 0 0
126 0 0
125 0 0
125 0 0
124 0 0
124 0 0
123 0 0
123 0 0
122 0 0
122 0 0
121 0 0
120 0 0
120 0 0
51 51 51
51 51 51
51 51 51
51 51 51
51 51 51
51 51 51
51 51 51
51 51 51
51 51 51
51 51 51
51 51 51
51 51 51
51 51 51
51 51 51
51 51 51
51 51 51
51 51 51
51 51 51
51 51 51
51 51 51
51 51 51
51 51 51
51 51 51
51 51 51
51 51 51
51 51 51
51 51 51
51 51 51
51 51 51
51 51 51
51 51 51
51 51 51
51 51 51
51 51 51
51 51 51
51 51 51
0 0 116
0 0 116
0 0 117
0 0 118
0 0 119
0 0 119
0 0 120
0 0 120
0 0 121
0 0 122
0 0 122
0 0 123
0 0 123
0 0 124
0 0 124
0 0 125
0 0 125
0 0 126
0 0 126
0 0 127
0 0 127
0 0 127
0 0 128
51 51 51
51 51 51
51 51 51
51 51 51
51 51 51
51 51 51
51 51 51
51 51 51
51 51 51
51 51 51
51 51 51
51 51 51
51 51 51
51 51 51
51 51 51
51 51 51
51 51 51
51 51 51
51 51 51
51 51 51
51 51 51
51 51 51
51 51 51
51 51 51
51 51 51
51 51 51
51 51 51
51 51 51
51 51 51
51 51 51
51 51 51
51 51 51
51 51 51
51 51 51
51 51 51
51 51 51
51 51 51
51 51 51
51 51 51
51 51 51
51 51 51
51 51 51
51 51 51
51 51 51
51 51 51
51 51 51
51 51 51
51 51 51
51 51 51
51 51 51
51 51 51
51 51 51
51 51 51
51 51 51
51 51 51
51 51 51
51 51 51
51 51 51
51 51 51
51 51 51
51 51 51
51 51 51
51 51 51
51 51 51
51 51 51
51 51 51
51 51 51
51 51 51
51 51 51
51 51 51
51 51 51
51 51 51
51 51 51
51 51 51
51 51 51
51 51 51
51 51 51
51 51 51
51 51 51
51 51 51
51 51 51
51 51 51
51 51 51
51 51 51
51 51 51
51 51 51
51 51 51
51 51 51
51 51 51
51 51 51
51 51 51
51 51 51
51 51 51
51 51 51
51 51 51
51 51 51
51 51 51
51 51 51
51 51 51
51 51 51
51 51 51
135 0 0
135 0 0
134 0 0
134 0 0
134 0 0
134 0 0
133 0 0
133 0 0
133 0 0
133 0 0
132 0 0
132 0 0
132 0 0
131 0 0
131 0 0
131 0 0
130 0 0
130 0 0
130 0 0
129 0 0
129 0 0
129 0 0
128 0 0
128 0 0
128 0 0
127 0 0
127 0 0
126 0 0
126 0 0
126 0 0
125 0 0
125 0 0
124 0 0
124 0 0
123 0 0
123 0 0
122 0 0
121 0 0
121 0 0
120 0 0
120 0 0
51 51 51
51 51 51
51 51 51
51 51 51
51 51 51
51 51 51
51 51 51
51 51 51
51 51 51
51 51 51
51 51 51
51 51 51
51 51 51
51 51 51
51 51 51
51 51 51
51 51 51
51 51 51
51 51 51
51 51 51
51 51 51
51 51 51
51 51 51
51 51 51
51 51 51
51 51 51
51 51 51
51 51 51
51 51 51
51 51 51
51 51 51
51 51 51
51 51 51
51 51 51
0 0 115
0 0 116
0 0 117
0 0 118
0 0 118
0 0 119
0 0 120
0 0 120
0 0 121
0 0 121
0 0 122
0 0 123
0 0 123
0 0 124
0 0 124
0 0 125
0 0 125
0 0 126
0 0 126
0 0 126
0 0 127
0 0 127
0 0 128
0 0 128
51 51 51
51 51 51
51 51 51
51 51 51
51 51 51
51 51 51
51 51 51
51 51 51
51 51 51
51 51 51
51 51 51
51 51 51
51 51 51
51 51 51
51 51 51
51 51 51
51 51 51
51 51 51
51 51 51
51 51 51
51 51 51
51 51 51
51 51 51
51 51 51
51 51 51
51 51 51
51 51 51
51 51 51
51 51 51
51 51 51
51 51 51
51 51 51
51 51 51
51 51 51
51 51 51
51 51 51
51 51 51
51 51 51
51 51 51
51 51 51
51 51 51
51 51 51
51 51 51
51 51 51
51 51 51
51 51 51
51 51 51
51 51 51
51 51 51
51 51 51
51 51 51
51 51 51
51 51 51
51 51 51
51 51 51
51 51 51
51 51 51
51 51 51
51 51 51
51 51 51
51 51 51
51 51 51
51 51 51
51 51 51
51 51 51
51 51 51
51 51 51
51 51 51
51 51 51
51 51 51
51 51 51
51 51 51
51 51 51
51 51 51
51 51 51
51 51 51
51 51 51
51 51 51
51 51 51
51 51 51
51 51 51
51 51 51
51 51 51
51 51 51
51 51 51
51 51 51
51 51 51
51 51 51
51 51 51
51 51 51
51 51 51
51 51 51
51 51 51
51 51 51
51 51 51
51 51 51
51 51 51
51 51 51
51 51 51
51 51 51
51 51 51
135 0 0
135 0 0
134 0 0
134 0 0
134 0 0
134 0 0
133 0 0
133 0 0
133 0 0
133 0 0
132 0 0
132 0 0
132 0 0
131 0 0
131 0 0
131 0 0
131 0 0
130 0 0
130 0 0
130 0 0
129 0 0
129 0 0
129 0 0
128 0 0
128 0 0
127 0 0
127 0 0
127 0 0
126 0 0
126 0 0
125 0 0
125 0 0
124 0 0
124 0 0
123 0 0
123 0 0
122 0 0
122 0 0
121 0 0
121 0 0
120 0 0
119 0 0
51 51 51
51 51 51
51 51 51
51 51 51
51 51 51
51 51 51
51 51 51
51 51 51
51 51 51
51 51 51
51 51 51
51 51 51
51 51 51
51 51 51
51 51 51
51 51 51
51 51 51
51 51 51
51 51 51
51 51 51
51 51 51
51 51 51
51 51 51
51 51 51
51 51 51
51 51 51
51 51 51
51 51 51
51 51 51
51 51 51
51 51 51
51 51 51
0 0 115
0 0 116
0 0 117
0 0 117
0 0 118
0 0 119
0 0 119
0 0 120
0 0 121
0 0 121
0 0 122
0 0 122
0 0 123
0 0 123
0 0 124
0 0 124
0 0 125
0 0 125
0 0 126
0 0 126
0 0 127
0 0 127
0 0 127
0 0 128
51 51 51
51 51 51
51 51 51
51 51 51
51 51 51
51 51 51
51 51 51
51 51 51
51 51 51
51 51 51
51 51 51
51 51 51
51 51 51
51 51 51
51 51 51
51 51 51
51 51 51
51 51 51
51 51 51
51 51 51
51 51 51
51 51 51
51 51 51
51 51 51
51 51 51
51 51 51
51 51 51
51 51 51
51 51 51
51 51 51
51 51 51
51 51 51
51 51 51
51 51 51
51 51 51
51 51 51
51 51 51
51 51 51
51 51 51
51 51 51
51 51 51
51 51 51
51 51 51
51 51 51
51 51 51
51 51 51
51 51 51
51 51 51
51 51 51
51 51 51
51 51 51
51 51 51
51 51 51
51 51 51
51 51 51
51 51 51
51 51 51
51 51 51
51 51 51
51 51 51
51 51 51
51 51 51
51 51 51
51 51 51
51 51 51
51 51 51
51 51 51
51 51 51
51 51 51
51 51 51
51 51 51
51 51 51
51 51 51
51 51 51
51 51 51
51 51 51
51 51 51
51 51 51
51 51 51
51 51 51
51 51 51
51 51 51
51 51 51
51 51 51
51 51 51
51 51 51
51 51 51
51 51 51
51 51 51
51 51 51
51 51 51
51 51 51
51 51 51
51 51 51
51 51 51
51 51 51
51 51 51
51 51 51
51 51 51
51 51 51
51 51 51
51 51 51
51 51 51
135 0 0
134 0 0
134 0 0
134 0 0
134 0 0
133 0 0
133 0 0
133 0 0
133 0 0
132 0 0
132 0 0
132 0 0
132 0 0
131 0 0
131 0 0
131 0 0
130 0 0
130 0 0
130 0 0
129 0 0
129 0 0
129 0 0
128 0 0
128 0 0
128 0 0
127 0 0
127 0 0
126 0 0
126 0 0
125 0 0
125 0 0
125 0 0
124 0 0
124 0 0
123 0 0
123 0 0
122 0 0
121 0 0
121 0 0
120 0 0
120 0 0
119 0 0
118 0 0
51 51 51
51 51 51
51 51 51
51 51 51
51 51 51
51 51 51
51 51 51
51 51 51
51 51 51
51 51 51
51 51 51
51 51 51
51 51 51
51 51 51
51 51 51
51 51 51
51 51 51
51 51 51
51 51 51
51 51 51
51 51 51
51 51 51
51 51 51
51 51 51
51 51 51
51 51 51
51 51 51
51 51 51
51 51 51
0 0 115
0 0 115
0 0 116
0 0 117
0 0 118
0 0 118
0 0 119
0 0 120
0 0 120
0 0 121
0 0 121
0 0 122
0 0 123
0 0 123
0 0 124
0 0 124
0 0 125
0 0 125
0 0 125
0 0 126
0 0 126
0 0 127
0 0 127
0 0 128
0 0 128
51 51 51
51 51 51
51 51 51
51 51 51
51 51 51
51 51 51
51 51 51
51 51 51
51 51 51
51 51 51
51 51 51
51 51 51
51 51 51
51 51 51
51 51 51
51 51 51
51 51 51
51 51 51
51 51 51
51 51 51
51 51 51
51 51 51
51 51 51
51 51 51
51 51 51
51 51 51
51 51 51
51 51 51
51 51 51
51 51 51
51 51 51
51 51 51
51 51 51
51 51 51
51 51 51
51 51 51
51 51 51
51 51 51
51 51 51
51 51 51
51 51 51
51 51 51
51 51 51
51 51 51
51 51 51
51 51 51
51 51 51
51 51 51
51 51 51
51 51 51
51 51 51
51 51 51
51 51 51
51 51 51
51 51 51
51 51 51
51 51 51
51 51 51
51 51 51
51 51 51
51 51 51
51 51 51
51 51 51
51 51 51
51 51 51
51 51 51
51 51 51
51 51 51
51 51 51
51 51 51
51 51 51
51 51 51
51 51 51
51 51 51
51 51 51
51 51 51
51 51 51
51 51 51
51 51 51
51 51 51
51 51 51
51 51 51
51 51 51
51 51 51
51 51 51
51 51 51
51 51 51
51 51 51
51 51 51
51 51 51
51 51 51
51 51 51
51 51 51
51 51 51
51 51 51
51 51 51
51 51 51
51 51 51
51 51 51
51 51 51
51 51 51
51 51 51
51 51 51
135 0 0
134 0 0
134 0 0
134 0 0
134 0 0
134 0 0
133 0 0
133 0 0
133 0 0
132 0 0
132 0 0
132 0 0
132 0 0
131 0 0
131 0 0
131 0 0
130 0 0
130 0 0
130 0 0
130 0 0
129 0 0
129 0 0
128 0 0
128 0 0
128 0 0
127 0 0
127 0 0
127 0 0
126 0 0
126 0 0
125 0 0
125 0 0
124 0 0
124 0 0
123 0 0
123 0 0
122 0 0
122 0 0
121 0 0
121 0 0
120 0 0
119 0 0
119 0 0
118 0 0
51 51 51
51 51 51
51 51 51
51 51 51
51 51 51
51 51 51
51 51 51
51 51 51
51 51 51
51 51 51
51 51 51
51 51 51
51 51 51
51 51 51
51 51 51
51 51 51
51 51 51
51 51 51
51 51 51
51 51 51
51 51 51
51 51 51
51 51 51
51 51 51
51 51 51
51 51 51
51 51 51
0 0 114
0 0 115
0 0 116
0 0 117
0 0 117
0 0 118
0 0 119
0 0 119
0 0 120
0 0 121
0 0 121
0 0 122
0 0 122
0 0 123
0 0 123
0 0 124
0 0 124
0 0 125
0 0 125
0 0 126
0 0 126
0 0 127
0 0 127
0 0 127
0 0 128
0 0 128
51 51 51
51 51 51
51 51 51
51 51 51
51 51 51
51 51 51
51 51 51
51 51 51
51 51 51
51 51 51
51 51 51
51 51 51
51 51 51
51 51 51
51 51 51
51 51 51
51 51 51
51 51 51
51 51 51
51 51 51
51 51 51
51 51 51
51 51 51
51 51 51
51 51 51
51 51 51
51 51 51
51 51 51
51 51 51
51 51 51
51 51 51
51 51 51
51 51 51
51 51 51
51 51 51
51 51 51
51 51 51
51 51 51
51 51 51
51 51 51
51 51 51
51 51 51
51 51 51
51 51 51
51 51 51
51 51 51
51 51 51
51 51 51
51 51 51
51 51 51
51 51 51
51 51 51
51 51 51
51 51 51
51 51 51
51 51 51
51 51 51
51 51 51
51 51 51
51 51 51
51 51 51
51 51 51
51 51 51
51 51 51
51 51 51
51 51 51
51 51 51
51 51 51
51 51 51
51 51 51
51 51 51
51 51 51
51 51 51
51 51 51
51 51 51
51 51 51
51 51 51
51 51 51
51 51 51
51 51 51
51 51 51
51 51 51
51 51 51
51 51 51
51 51 51
51 51 51
51 51 51
51 51 51
51 51 51
51 51 51
51 51 51
51 51 51
51 51 51
51 51 51
51 51 51
51 51 51
51 51 51
51 51 51
51 51 51
51 51 51
51 51 51
51 51 51
51 51 51
51 51 51
134 0 0
134 0 0
134 0 0
134 0 0
134 0 0
133 0 0
133 0 0
133 0 0
133 0 0
132 0 0
132 0 0
132 0 0
131 0 0
131 0 0
131 0 0
131 0 0
130 0 0
130 0 0
130 0 0
129 0 0
129 0 0
129 0 0
128 0 0
128 0 0
128 0 0
127 0 0
127 0 0
126 0 0
126 0 0
125 0 0
125 0 0
125 0 0
124 0 0
124 0 0
123 0 0
123 0 0
122 0 0
121 0 0
121 0 0
120 0 0
120 0 0
119 0 0
118 0 0
118 0 0
51 51 51
51 51 51
51 51 51
51 51 51
51 51 51
51 51 51
51 51 51
51 51 51
51 51 51
51 51 51
51 51 51
51 51 51
51 51 51
51 51 51
51 51 51
51 51 51
51 51 51
51 51 51
51 51 51
51 51 51
51 51 51
51 51 51
51 51 51
51 51 51
51 51 51
51 51 51
0 0 115
0 0 116
0 0 116
0 0 117
0 0 118
0 0 118
0 0 119
0 0 120
0 0 120
0 0 121
0 0 121
0 0 122
0 0 123
0 0 123
0 0 124
0 0 124
0 0 125
0 0 125
0 0 125
0 0 126
0 0 126
0 0 127
0 0 127
0 0 128
0 0 128
51 51 51
51 51 51
51 51 51
51 51 51
51 51 51
51 51 51
51 51 51
51 51 51
51 51 51
51 51 51
51 51 51
51 51 51
51 51 51
51 51 51
51 51 51
51 51 51
51 51 51
51 51 51
51 51 51
51 51 51
51 51 51
51 51 51
51 51 51
51 51 51
51 51 51
51 51 51
51 51 51
51 51 51
51 51 51
51 51 51
51 51 51
51 51 51
51 51 51
51 51 51
51 51 51
51 51 51
51 51 51
51 51 51
51 51 51
51 51 51
51 51 51
51 51 51
51 51 51
51 51 51
51 51 51
51 51 51
51 51 51
51 51 51
51 51 51
51 51 51
51 51 51
51 51 51
51 51 51
51 51 51
51 51 51
51 51 51
51 51 51
51 51 51
51 51 51
51 51 51
51 51 51
51 51 51
51 51 51
51 51 51
51 51 51
51 51 51
51 51 51
51 51 51
51 51 51
51 51 51
51 51 51
51 51 51
51 51 51
51 51 51
51 51 51
51 51 51
51 51 51
51 51 51
51 51 51
51 51 51
51 51 51
51 51 51
51 51 51
51 51 51
51 51 51
51 51 51
51 51 51
51 51 51
51 51 51
51 51 51
51 51 51
51 51 51
51 51 51
51 51 51
51 51 51
51 51 51
51 51 51
51 51 51
51 51 51
51 51 51
51 51 51
51 51 51
51 51 51
51 51 51
51 51 51
135 0 0
134 0 0
134 0 0
134 0 0
134 0 0
133 0 0
133 0 0
133 0 0
133 0 0
132 0 0
132 0 0
132 0 0
132 0 0
131 0 0
131 0 0
131 0 0
130 0 0
130 0 0
130 0 0
129 0 0
129 0 0
129 0 0
128 0 0
128 0 0
128 0 0
127 0 0
127 0 0
126 0 0
126 0 0
126 0 0
125 0 0
125 0 0
124 0 0
124 0 0
123 0 0
123 0 0
122 0 0
122 0 0
121 0 0
121 0 0
120 0 0
119 0 0
119 0 0
118 0 0
117 0 0
51 51 51
51 51 51
51 51 51
51 51 51
51 51 51
51 51 51
51 51 51
51 51 51
51 51 51
51 51 51
51 51 51
51 51 51
51 51 51
51 51 51
51 51 51
51 51 51
51 51 51
51 51 51
51 51 51
51 51 51
51 51 51
51 51 51
51 51 51
51 51 51
0 0 115
0 0 115
0 0 116
0 0 117
0 0 117
0 0 118
0 0 119
0 0 119
0 0 120
0 0 121
0 0 121
0 0 122
0 0 122
0 0 123
0 0 123
0 0 124
0 0 124
0 0 125
0 0 125
0 0 126
0 0 126
0 0 126
0 0 127
0 0 127
0 0 128
0 0 128
51 51 51
51 51 51
51 51 51
51 51 51
51 51 51
51 51 51
51 51 51
51 51 51
51 51 51
51 51 51
51 51 51
51 51 51
51 51 51
51 51 51
51 51 51
51 51 51
51 51 51
51 51 51
51 51 51
51 51 51
51 51 51
51 51 51
51 51 51
51 51 51
51 51 51
51 51 51
51 51 51
51 51 51
51 51 51
51 51 51
51 51 51
51 51 51
51 51 51
51 51 51
51 51 51
51 51 51
51 51 51
51 51 51
51 51 51
51 51 51
51 51 51
51 51 51
51 51 51
51 51 51
51 51 51
51 51 51
51 51 51
51 51 51
51 51 51
51 51 51
51 51 51
51 51 51
51 51 51
51 51 51
51 51 51
51 51 51
51 51 51
51 51 51
51 51 51
51 51 51
51 51 51
51 51 51
51 51 51
51 51 51
51 51 51
51 51 51
51 51 51
51 51 51
51 51 51
51 51 51
51 51 51
51 51 51
51 51 51
51 51 51
51 51 51
51 51 51
51 51 51
51 51 51
51 51 51
51 51 51
51 51 51
51 51 51
51 51 51
51 51 51
51 51 51
51 51 51
51 51 51
51 51 51
51 51 51
51 51 51
51 51 51
51 51 51
51 51 51
51 51 51
51 51 51
51 51 51
51 51 51
51 51 51
51 51 51
51 51 51
51 51 51
51 51 51
51 51 51
51 51 51
51 51 51
51 51 51
134 0 0
134 0 0
134 0 0
134 0 0
133 0 0
133 0 0
133 0 0
133 0 0
132 0 0
132 0 0
132 0 0
132 0 0
131 0 0
131 0 0
131 0 0
130 0 0
130 0 0
130 0 0
130 0 0
129 0 0
129 0 0
129 0 0
128 0 0
128 0 0
127 0 0
127 0 0
127 0 0
126 0 0
126 0 0
125 0 0
125 0 0
125 0 0
124 0 0
124 0 0
123 0 0
123 0 0
122 0 0
122 0 0
121 0 0
120 0 0
120 0 0
119 0 0
119 0 0
118 0 0
117 0 0
51 51 51
51 51 51
51 51 51
51 51 51
51 51 51
51 51 51
51 51 51
51 51 51
51 51 51
51 51 51
51 51 51
51 51 51
51 51 51
51 51 51
51 51 51
51 51 51
51 51 51
51 51 51
51 51 51
51 51 51
51 51 51
51 51 51
0 0 114
0 0 115
0 0 116
0 0 117
0 0 117
0 0 118
0 0 119
0 0 119
0 0 120
0 0 120
0 0 121
0 0 122
0 0 122
0 0 123
0 0 123
0 0 124
0 0 124
0 0 125
0 0 125
0 0 125
0 0 126
0 0 126
0 0 127
0 0 127
0 0 127
0 0 128
0 0 128
51 51 51
51 51 51
51 51 51
51 51 51
51 51 51
51 51 51
51 51 51
51 51 51
51 51 51
51 51 51
51 51 51
51 51 51
51 51 51
51 51 51
51 51 51
51 51 51
51 51 51
51 51 51
51 51 51
51 51 51
51 51 51
51 51 51
51 51 51
51 51 51
51 51 51
51 51 51
51 51 51
51 51 51
51 51 51
51 51 51
51 51 51
51 51 51
51 51 51
51 51 51
51 51 51
51 51 51
51 51 51
51 51 51
51 51 51
51 51 51
51 51 51
51 51 51
51 51 51
51 51 51
51 51 51
51 51 51
51 51 51
51 51 51
51 51 51
51 51 51
51 51 51
51 51 51
51 51 51
51 51 51
51 51 51
51 51 51
51 51 51
51 51 51
51 51 51
51 51 51
51 51 51
51 51 51
51 51 51
51 51 51
51 51 51
51 51 51
51 51 51
51 51 51
51 51 51
51 51 51
51 51 51
51 51 51
51 51 51
51 51 51
51 51 51
51 51 51
51 51 51
51 51 51
51 51 51
51 51 51
51 51 51
51 51 51
51 51 51
51 51 51
51 51 51
51 51 51
51 51 51
51 51 51
51 51 51
51 51 51
51 51 51
51 51 51
51 51 51
51 51 51
51 51 51
51 51 51
51 51 51
51 51 51
51 51 51
51 51 51
51 51 51
51 51 51
51 51 51
51 51 51
51 51 51
51 51 51
51 51 51
134 0 0
134 0 0
134 0 0
134 0 0
133 0 0
133 0 0
133 0 0
133 0 0
132 0 0
132 0 0
132 0 0
131 0 0
131 0 0
131 0 0
131 0 0
130 0 0
130 0 0
130 0 0
129 0 0
129 0 0
129 0 0
128 0 0
128 0 0
128 0 0
127 0 0
127 0 0
126 0 0
126 0 0
126 0 0
125 0 0
125 0 0
124 0 0
124 0 0
123 0 0
123 0 0
122 0 0
122 0 0
121 0 0
121 0 0
120 0 0
120 0 0
119 0 0
118 0 0
118 0 0
117 0 0
51 51 51
51 51 51
51 51 51
51 51 51
51 51 51
51 51 51
51 51 51
51 51 51
51 51 51
51 51 51
51 51 51
51 51 51
51 51 51
51 51 51
51 51 51
51 51 51
51 51 51
51 51 51
51 51 51
51 51 51
0 0 114
0 0 115
0 0 115
0 0 116
0 0 117
0 0 118
0 0 118
0 0 119
0 0 120
0 0 120
0 0 121
0 0 121
0 0 122
0 0 122
0 0 123
0 0 123
0 0 124
0 0 124
0 0 125
0 0 125
0 0 126
0 0 126
0 0 126
0 0 127
0 0 127
0 0 128
0 0 128
51 51 51
51 51 51
51 51 51
51 51 51
51 51 51
51 51 51
51 51 51
51 51 51
51 51 51
51 51 51
51 51 51
51 51 51
51 51 51
51 51 51
51 51 51
51 51 51
51 51 51
51 51 51
51 51 51
51 51 51
51 51 51
51 51 51
51 51 51
51 51 51
51 51 51
51 51 51
51 51 51
51 51 51
51 51 51
51 51 51
51 51 51
51 51 51
51 51 51
51 51 51
51 51 51
51 51 51
51 51 51
51 51 51
51 51 51
51 51 51
51 51 51
51 51 51
51 51 51
51 51 51
51 51 51
51 51 51
51 51 51
51 51 51
51 51 51
51 51 51
51 51 51
51 51 51
51 51 51
51 51 51
51 51 51
51 51 51
51 51 51
51 51 51
51 51 51
51 51 51
51 51 51
51 51 51
51 51 51
51 51 51
51 51 51
51 51 51
51 51 51
51 51 51
51 51 51
51 51 51
51 51 51
51 51 51
51 51 51
51 51 51
51 51 51
51 51 51
51 51 51
51 51 51
51 51 51
51 51 51
51 51 51
51 51 51
51 51 51
51 51 51
51 51 51
51 51 51
51 51 51
51 51 51
51 51 51
51 51 51
51 51 51
51 51 51
51 51 51
51 51 51
51 51 51
51 51 51
51 51 51
51 51 51
51 51 51
51 51 51
51 51 51
51 51 51
51 51 51
51 51 51
51 51 51
51 51 51
51 51 51
51 51 51
134 0 0
134 0 0
134 0 0
134 0 0
133 0 0
133 0 0
133 0 0
133 0 0
132 0 0
132 0 0
132 0 0
132 0 0
131 0 0
131 0 0
131 0 0
130 0 0
130 0 0
130 0 0
129 0 0
129 0 0
129 0 0
128 0 0
128 0 0
128 0 0
127 0 0
127 0 0
127 0 0
126 0 0
126 0 0
125 0 0
125 0 0
124 0 0
124 0 0
124 0 0
123 0 0
123 0 0
122 0 0
122 0 0
121 0 0
120 0 0
120 0 0
119 0 0
119 0 0
118 0 0
117 0 0
117 0 0
51 51 51
51 51 51
51 51 51
51 51 51
51 51 51
51 51 51
51 51 51
51 51 51
51 51 51
51 51 51
51 51 51
51 51 51
51 51 51
51 51 51
51 51 51
51 51 51
51 51 51
51 51 51
0 0 114
0 0 114
0 0 115
0 0 116
0 0 117
0 0 117
0 0 118
0 0 119
0 0 119
0 0 120
0 0 120
0 0 121
0 0 122
0 0 122
0 0 123
0 0 123
0 0 124
0 0 124
0 0 124
0 0 125
0 0 125
0 0 126
0 0 126
0 0 127
0 0 127
0 0 127
0 0 128
0 0 128
51 51 51
51 51 51
51 51 51
51 51 51
51 51 51
51 51 51
51 51 51
51 51 51
51 51 51
51 51 51
51 51 51
51 51 51
51 51 51
51 51 51
51 51 51
51 51 51
51 51 51
51 51 51
51 51 51
51 51 51
51 51 51
51 51 51
51 51 51
51 51 51
51 51 51
51 51 51
51 51 51
51 51 51
51 51 51
51 51 51
51 51 51
51 51 51
51 51 51
51 51 51
51 51 51
51 51 51
51 51 51
51 51 51
51 51 51
51 51 51
51 51 51
51 51 51
51 51 51
51 51 51
51 51 51
51 51 51
51 51 51
51 51 51
51 51 51
51 51 51
51 51 51
51 51 51
51 51 51
51 51 51
51 51 51
51 51 51
51 51 51
51 51 51
51 51 51
51 51 51
51 51 51
51 51 51
51 51 51
51 51 51
51 51 51
51 51 51
51 51 51
51 51 51
51 51 51
51 51 51
51 51 51
51 51 51
51 51 51
51 51 51
51 51 51
51 51 51
51 51 51
51 51 51
51 51 51
51 51 51
51 51 51
51 51 51
51 51 51
51 51 51
51 51 51
51 51 51
51 51 51
51 51 51
51 51 51
51 51 51
51 51 51
51 51 51
51 51 51
51 51 51
51 51 51
51 51 51
51 51 51
51 51 51
51 51 51
51 51 51
51 51 51
51 51 51
51 51 51
51 51 51
51 51 51
51 51 51
51 51 51
51 51 51
51 51 51
134 0 0
134 0 0
134 0 0
133 0 0
133 0 0
133 0 0
133 0 0
132 0 0
132 0 0
132 0 0
132 0 0
131 0 0
131 0 0
131 0 0
130 0 0
130 0 0
130 0 0
130 0 0
129 0 0
129 0 0
129 0 0
128 0 0
128 0 0
128 0 0
127 0 0
127 0 0
126 0 0
126 0 0
126 0 0
125 0 0
125 0 0
124 0 0
124 0 0
123 0 0
123 0 0
122 0 0
122 0 0
121 0 0
121 0 0
120 0 0
120 0 0
119 0 0
118 0 0
118 0 0
117 0 0
116 0 0
116 0 0
51 51 51
51 51 51
51 51 51
51 51 51
51 51 51
51 51 51
51 51 51
51 51 51
51 51 51
51 51 51
51 51 51
51 51 51
51 51 51
51 51 51
51 51 51
51 51 51
0 0 114
0 0 115
0 0 116
0 0 116
0 0 117
0 0 118
0 0 118
0 0 119
0 0 120
0 0 120
0 0 121
0 0 121
0 0 122
0 0 122
0 0 123
0 0 123
0 0 124
0 0 124
0 0 125
0 0 125
0 0 126
0 0 126
0 0 126
0 0 127
0 0 127
0 0 128
0 0 128
0 0 128
51 51 51
51 51 51
51 51 51
51 51 51
51 51 51
51 51 51
51 51 51
51 51 51
51 51 51
51 51 51
51 51 51
51 51 51
51 51 51
51 51 51
51 51 51
51 51 51
51 51 51
51 51 51
51 51 51
51 51 51
51 51 51
51 51 51
51 51 51
51 51 51
51 51 51
51 51 51
51 51 51
51 51 51
51 51 51
51 51 51
51 51 51
51 51 51
51 51 51
51 51 51
51 51 51
51 51 51
51 51 51
51 51 51
51 51 51
51 51 51
51 51 51
51 51 51
51 51 51
51 51 51
51 51 51
51 51 51
51 51 51
51 51 51
51 51 51
51 51 51
51 51 51
51 51 51
51 51 51
51 51 51
51 51 51
51 51 51
51 51 51
51 51 51
51 51 51
51 51 51
51 51 51
51 51 51
51 51 51
51 51 51
51 51 51
51 51 51
51 51 51
51 51 51
51 51 51
51 51 51
51 51 51
51 51 51
51 51 51
51 51 51
51 51 51
51 51 51
51 51 51
51 51 51
51 51 51
51 51 51
51 51 51
51 51 51
51 51 51
51 51 51
51 51 51
51 51 51
51 51 51
51 51 51
51 51 51
51 51 51
51 51 51
51 51 51
51 51 51
51 51 51
51 51 51
51 51 51
51 51 51
51 51 51
51 51 51
51 51 51
51 51 51
51 51 51
51 51 51
51 51 51
51 51 51
51 51 51
51 51 51
51 51 51
51 51 51
134 0 0
134 0 0
134 0 0
133 0 0
133 0 0
133 0 0
133 0 0
132 0 0
132 0 0
132 0 0
132 0 0
131 0 0
131 0 0
131 0 0
131 0 0
130 0 0
130 0 0
130 0 0
129 0 0
129 0 0
129 0 0
128 0 0
128 0 0
128 0 0
127 0 0
127 0 0
127 0 0
126 0 0
126 0 0
125 0 0
125 0 0
124 0 0
124 0 0
124 0 0
123 0 0
123 0 0
122 0 0
122 0 0
121 0 0
120 0 0
120 0 0
119 0 0
119 0 0
118 0 0
117 0 0
117 0 0
116 0 0
115 0 0
51 51 51
51 51 51
51 51 51
51 51 51
51 51 51
51 51 51
51 51 51
51 51 51
51 51 51
51 51 51
51 51 51
51 51 51
51 51 51
51 51 51
0 0 114
0 0 115
0 0 115
0 0 116
0 0 117
0 0 117
0 0 118
0 0 119
0 0 119
0 0 120
0 0 120
0 0 121
0 0 122
0 0 122
0 0 123
0 0 123
0 0 124
0 0 124
0 0 124
0 0 125
0 0 125
0 0 126
0 0 126
0 0 127
0 0 127
0 0 127
0 0 128
0 0 128
51 51 51
51 51 51
51 51 51
51 51 51
51 51 51
51 51 51
51 51 51
51 51 51
51 51 51
51 51 51
51 51 51
51 51 51
51 51 51
51 51 51
51 51 51
51 51 51
51 51 51
51 51 51
51 51 51
51 51 51
51 51 51
51 51 51
51 51 51
51 51 51
51 51 51
51 51 51
51 51 51
51 51 51
51 51 51
51 51 51
51 51 51
51 51 51
51 51 51
51 51 51
51 51 51
51 51 51
51 51 51
51 51 51
51 51 51
51 51 51
51 51 51
51 51 51
51 51 51
51 51 51
51 51 51
51 51 51
51 51 51
51 51 51
51 51 51
51 51 51
51 51 51
51 51 51
51 51 51
51 51 51
51 51 51
51 51 51
51 51 51
51 51 51
51 51 51
51 51 51
51 51 51
51 51 51
51 51 51
51 51 51
51 51 51
51 51 51
51 51 51
51 51 51
51 51 51
51 51 51
51 51 51
51 51 51
51 51 51
51 51 51
51 51 51
51 51 51
51 51 51
51 51 51
51 51 51
51 51 51
51 51 51
51 51 51
51 51 51
51 51 51
51 51 51
51 51 51
51 51 51
51 51 51
51 51 51
51 51 51
51 51 51
51 51 51
51 51 51
51 51 51
51 51 51
51 51 51
51 51 51
51 51 51
51 51 51
51 51 51
51 51 51
51 51 51
51 51 51
51 51 51
51 51 51
51 51 51
51 51 51
51 51 51
51 51 51
51 51 51
51 51 51
134 0 0
134 0 0
134 0 0
133 0 0
133 0 0
133 0 0
133 0 0
132 0 0
132 0 0
132 0 0
132 0 0
131 0 0
131 0 0
131 0 0
130 0 0
130 0 0
130 0 0
129 0 0
129 0 0
129 0 0
129 0 0
128 0 0
128 0 0
127 0 0
127 0 0
127 0 0
126 0 0
126 0 0
126 0 0
125 0 0
125 0 0
124 0 0
124 0 0
123 0 0
123 0 0
122 0 0
122 0 0
121 0 0
121 0 0
120 0 0
120 0 0
119 0 0
118 0 0
118 0 0
117 0 0
116 0 0
116 0 0
115 0 0
51 51 51
51 51 51
51 51 51
51 51 51
51 51 51
51 51 51
51 51 51
51 51 51
51 51 51
51 51 51
51 51 51
51 51 51
0 0 113
0 0 114
0 0 115
0 0 116
0 0 116
0 0 117
0 0 118
0 0 118
0 0 119
0 0 120
0 0 120
0 0 121
0 0 121
0 0 122
0 0 122
0 0 123
0 0 123
0 0 124
0 0 124
0 0 125
0 0 125
0 0 126
0 0 126
0 0 126
0 0 127
0 0 127
0 0 127
0 0 128
0 0 128
51 51 51
51 51 51
51 51 51
51 51 51
51 51 51
51 51 51
51 51 51
51 51 51
51 51 51
51 51 51
51 51 51
51 51 51
51 51 51
51 51 51
51 51 51
51 51 51
51 51 51
51 51 51
51 51 51
51 51 51
51 51 51
51 51 51
51 51 51
51 51 51
51 51 51
51 51 51
51 51 51
51 51 51
51 51 51
51 51 51
51 51 51
51 51 51
51 51 51
51 51 51
51 51 51
51 51 51
51 51 51
51 51 51
51 51 51
51 51 51
51 51 51
51 51 51
51 51 51
51 51 51
51 51 51
51 51 51
51 51 51
51 51 51
51 51 51
51 51 51
51 51 51
51 51 51
51 51 51
51 51 51
51 51 51
51 51 51
51 51 51
51 51 51
51 51 51
51 51 51
51 51 51
51 51 51
51 51 51
51 51 51
51 51 51
51 51 51
51 51 51
51 51 51
51 51 51
51 51 51
51 51 51
51 51 51
51 51 51
51 51 51
51 51 51
51 51 51
51 51 51
51 51 51
51 51 51
51 51 51
51 51 51
51 51 51
51 51 51
51 51 51
51 51 51
51 51 51
51 51 51
51 51 51
51 51 51
51 51 51
51 51 51
51 51 51
51 51 51
51 51 51
51 51 51
51 51 51
51 51 51
51 51 51
51 51 51
51 51 51
51 51 51
51 51 51
51 51 51
51 51 51
51 51 51
51 51 51
51 51 51
51 51 51
51 51 51
51 51 51
51 51 51
134 0 0
134 0 0
134 0 0
133 0 0
133 0 0
133 0 0
133 0 0
132 0 0
132 0 0
132 0 0
132 0 0
131 0 0
131 0 0
131 0 0
130 0 0
130 0 0
130 0 0
130 0 0
129 0 0
129 0 0
129 0 0
128 0 0
128 0 0
128 0 0
127 0 0
127 0 0
126 0 0
126 0 0
126 0 0
125 0 0
125 0 0
124 0 0
124 0 0
124 0 0
123 0 0
123 0 0
122 0 0
122 0 0
121 0 0
120 0 0
120 0 0
119 0 0
119 0 0
118 0 0
117 0 0
117 0 0
116 0 0
115 0 0
115 0 0
51 51 51
51 51 51
51 51 51
51 51 51
51 51 51
51 51 51
51 51 51
51 51 51
51 51 51
51 51 51
0 0 113
0 0 114
0 0 115
0 0 115
0 0 116
0 0 117
0 0 117
0 0 118
0 0 119
0 0 119
0 0 120
0 0 120
0 0 121
0 0 122
0 0 122
0 0 123
0 0 123
0 0 124
0 0 124
0 0 124
0 0 125
0 0 125
0 0 126
0 0 126
0 0 126
0 0 127
0 0 127
0 0 128
0 0 128
0 0 128
51 51 51
51 51 51
51 51 51
51 51 51
51 51 51
51 51 51
51 51 51
51 51 51
51 51 51
51 51 51
51 51 51
51 51 51
51 51 51
51 51 51
51 51 51
51 51 51
51 51 51
51 51 51
51 51 51
51 51 51
51 51 51
51 51 51
51 51 51
51 51 51
51 51 51
51 51 51
51 51 51
51 51 51
51 51 51
51 51 51
51 51 51
51 51 51
51 51 51
51 51 51
51 51 51
51 51 51
51 51 51
51 51 51
51 51 51
51 51 51
51 51 51
51 51 51
51 51 51
51 51 51
51 51 51
51 51 51
51 51 51
51 51 51
51 51 51
51 51 51
51 51 51
51 51 51
51 51 51
51 51 51
51 51 51
51 51 51
51 51 51
51 51 51
51 51 51
51 51 51
51 51 51
51 51 51
51 51 51
51 51 51
51 51 51
51 51 51
51 51 51
51 51 51
51 51 51
51 51 51
51 51 51
51 51 51
51 51 51
51 51 51
51 51 51
51 51 51
51 51 51
51 51 51
51 51 51
51 51 51
51 51 51
51 51 51
51 51 51
51 51 51
51 51 51
51 51 51
51 51 51
51 51 51
51 51 51
51 51 51
51 51 51
51 51 51
51 51 51
51 51 51
51 51 51
51 51 51
51 51 51
51 51 51
51 51 51
51 51 51
51 51 51
51 51 51
51 51 51
51 51 51
51 51 51
51 51 51
51 51 51
51 51 51
51 51 51
51 51 51
51 51 51
51 51 51
134 0 0
134 0 0
133 0 0
133 0 0
133 0 0
133 0 0
132 0 0
132 0 0
132 0 0
132 0 0
131 0 0
131 0 0
131 0 0
131 0 0
130 0 0
130 0 0
130 0 0
129 0 0
129 0 0
129 0 0
128 0 0
128 0 0
128 0 0
127 0 0
127 0 0
127 0 0
126 0 0
126 0 0
125 0 0
125 0 0
125 0 0
124 0 0
124 0 0
123 0 0
123 0 0
122 0 0
122 0 0
121 0 0
121 0 0
120 0 0
120 0 0
119 0 0
118 0 0
118 0 0
117 0 0
117 0 0
116 0 0
115 0 0
114 0 0
51 51 51
51 51 51
51 51 51
51 51 51
51 51 51
51 51 51
51 51 51
51 51 51
0 0 113
0 0 114
0 0 114
0 0 115
0 0 116
0 0 117
0 0 117
0 0 118
0 0 118
0 0 119
0 0 120
0 0 120
0 0 121
0 0 121
0 0 122
0 0 122
0 0 123
0 0 123
0 0 124
0 0 124
0 0 125
0 0 125
0 0 125
0 0 126
0 0 126
0 0 127
0 0 127
0 0 127
0 0 128
0 0 128
51 51 51
51 51 51
51 51 51
51 51 51
51 51 51
51 51 51
51 51 51
51 51 51
51 51 51
51 51 51
51 51 51
51 51 51
51 51 51
51 51 51
51 51 51
51 51 51
51 51 51
51 51 51
51 51 51
51 51 51
51 51 51
51 51 51
51 51 51
51 51 51
51 51 51
51 51 51
51 51 51
51 51 51
51 51 51
51 51 51
51 51 51
51 51 51
51 51 51
51 51 51
51 51 51
51 51 51
51 51 51
51 51 51
51 51 51
51 51 51
51 51 51
51 51 51
51 51 51
51 51 51
51 51 51
51 51 51
51 51 51
51 51 51
51 51 51
51 51 51
51 51 51
51 51 51
51 51 51
51 51 51
51 51 51
51 51 51
51 51 51
51 51 51
51 51 51
51 51 51
51 51 51
51 51 51
51 51 51
51 51 51
51 51 51
51 51 51
51 51 51
51 51 51
51 51 51
51 51 51
51 51 51
51 51 51
51 51 51
51 51 51
51 51 51
51 51 51
51 51 51
51 51 51
51 51 51
51 51 51
51 51 51
51 51 51
51 51 51
51 51 51
51 51 51
51 51 51
51 51 51
51 51 51
51 51 51
51 51 51
51 51 51
51 51 51
51 51 51
51 51 51
51 51 51
51 51 51
51 51 51
51 51 51
51 51 51
51 51 51
51 51 51
51 51 51
51 51 51
51 51 51
51 51 51
51 51 51
51 51 51
51 51 51
51 51 51
51 51 51
51 51 51
51 51 51
51 51 51
134 0 0
134 0 0
133 0 0
133 0 0
133 0 0
133 0 0
133 0 0
132 0 0
132 0 0
132 0 0
131 0 0
131 0 0
131 0 0
131 0 0
130 0 0
130 0 0
130 0 0
130 0 0
129 0 0
129 0 0
129 0 0
128 0 0
128 0 0
128 0 0
127 0 0
127 0 0
126 0 0
126 0 0
126 0 0
125 0 0
125 0 0
124 0 0
124 0 0
123 0 0
123 0 0
123 0 0
122 0 0
122 0 0
121 0 0
120 0 0
120 0 0
119 0 0
119 0 0
118 0 0
118 0 0
117 0 0
116 0 0
116 0 0
115 0 0
114 0 0
51 51 51
51 51 51
51 51 51
51 51 51
51 51 51
51 51 51
51 51 51
0 0 113
0 0 114
0 0 115
0 0 116
0 0 116
0 0 117
0 0 118
0 0 118
0 0 119
0 0 119
0 0 120
0 0 120
0 0 121
0 0 122
0 0 122
0 0 123
0 0 123
0 0 123
0 0 124
0 0 124
0 0 125
0 0 125
0 0 126
0 0 126
0 0 126
0 0 127
0 0 127
0 0 128
0 0 128
0 0 128
51 51 51
51 51 51
51 51 51
51 51 51
51 51 51
51 51 51
51 51 51
51 51 51
51 51 51
51 51 51
51 51 51
51 51 51
51 51 51
51 51 51
51 51 51
51 51 51
51 51 51
51 51 51
51 51 51
51 51 51
51 51 51
51 51 51
51 51 51
51 51 51
51 51 51
51 51 51
51 51 51
51 51 51
51 51 51
51 51 51
51 51 51
51 51 51
51 51 51
51 51 51
51 51 51
51 51 51
51 51 51
51 51 51
51 51 51
51 51 51
51 51 51
51 51 51
51 51 51
51 51 51
51 51 51
51 51 51
51 51 51
51 51 51
51 51 51
51 51 51
51 51 51
51 51 51
51 51 51
51 51 51
51 51 51
51 51 51
51 51 51
51 51 51
51 51 51
51 51 51
51 51 51
51 51 51
51 51 51
51 51 51
51 51 51
51 51 51
51 51 51
51 51 51
51 51 51
51 51 51
51 51 51
51 51 51
51 51 51
51 51 51
51 51 51
51 51 51
51 51 51
51 51 51
51 51 51
51 51 51
51 51 51
51 51 51
51 51 51
51 51 51
51 51 51
51 51 51
51 51 51
51 51 51
51 51 51
51 51 51
51 51 51
51 51 51
51 51 51
51 51 51
51 51 51
51 51 51
51 51 51
51 51 51
51 51 51
51 51 51
51 51 51
51 51 51
51 51 51
51 51 51
51 51 51
51 51 51
51 51 51
51 51 51
51 51 51
51 51 51
51 51 51
51 51 51
51 51 51
51 51 51
134 0 0
133 0 0
133 0 0
133 0 0
133 0 0
133 0 0
132 0 0
132 0 0
132 0 0
132 0 0
131 0 0
131 0 0
131 0 0
130 0 0
130 0 0
130 0 0
130 0 0
129 0 0
129 0 0
129 0 0
128 0 0
128 0 0
128 0 0
127 0 0
127 0 0
127 0 0
126 0 0
126 0 0
125 0 0
125 0 0
125 0 0
124 0 0
124 0 0
123 0 0
123 0 0
122 0 0
122 0 0
121 0 0
121 0 0
120 0 0
120 0 0
119 0 0
119 0 0
118 0 0
117 0 0
117 0 0
116 0 0
115 0 0
115 0 0
114 0 0
51 51 51
51 51 51
51 51 51
51 51 51
51 51 51
0 0 113
0 0 114
0 0 115
0 0 115
0 0 116
0 0 117
0 0 117
0 0 118
0 0 119
0 0 119
0 0 120
0 0 120
0 0 121
0 0 121
0 0 122
0 0 122
0 0 123
0 0 123
0 0 124
0 0 124
0 0 125
0 0 125
0 0 125
0 0 126
0 0 126
0 0 127
0 0 127
0 0 127
0 0 128
0 0 128
0 0 128
51 51 51
51 51 51
51 51 51
51 51 51
51 51 51
51 51 51
51 51 51
51 51 51
51 51 51
51 51 51
51 51 51
51 51 51
51 51 51
51 51 51
51 51 51
51 51 51
51 51 51
51 51 51
51 51 51
51 51 51
51 51 51
51 51 51
51 51 51
51 51 51
51 51 51
51 51 51
51 51 51
51 51 51
51 51 51
51 51 51
51 51 51
51 51 51
51 51 51
51 51 51
51 51 51
51 51 51
51 51 51
51 51 51
51 51 51
51 51 51
51 51 51
51 51 51
51 51 51
51 51 51
51 51 51
51 51 51
51 51 51
51 51 51
51 51 51
51 51 51
51 51 51
51 51 51
51 51 51
51 51 51
51 51 51
51 51 51
51 51 51
51 51 51
51 51 51
51 51 51
51 51 51
51 51 51
51 51 51
51 51 51
51 51 51
51 51 51
51 51 51
51 51 51
51 51 51
51 51 51
51 51 51
51 51 51
51 51 51
51 51 51
51 51 51
51 51 51
51 51 51
51 51 51
51 51 51
51 51 51
51 51 51
51 51 51
51 51 51
51 51 51
51 51 51
51 51 51
51 51 51
51 51 51
51 51 51
51 51 51
51 51 51
51 51 51
51 51 51
51 51 51
51 51 51
51 51 51
51 51 51
51 51 51
51 51 51
51 51 51
51 51 51
51 51 51
51 51 51
51 51 51
51 51 51
51 51 51
51 51 51
51 51 51
51 51 51
51 51 51
51 51 51
51 51 51
51 51 51
51 51 51
134 0 0
134 0 0
133 0 0
133 0 0
133 0 0
133 0 0
132 0 0
132 0 0
132 0 0
132 0 0
131 0 0
131 0 0
131 0 0
131 0 0
130 0 0
130 0 0
130 0 0
129 0 0
129 0 0
129 0 0
128 0 0
128 0 0
128 0 0
127 0 0
127 0 0
127 0 0
126 0 0
126 0 0
126 0 0
125 0 0
125 0 0
124 0 0
124 0 0
123 0 0
123 0 0
123 0 0
122 0 0
122 0 0
121 0 0
121 0 0
120 0 0
119 0 0
119 0 0
118 0 0
118 0 0
117 0 0
116 0 0
116 0 0
115 0 0
114 0 0
113 0 0
113 0 0
51 51 51
51 51 51
0 0 113
0 0 113
0 0 114
0 0 115
0 0 116
0 0 116
0 0 117
0 0 118
0 0 118
0 0 119
0 0 119
0 0 120
0 0 121
0 0 121
0 0 122
0 0 122
0 0 123
0 0 123
0 0 123
0 0 124
0 0 124
0 0 125
0 0 125
0 0 126
0 0 126
0 0 126
0 0 127
0 0 127
0 0 127
0 0 128
0 0 128
51 51 51
51 51 51
51 51 51
51 51 51
51 51 51
51 51 51
51 51 51
51 51 51
51 51 51
51 51 51
51 51 51
51 51 51
51 51 51
51 51 51
51 51 51
51 51 51
51 51 51
51 51 51
51 51 51
51 51 51
51 51 51
51 51 51
51 51 51
51 51 51
51 51 51
51 51 51
51 51 51
51 51 51
51 51 51
51 51 51
51 51 51
51 51 51
51 51 51
51 51 51
51 51 51
51 51 51
51 51 51
51 51 51
51 51 51
51 51 51
51 51 51
51 51 51
51 51 51
51 51 51
51 51 51
51 51 51
51 51 51
51 51 51
51 51 51
51 51 51
51 51 51
51 51 51
51 51 51
51 51 51
51 51 51
51 51 51
51 51 51
51 51 51
51 51 51
51 51 51
51 51 51
51 51 51
51 51 51
51 51 51
51 51 51
51 51 51
51 51 51
51 51 51
51 51 51
51 51 51
51 51 51
51 51 51
51 51 51
51 51 51
51 51 51
51 51 51
51 51 51
51 51 51
51 51 51
51 51 51
51 51 51
51 51 51
51 51 51
51 51 51
51 51 51
51 51 51
51 51 51
51 51 51
51 51 51
51 51 51
51 51 51
51 51 51
51 51 51
51 51 51
51 51 51
51 51 51
51 51 51
51 51 51
51 51 51
51 51 51
51 51 51
51 51 51
51 51 51
51 51 51
51 51 51
51 51 51
51 51 51
51 51 51
51 51 51
51 51 51
51 51 51
51 51 51
51 51 51
51 51 51
51 51 51
51 51 51
134 0 0
133 0 0
133 0 0
133 0 0
133 0 0
132 0 0
132 0 0
132 0 0
132 0 0
131 0 0
131 0 0
131 0 0
131 0 0
130 0 0
130 0 0
130 0 0
130 0 0
129 0 0
129 0 0
129 0 0
128 0 0
128 0 0
128 0 0
127 0 0
127 0 0
127 0 0
126 0 0
126 0 0
125 0 0
125 0 0
125 0 0
124 0 0
124 0 0
123 0 0
123 0 0
122 0 0
122 0 0
121 0 0
121 0 0
120 0 0
120 0 0
119 0 0
119 0 0
118 0 0
117 0 0
117 0 0
116 0 0
115 0 0
115 0 0
114 0 0
113 0 0
112 0 0
0 0 112
0 0 113
0 0 114
0 0 115
0 0 115
0 0 116
0 0 117
0 0 117
0 0 118
0 0 119
0 0 119
0 0 120
0 0 120
0 0 121
0 0 121
0 0 122
0 0 122
0 0 123
0 0 123
0 0 124
0 0 124
0 0 125
0 0 125
0 0 125
0 0 126
0 0 126
0 0 127
0 0 127
0 0 127
0 0 128
0 0 128
0 0 128
51 51 51
51 51 51
51 51 51
51 51 51
51 51 51
51 51 51
51 51 51
51 51 51
51 51 51
51 51 51
51 51 51
51 51 51
51 51 51
51 51 51
51 51 51
51 51 51
51 51 51
51 51 51
51 51 51
51 51 51
51 51 51
51 51 51
51 51 51
51 51 51
51 51 51
51 51 51
51 51 51
51 51 51
51 51 51
51 51 51
51 51 51
51 51 51
51 51 51
51 51 51
51 51 51
51 51 51
51 51 51
51 51 51
51 51 51
51 51 51
51 51 51
51 51 51
51 51 51
51 51 51
51 51 51
51 51 51
51 51 51
51 51 51
51 51 51
51 51 51
51 51 51
51 51 51
51 51 51
51 51 51
51 51 51
51 51 51
51 51 51
51 51 51
51 51 51
51 51 51
51 51 51
51 51 51
51 51 51
51 51 51
51 51 51
51 51 51
51 51 51
51 51 51
51 51 51
51 51 51
51 51 51
51 51 51
51 51 51
51 51 51
51 51 51
51 51 51
51 51 51
51 51 51
51 51 51
51 51 51
51 51 51
51 51 51
51 51 51
51 51 51
51 51 51
51 51 51
51 51 51
51 51 51
51 51 51
51 51 51
51 51 51
51 51 51
51 51 51
51 51 51
51 51 51
51 51 51
51 51 51
51 51 51
51 51 51
51 51 51
51 51 51
51 51 51
51 51 51
51 51 51
51 51 51
51 51 51
51 51 51
51 51 51
51 51 51
51 51 51
51 51 51
51 51 51
51 51 51
51 51 51
51 51 51
51 51 51
51 51 51
133 0 0
133 0 0
133 0 0
133 0 0
133 0 0
132 0 0
132 0 0
132 0 0
132 0 0
131 0 0
131 0 0
131 0 0
130 0 0
130 0 0
130 0 0
130 0 0
129 0 0
129 0 0
129 0 0
128 0 0
128 0 0
128 0 0
127 0 0
127 0 0
127 0 0
126 0 0
126 0 0
126 0 0
125 0 0
125 0 0
124 0 0
124 0 0
123 0 0
123 0 0
123 0 0
122 0 0
122 0 0
121 0 0
121 0 0
120 0 0
119 0 0
119 0 0
118 0 0
118 0 0
117 0 0
116 0 0
116 0 0
115 0 0
114 0 0
114 0 0
113 0 0
0 0 113
0 0 114
0 0 114
0 0 115
0 0 116
0 0 116
0 0 117
0 0 118
0 0 118
0 0 119
0 0 119
0 0 120
0 0 121
0 0 121
0 0 122
0 0 122
0 0 123
0 0 123
0 0 123
0 0 124
0 0 124
0 0 125
0 0 125
0 0 126
0 0 126
0 0 126
0 0 127
0 0 127
0 0 127
0 0 128
0 0 128
0 0 128
51 51 51
51 51 51
51 51 51
51 51 51
51 51 51
51 51 51
51 51 51
51 51 51
51 51 51
51 51 51
51 51 51
51 51 51
51 51 51
51 51 51
51 51 51
51 51 51
51 51 51
51 51 51
51 51 51
51 51 51
51 51 51
51 51 51
51 51 51
51 51 51
51 51 51
51 51 51
51 51 51
51 51 51
51 51 51
51 51 51
51 51 51
51 51 51
51 51 51
51 51 51
51 51 51
51 51 51
51 51 51
51 51 51
51 51 51
51 51 51
51 51 51
51 51 51
51 51 51
51 51 51
51 51 51
51 51 51
51 51 51
51 51 51
51 51 51
51 51 51
51 51 51
51 51 51
51 51 51
51 51 51
51 51 51
51 51 51
51 51 51
51 51 51
51 51 51
51 51 51
51 51 51
51 51 51
51 51 51
51 51 51
51 51 51
51 51 51
51 51 51
51 51 51
51 51 51
51 51 51
51 51 51
51 51 51
51 51 51
51 51 51
51 51 51
51 51 51
51 51 51
51 51 51
51 51 51
51 51 51
51 51 51
51 51 51
51 51 51
51 51 51
51 51 51
51 51 51
51 51 51
51 51 51
51 51 51
51 51 51
51 51 51
51 51 51
51 51 51
51 51 51
51 51 51
51 51 51
51 51 51
51 51 51
51 51 51
51 51 51
51 51 51
51 51 51
51 51 51
51 51 51
51 51 51
51 51 51
51 51 51
51 51 51
51 51 51
51 51 51
51 51 51
51 51 51
51 51 51
51 51 51
51 51 51
51 51 51
51 51 51
133 0 0
133 0 0
133 0 0
133 0 0
133 0 0
132 0 0
132 0 0
132 0 0
132 0 0
131 0 0
131 0 0
131 0 0
131 0 0
130 0 0
130 0 0
130 0 0
129 0 0
129 0 0
129 0 0
128 0 0
128 0 0
128 0 0
128 0 0
127 0 0
127 0 0
126 0 0
126 0 0
126 0 0
125 0 0
125 0 0
124 0 0
124 0 0
124 0 0
123 0 0
123 0 0
122 0 0
122 0 0
121 0 0
121 0 0
120 0 0
120 0 0
119 0 0
119 0 0
118 0 0
117 0 0
117 0 0
116 0 0
115 0 0
115 0 0
114 0 0
113 0 0
0 0 113
0 0 114
0 0 115
0 0 115
0 0 116
0 0 117
0 0 117
0 0 118
0 0 119
0 0 119
0 0 120
0 0 120
0 0 121
0 0 121
0 0 122
0 0 122
0 0 123
0 0 123
0 0 124
0 0 124
0 0 124
0 0 125
0 0 125
0 0 126
0 0 126
0 0 126
0 0 127
0 0 127
0 0 128
0 0 128
0 0 128
51 51 51
51 51 51
51 51 51
51 51 51
51 51 51
51 51 51
51 51 51
51 51 51
51 51 51
51 51 51
51 51 51
51 51 51
51 51 51
51 51 51
51 51 51
51 51 51
51 51 51
51 51 51
51 51 51
51 51 51
51 51 51
51 51 51
51 51 51
51 51 51
51 51 51
51 51 51
51 51 51
51 51 51
51 51 51
51 51 51
51 51 51
51 51 51
51 51 51
51 51 51
51 51 51
51 51 51
51 51 51
51 51 51
51 51 51
51 51 51
51 51 51
51 51 51
51 51 51
51 51 51
51 51 51
51 51 51
51 51 51
51 51 51
51 51 51
51 51 51
51 51 51
51 51 51
51 51 51
51 51 51
51 51 51
51 51 51
51 51 51
51 51 51
51 51 51
51 51 51
51 51 51
51 51 51
51 51 51
51 51 51
51 51 51
51 51 51
51 51 51
51 51 51
51 51 51
51 51 51
51 51 51
51 51 51
51 51 51
51 51 51
51 51 51
51 51 51
51 51 51
51 51 51
51 51 51
51 51 51
51 51 51
51 51 51
51 51 51
51 51 51
51 51 51
51 51 51
51 51 51
51 51 51
51 51 51
51 51 51
51 51 51
51 51 51
51 51 51
51 51 51
51 51 51
51 51 51
51 51 51
51 51 51
51 51 51
51 51 51
51 51 51
51 51 51
51 51 51
51 51 51
51 51 51
51 51 51
51 51 51
51 51 51
51 51 51
51 51 51
51 51 51
51 51 51
51 51 51
51 51 51
51 51 51
51 51 51
51 51 51
51 51 51
51 51 51
133 0 0
133 0 0
133 0 0
133 0 0
132 0 0
132 0 0
132 0 0
132 0 0
131 0 0
131 0 0
131 0 0
131 0 0
130 0 0
130 0 0
130 0 0
130 0 0
129 0 0
129 0 0
129 0 0
128 0 0
128 0 0
128 0 0
127 0 0
127 0 0
127 0 0
126 0 0
126 0 0
125 0 0
125 0 0
125 0 0
124 0 0
124 0 0
123 0 0
123 0 0
122 0 0
122 0 0
122 0 0
121 0 0
121 0 0
120 0 0
119 0 0
119 0 0
118 0 0
118 0 0
117 0 0
117 0 0
116 0 0
115 0 0
114 0 0
114 0 0
0 0 114
0 0 114
0 0 115
0 0 116
0 0 117
0 0 117
0 0 118
0 0 118
0 0 119
0 0 119
0 0 120
0 0 121
0 0 121
0 0 122
0 0 122
0 0 122
0 0 123
0 0 123
0 0 124
0 0 124
0 0 125
0 0 125
0 0 125
0 0 126
0 0 126
0 0 127
0 0 127
0 0 127
0 0 128
0 0 128
0 0 128
51 51 51
51 51 51
51 51 51
51 51 51
51 51 51
51 51 51
51 51 51
51 51 51
51 51 51
51 51 51
51 51 51
51 51 51
51 51 51
51 51 51
51 51 51
51 51 51
51 51 51
51 51 51
51 51 51
51 51 51
51 51 51
51 51 51
51 51 51
51 51 51
51 51 51
51 51 51
51 51 51
51 51 51
51 51 51
51 51 51
51 51 51
51 51 51
51 51 51
51 51 51
51 51 51
51 51 51
51 51 51
51 51 51
51 51 51
51 51 51
51 51 51
51 51 51
51 51 51
51 51 51
51 51 51
51 51 51
51 51 51
51 51 51
51 51 51
51 51 51
51 51 51
51 51 51
51 51 51
51 51 51
51 51 51
51 51 51
51 51 51
51 51 51
51 51 51
51 51 51
51 51 51
51 51 51
51 51 51
51 51 51
51 51 51
51 51 51
51 51 51
51 51 51
51 51 51
51 51 51
51 51 51
51 51 51
51 51 51
51 51 51
51 51 51
51 51 51
51 51 51
51 51 51
51 51 51
51 51 51
51 51 51
51 51 51
51 51 51
51 51 51
51 51 51
51 51 51
51 51 51
51 51 51
51 51 51
51 51 51
51 51 51
51 51 51
51 51 51
51 51 51
51 51 51
51 51 51
51 51 51
51 51 51
51 51 51
51 51 51
51 51 51
51 51 51
51 51 51
51 51 51
51 51 51
51 51 51
51 51 51
51 51 51
51 51 51
51 51 51
51 51 51
51 51 51
51 51 51
51 51 51
51 51 51
51 51 51
51 51 51
51 51 51
51 51 51
133 0 0
133 0 0
133 0 0
133 0 0
132 0 0
132 0 0
132 0 0
132 0 0
131 0 0
131 0 0
131 0 0
131 0 0
130 0 0
130 0 0
130 0 0
130 0 0
129 0 0
129 0 0
129 0 0
128 0 0
128 0 0
128 0 0
127 0 0
127 0 0
127 0 0
126 0 0
126 0 0
126 0 0
125 0 0
125 0 0
124 0 0
124 0 0
124 0 0
123 0 0
123 0 0
122 0 0
122 0 0
121 0 0
121 0 0
120 0 0
120 0 0
119 0 0
119 0 0
118 0 0
117 0 0
117 0 0
116 0 0
116 0 0
115 0 0
114 0 0
0 0 114
0 0 115
0 0 116
0 0 116
0 0 117
0 0 117
0 0 118
0 0 119
0 0 119
0 0 120
0 0 120
0 0 121
0 0 121
0 0 122
0 0 122
0 0 123
0 0 123
0 0 124
0 0 124
0 0 124
0 0 125
0 0 125
0 0 126
0 0 126
0 0 126
0 0 127
0 0 127
0 0 127
0 0 128
0 0 128
0 0 128
51 51 51
51 51 51
51 51 51
51 51 51
51 51 51
51 51 51
51 51 51
51 51 51
51 51 51
51 51 51
51 51 51
51 51 51
51 51 51
51 51 51
51 51 51
51 51 51
51 51 51
51 51 51
51 51 51
51 51 51
51 51 51
51 51 51
51 51 51
51 51 51
51 51 51
51 51 51
51 51 51
51 51 51
51 51 51
51 51 51
51 51 51
51 51 51
51 51 51
51 51 51
51 51 51
51 51 51
51 51 51
51 51 51
51 51 51
51 51 51
51 51 51
51 51 51
51 51 51
51 51 51
51 51 51
51 51 51
51 51 51
51 51 51
51 51 51
51 51 51
51 51 51
51 51 51
51 51 51
51 51 51
51 51 51
51 51 51
51 51 51
51 51 51
51 51 51
51 51 51
51 51 51
51 51 51
51 51 51
51 51 51
51 51 51
51 51 51
51 51 51
51 51 51
51 51 51
51 51 51
51 51 51
51 51 51
51 51 51
51 51 51
51 51 51
51 51 51
51 51 51
51 51 51
51 51 51
51 51 51
51 51 51
51 51 51
51 51 51
51 51 51
51 51 51
51 51 51
51 51 51
51 51 51
51 51 51
51 51 51
51 51 51
51 51 51
51 51 51
51 51 51
51 51 51
51 51 51
51 51 51
51 51 51
51 51 51
51 51 51
51 51 51
51 51 51
51 51 51
51 51 51
51 51 51
51 51 51
51 51 51
51 51 51
51 51 51
51 51 51
51 51 51
51 51 51
51 51 51
51 51 51
51 51 51
51 51 51
51 51 51
51 51 51
51 51 51
51 51 51
133 0 0
133 0 0
133 0 0
133 0 0
132 0 0
132 0 0
132 0 0
132 0 0
131 0 0
131 0 0
131 0 0
131 0 0
130 0 0
130 0 0
130 0 0
129 0 0
129 0 0
129 0 0
129 0 0
128 0 0
128 0 0
128 0 0
127 0 0
127 0 0
127 0 0
126 0 0
126 0 0
125 0 0
125 0 0
125 0 0
124 0 0
124 0 0
123 0 0
123 0 0
122 0 0
122 0 0
122 0 0
121 0 0
121 0 0
120 0 0
119 0 0
119 0 0
118 0 0
118 0 0
117 0 0
117 0 0
116 0 0
115 0 0
115 0 0
0 0 115
0 0 115
0 0 116
0 0 117
0 0 117
0 0 118
0 0 118
0 0 119
0 0 119
0 0 120
0 0 121
0 0 121
0 0 122
0 0 122
0 0 122
0 0 123
0 0 123
0 0 124
0 0 124
0 0 125
0 0 125
0 0 125
0 0 126
0 0 126
0 0 127
0 0 127
0 0 127
0 0 128
0 0 128
0 0 128
51 51 51
51 51 51
51 51 51
51 51 51
51 51 51
51 51 51
51 51 51
51 51 51
51 51 51
51 51 51
51 51 51
51 51 51
51 51 51
51 51 51
51 51 51
51 51 51
51 51 51
51 51 51
51 51 51
51 51 51
51 51 51
51 51 51
51 51 51
51 51 51
51 51 51
51 51 51
51 51 51
51 51 51
51 51 51
51 51 51
51 51 51
51 51 51
51 51 51
51 51 51
51 51 51
51 51 51
51 51 51
51 51 51
51 51 51
51 51 51
51 51 51
51 51 51
51 51 51
51 51 51
51 51 51
51 51 51
51 51 51
51 51 51
51 51 51
51 51 51
51 51 51
51 51 51
51 51 51
51 51 51
51 51 51
51 51 51
51 51 51
51 51 51
51 51 51
51 51 51
51 51 51
51 51 51
51 51 51
51 51 51
51 51 51
51 51 51
51 51 51
51 51 51
51 51 51
51 51 51
51 51 51
51 51 51
51 51 51
51 51 51
51 51 51
51 51 51
51 51 51
51 51 51
51 51 51
51 51 51
51 51 51
51 51 51
51 51 51
51 51 51
51 51 51
51 51 51
51 51 51
51 51 51
51 51 51
51 51 51
51 51 51
51 51 51
51 51 51
51 51 51
51 51 51
51 51 51
51 51 51
51 51 51
51 51 51
51 51 51
51 51 51
51 51 51
51 51 51
51 51 51
51 51 51
51 51 51
51 51 51
51 51 51
51 51 51
51 51 51
51 51 51
51 51 51
51 51 51
51 51 51
51 51 51
51 51 51
51 51 51
51 51 51
51 51 51
51 51 51
51 51 51
133 0 0
133 0 0
133 0 0
133 0 0
132 0 0
132 0 0
132 0 0
132 0 0
131 0 0
131 0 0
131 0 0
131 0 0
130 0 0
130 0 0
130 0 0
130 0 0
129 0 0
129 0 0
129 0 0
128 0 0
128 0 0
128 0 0
127 0 0
127 0 0
127 0 0
126 0 0
126 0 0
126 0 0
125 0 0
125 0 0
124 0 0
124 0 0
124 0 0
123 0 0
123 0 0
122 0 0
122 0 0
121 0 0
121 0 0
120 0 0
120 0 0
119 0 0
119 0 0
118 0 0
118 0 0
117 0 0
116 0 0
116 0 0
115 0 0
0 0 115
0 0 116
0 0 116
0 0 117
0 0 118
0 0 118
0 0 119
0 0 119
0 0 120
0 0 120
0 0 121
0 0 121
0 0 122
0 0 122
0 0 123
0 0 123
0 0 124
0 0 124
0 0 124
0 0 125
0 0 125
0 0 126
0 0 126
0 0 126
0 0 127
0 0 127
0 0 127
0 0 128
0 0 128
0 0 128
51 51 51
51 51 51
51 51 51
51 51 51
51 51 51
51 51 51
51 51 51
51 51 51
51 51 51
51 51 51
51 51 51
51 51 51
51 51 51
51 51 51
51 51 51
51 51 51
51 51 51
51 51 51
51 51 51
51 51 51
51 51 51
51 51 51
51 51 51
51 51 51
51 51 51
51 51 51
51 51 51
51 51 51
51 51 51
51 51 51
51 51 51
51 51 51
51 51 51
51 51 51
51 51 51
51 51 51
51 51 51
51 51 51
51 51 51
51 51 51
51 51 51
51 51 51
51 51 51
51 51 51
51 51 51
51 51 51
51 51 51
51 51 51
51 51 51
51 51 51
51 51 51
51 51 51
51 51 51
51 51 51
51 51 51
51 51 51
51 51 51
51 51 51
51 51 51
51 51 51
51 51 51
51 51 51
51 51 51
51 51 51
51 51 51
51 51 51
51 51 51
51 51 51
51 51 51
51 51 51
51 51 51
51 51 51
51 51 51
51 51 51
51 51 51
51 51 51
51 51 51
51 51 51
51 51 51
51 51 51
51 51 51
51 51 51
51 51 51
51 51 51
51 51 51
51 51 51
51 51 51
51 51 51
51 51 51
51 51 51
51 51 51
51 51 51
51 51 51
51 51 51
51 51 51
51 51 51
51 51 51
51 51 51
51 51 51
51 51 51
51 51 51
51 51 51
51 51 51
51 51 51
51 51 51
51 51 51
51 51 51
51 51 51
51 51 51
51 51 51
51 51 51
51 51 51
51 51 51
51 51 51
51 51 51
51 51 51
51 51 51
51 51 51
51 51 51
51 51 51
51 51 51
51 51 51
133 0 0
133 0 0
133 0 0
132 0 0
132 0 0
132 0 0
132 0 0
131 0 0
131 0 0
131 0 0
131 0 0
130 0 0
130 0 0
130 0 0
130 0 0
129 0 0
129 0 0
129 0 0
128 0 0
128 0 0
128 0 0
127 0 0
127 0 0
127 0 0
126 0 0
126 0 0
126 0 0
125 0 0
125 0 0
125 0 0
124 0 0
124 0 0
123 0 0
123 0 0
122 0 0
122 0 0
122 0 0
121 0 0
121 0 0
120 0 0
120 0 0
119 0 0
118 0 0
118 0 0
117 0 0
117 0 0
116 0 0
115 0 0
0 0 115
0 0 116
0 0 117
0 0 117
0 0 118
0 0 118
0 0 119
0 0 120
0 0 120
0 0 121
0 0 121
0 0 122
0 0 122
0 0 122
0 0 123
0 0 123
0 0 124
0 0 124
0 0 125
0 0 125
0 0 125
0 0 126
0 0 126
0 0 126
0 0 127
0 0 127
0 0 127
0 0 128
0 0 128
0 0 128
51 51 51
51 51 51
51 51 51
51 51 51
51 51 51
51 51 51
51 51 51
51 51 51
51 51 51
51 51 51
51 51 51
51 51 51
51 51 51
51 51 51
51 51 51
51 51 51
51 51 51
51 51 51
51 51 51
51 51 51
51 51 51
51 51 51
51 51 51
51 51 51
51 51 51
51 51 51
51 51 51
51 51 51
51 51 51
51 51 51
51 51 51
51 51 51
51 51 51
51 51 51
51 51 51
51 51 51
51 51 51
51 51 51
51 51 51
51 51 51
51 51 51
51 51 51
51 51 51
51 51 51
51 51 51
51 51 51
51 51 51
51 51 51
51 51 51
51 51 51
51 51 51
51 51 51
51 51 51
51 51 51
51 51 51
51 51 51
51 51 51
51 51 51
51 51 51
51 51 51
51 51 51
51 51 51
51 51 51
51 51 51
51 51 51
51 51 51
51 51 51
51 51 51
51 51 51
51 51 51
51 51 51
51 51 51
51 51 51
51 51 51
51 51 51
51 51 51
51 51 51
51 51 51
51 51 51
51 51 51
51 51 51
51 51 51
51 51 51
51 51 51
51 51 51
51 51 51
51 51 51
51 51 51
51 51 51
51 51 51
51 51 51
51 51 51
51 51 51
51 51 51
51 51 51
51 51 51
51 51 51
51 51 51
51 51 51
51 51 51
51 51 51
51 51 51
51 51 51
51 51 51
51 51 51
51 51 51
51 51 51
51 51 51
51 51 51
51 51 51
51 51 51
51 51 51
51 51 51
51 51 51
51 51 51
51 51 51
51 51 51
51 51 51
51 51 51
51 51 51
51 51 51
51 51 51
133 0 0
133 0 0
133 0 0
132 0 0
132 0 0
132 0 0
132 0 0
132 0 0
131 0 0
131 0 0
131 0 0
131 0 0
130 0 0
130 0 0
130 0 0
129 0 0
129 0 0
129 0 0
129 0 0
128 0 0
128 0 0
128 0 0
127 0 0
127 0 0
127 0 0
126 0 0
126 0 0
126 0 0
125 0 0
125 0 0
124 0 0
124 0 0
124 0 0
123 0 0
123 0 0
122 0 0
122 0 0
121 0 0
121 0 0
120 0 0
120 0 0
119 0 0
119 0 0
118 0 0
118 0 0
117 0 0
116 0 0
116 0 0
0 0 116
0 0 116
0 0 117
0 0 118
0 0 118
0 0 119
0 0 119
0 0 120
0 0 120
0 0 121
0 0 121
0 0 122
0 0 122
0 0 123
0 0 123
0 0 124
0 0 124
0 0 124
0 0 125
0 0 125
0 0 126
0 0 126
0 0 126
0 0 127
0 0 127
0 0 127
0 0 128
0 0 128
0 0 128
51 51 51
51 51 51
51 51 51
51 51 51
51 51 51
51 51 51
51 51 51
51 51 51
51 51 51
51 51 51
51 51 51
51 51 51
51 51 51
51 51 51
51 51 51
51 51 51
51 51 51
51 51 51
51 51 51
51 51 51
51 51 51
51 51 51
51 51 51
51 51 51
51 51 51
51 51 51
51 51 51
51 51 51
51 51 51
51 51 51
51 51 51
51 51 51
51 51 51
51 51 51
51 51 51
51 51 51
51 51 51
51 51 51
51 51 51
51 51 51
51 51 51
51 51 51
51 51 51
51 51 51
51 51 51
51 51 51
51 51 51
51 51 51
51 51 51
51 51 51
51 51 51
51 51 51
51 51 51
51 51 51
51 51 51
51 51 51
51 51 51
51 51 51
51 51 51
51 51 51
51 51 51
51 51 51
51 51 51
51 51 51
51 51 51
51 51 51
51 51 51
51 51 51
51 51 51
51 51 51
51 51 51
51 51 51
51 51 51
51 51 51
51 51 51
51 51 51
51 51 51
51 51 51
51 51 51
51 51 51
51 51 51
51 51 51
51 51 51
51 51 51
51 51 51
51 51 51
51 51 51
51 51 51
51 51 51
51 51 51
51 51 51
51 51 51
51 51 51
51 51 51
51 51 51
51 51 51
51 51 51
51 51 51
51 51 51
51 51 51
51 51 51
51 51 51
51 51 51
51 51 51
51 51 51
51 51 51
51 51 51
51 51 51
51 51 51
51 51 51
51 51 51
51 51 51
51 51 51
51 51 51
51 51 51
51 51 51
51 51 51
51 51 51
51 51 51
51 51 51
51 51 51
51 51 51
51 51 51
51 51 51
133 0 0
133 0 0
133 0 0
132 0 0
132 0 0
132 0 0
132 0 0
131 0 0
131 0 0
131 0 0
131 0 0
130 0 0
130 0 0
130 0 0
130 0 0
129 0 0
129 0 0
129 0 0
128 0 0
128 0 0
128 0 0
127 0 0
127 0 0
127 0 0
126 0 0
126 0 0
126 0 0
125 0 0
125 0 0
125 0 0
124 0 0
124 0 0
123 0 0
123 0 0
122 0 0
122 0 0
122 0 0
121 0 0
121 0 0
120 0 0
120 0 0
119 0 0
118 0 0
118 0 0
117 0 0
117 0 0
116 0 0
0 0 116
0 0 117
0 0 117
0 0 118
0 0 118
0 0 119
0 0 120
0 0 120
0 0 121
0 0 121
0 0 122
0 0 122
0 0 122
0 0 123
0 0 123
0 0 124
0 0 124
0 0 125
0 0 125
0 0 125
0 0 126
0 0 126
0 0 126
0 0 127
0 0 127
0 0 127
0 0 128
0 0 128
0 0 128
51 51 51
51 51 51
51 51 51
51 51 51
51 51 51
51 51 51
51 51 51
51 51 51
51 51 51
51 51 51
51 51 51
51 51 51
51 51 51
51 51 51
51 51 51
51 51 51
51 51 51
51 51 51
51 51 51
51 51 51
51 51 51
51 51 51
51 51 51
51 51 51
51 51 51
51 51 51
51 51 51
51 51 51
51 51 51
51 51 51
51 51 51
51 51 51
51 51 51
51 51 51
51 51 51
51 51 51
51 51 51
51 51 51
51 51 51
51 51 51
51 51 51
51 51 51
51 51 51
51 51 51
51 51 51
51 51 51
51 51 51
51 51 51
51 51 51
51 51 51
51 51 51
51 51 51
51 51 51
51 51 51
51 51 51
51 51 51
51 51 51
51 51 51
51 51 51
51 51 51
51 51 51
51 51 51
51 51 51
51 51 51
51 51 51
51 51 51
51 51 51
51 51 51
51 51 51
51 51 51
51 51 51
51 51 51
51 51 51
51 51 51
51 51 51
51 51 51
51 51 51
51 51 51
51 51 51
51 51 51
51 51 51
51 51 51
51 51 51
51 51 51
51 51 51
51 51 51
51 51 51
51 51 51
51 51 51
51 51 51
51 51 51
51 51 51
51 51 51
51 51 51
51 51 51
51 51 51
51 51 51
51 51 51
51 51 51
51 51 51
51 51 51
51 51 51
51 51 51
51 51 51
51 51 51
51 51 51
51 51 51
51 51 51
51 51 51
51 51 51
51 51 51
51 51 51
51 51 51
51 51 51
51 51 51
51 51 51
51 51 51
51 51 51
51 51 51
51 51 51
51 51 51
51 51 51
51 51 51
51 51 51
51 51 51
133 0 0
133 0 0
132 0 0
132 0 0
132 0 0
132 0 0
131 0 0
131 0 0
131 0 0
131 0 0
130 0 0
130 0 0
130 0 0
130 0 0
129 0 0
129 0 0
129 0 0
128 0 0
128 0 0
128 0 0
128 0 0
127 0 0
127 0 0
127 0 0
126 0 0
126 0 0
125 0 0
125 0 0
125 0 0
124 0 0
124 0 0
123 0 0
123 0 0
123 0 0
122 0 0
122 0 0
121 0 0
121 0 0
120 0 0
120 0 0
119 0 0
119 0 0
118 0 0
118 0 0
117 0 0
116 0 0
0 0 116
0 0 117
0 0 118
0 0 118
0 0 119
0 0 119
0 0 120
0 0 120
0 0 121
0 0 121
0 0 122
0 0 122
0 0 123
0 0 123
0 0 123
0 0 124
0 0 124
0 0 125
0 0 125
0 0 125
0 0 126
0 0 126
0 0 127
0 0 127
0 0 127
0 0 128
0 0 128
0 0 128
0 0 128
51 51 51
51 51 51
51 51 51
51 51 51
51 51 51
51 51 51
51 51 51
51 51 51
51 51 51
51 51 51
51 51 51
51 51 51
51 51 51
51 51 51
51 51 51
51 51 51
51 51 51
51 51 51
51 51 51
51 51 51
51 51 51
51 51 51
51 51 51
51 51 51
51 51 51
51 51 51
51 51 51
51 51 51
51 51 51
51 51 51
51 51 51
51 51 51
51 51 51
51 51 51
51 51 51
51 51 51
51 51 51
51 51 51
51 51 51
51 51 51
51 51 51
51 51 51
51 51 51
51 51 51
51 51 51
51 51 51
51 51 51
51 51 51
51 51 51
51 51 51
51 51 51
51 51 51
51 51 51
51 51 51
51 51 51
51 51 51
51 51 51
51 51 51
51 51 51
51 51 51
51 51 51
51 51 51
51 51 51
51 51 51
51 51 51
51 51 51
51 51 51
51 51 51
51 51 51
51 51 51
51 51 51
51 51 51
51 51 51
51 51 51
51 51 51
51 51 51
51 51 51
51 51 51
51 51 51
51 51 51
51 51 51
51 51 51
51 51 51
51 51 51
51 51 51
51 51 51
51 51 51
51 51 51
51 51 51
51 51 51
51 51 51
51 51 51
51 51 51
51 51 51
51 51 51
51 51 51
51 51 51
51 51 51
51 51 51
51 51 51
51 51 51
51 51 51
51 51 51
51 51 51
51 51 51
51 51 51
51 51 51
51 51 51
51 51 51
51 51 51
51 51 51
51 51 51
51 51 51
51 51 51
51 51 51
51 51 51
51 51 51
51 51 51
51 51 51
51 51 51
51 51 51
51 51 51
51 51 51
51 51 51
51 51 51
133 0 0
133 0 0
132 0 0
132 0 0
132 0 0
132 0 0
131 0 0
131 0 0
131 0 0
131 0 0
130 0 0
130 0 0
130 0 0
130 0 0
129 0 0
129 0 0
129 0 0
129 0 0
128 0 0
128 0 0
128 0 0
127 0 0
127 0 0
127 0 0
126 0 0
126 0 0
126 0 0
125 0 0
125 0 0
124 0 0
124 0 0
124 0 0
123 0 0
123 0 0
122 0 0
122 0 0
121 0 0
121 0 0
121 0 0
120 0 0
120 0 0
119 0 0
118 0 0
118 0 0
117 0 0
117 0 0
0 0 117
0 0 117
0 0 118
0 0 118
0 0 119
0 0 120
0 0 120
0 0 121
0 0 121
0 0 121
0 0 122
0 0 122
0 0 123
0 0 123
0 0 124
0 0 124
0 0 124
0 0 125
0 0 125
0 0 126
0 0 126
0 0 126
0 0 127
0 0 127
0 0 127
0 0 128
0 0 128
0 0 128
51 51 51
51 51 51
51 51 51
51 51 51
51 51 51
51 51 51
51 51 51
51 51 51
51 51 51
51 51 51
51 51 51
51 51 51
51 51 51
51 51 51
51 51 51
51 51 51
51 51 51
51 51 51
51 51 51
51 51 51
51 51 51
51 51 51
51 51 51
51 51 51
51 51 51
51 51 51
51 51 51
51 51 51
51 51 51
51 51 51
51 51 51
51 51 51
51 51 51
51 51 51
51 51 51
51 51 51
51 51 51
51 51 51
51 51 51
51 51 51
51 51 51
51 51 51
51 51 51
51 51 51
51 51 51
51 51 51
51 51 51
51 51 51
51 51 51
51 51 51
51 51 51
51 51 51
51 51 51
51 51 51
51 51 51
51 51 51
51 51 51
51 51 51
51 51 51
51 51 51
51 51 51
51 51 51
51 51 51
51 51 51
51 51 51
51 51 51
51 51 51
51 51 51
51 51 51
51 51 51
51 51 51
51 51 51
51 51 51
51 51 51
51 51 51
51 51 51
51 51 51
51 51 51
51 51 51
51 51 51
51 51 51
51 51 51
51 51 51
51 51 51
51 51 51
51 51 51
51 51 51
51 51 51
51 51 51
51 51 51
51 51 51
51 51 51
51 51 51
51 51 51
51 51 51
51 51 51
51 51 51
51 51 51
51 51 51
51 51 51
51 51 51
51 51 51
51 51 51
51 51 51
51 51 51
51 51 51
51 51 51
51 51 51
51 51 51
51 51 51
51 51 51
51 51 51
51 51 51
51 51 51
51 51 51
51 51 51
51 51 51
51 51 51
51 51 51
51 51 51
51 51 51
51 51 51
51 51 51
51 51 51
51 51 51
51 51 51
51 51 51
133 0 0
132 0 0
132 0 0
132 0 0
132 0 0
132 0 0
131 0 0
131 0 0
131 0 0
131 0 0
130 0 0
130 0 0
130 0 0
129 0 0
129 0 0
129 0 0
129 0 0
128 0 0
128 0 0
128 0 0
127 0 0
127 0 0
127 0 0
126 0 0
126 0 0
126 0 0
125 0 0
125 0 0
125 0 0
124 0 0
124 0 0
123 0 0
123 0 0
123 0 0
122 0 0
122 0 0
121 0 0
121 0 0
120 0 0
120 0 0
119 0 0
119 0 0
118 0 0
118 0 0
117 0 0
0 0 117
0 0 118
0 0 118
0 0 119
0 0 119
0 0 120
0 0 120
0 0 121
0 0 121
0 0 122
0 0 122
0 0 123
0 0 123
0 0 123
0 0 124
0 0 124
0 0 125
0 0 125
0 0 125
0 0 126
0 0 126
0 0 126
0 0 127
0 0 127
0 0 127
0 0 128
0 0 128
0 0 128
51 51 51
51 51 51
51 51 51
51 51 51
51 51 51
51 51 51
51 51 51
51 51 51
51 51 51
51 51 51
51 51 51
51 51 51
51 51 51
51 51 51
51 51 51
51 51 51
51 51 51
51 51 51
51 51 51
51 51 51
51 51 51
51 51 51
51 51 51
51 51 51
51 51 51
51 51 51
51 51 51
51 51 51
51 51 51
51 51 51
51 51 51
51 51 51
51 51 51
51 51 51
51 51 51
51 51 51
51 51 51
51 51 51
51 51 51
51 51 51
51 51 51
51 51 51
51 51 51
51 51 51
51 51 51
51 51 51
51 51 51
51 51 51
51 51 51
51 51 51
51 51 51
51 51 51
51 51 51
51 51 51
51 51 51
51 51 51
51 51 51
51 51 51
51 51 51
51 51 51
51 51 51
51 51 51
51 51 51
51 51 51
51 51 51
51 51 51
51 51 51
51 51 51
51 51 51
51 51 51
51 51 51
51 51 51
51 51 51
51 51 51
51 51 51
51 51 51
51 51 51
51 51 51
51 51 51
51 51 51
51 51 51
51 51 51
51 51 51
51 51 51
51 51 51
51 51 51
51 51 51
51 51 51
51 51 51
51 51 51
51 51 51
51 51 51
51 51 51
51 51 51
51 51 51
51 51 51
51 51 51
51 51 51
51 51 51
51 51 51
51 51 51
51 51 51
51 51 51
51 51 51
51 51 51
51 51 51
51 51 51
51 51 51
51 51 51
51 51 51
51 51 51
51 51 51
51 51 51
51 51 51
51 51 51
51 51 51
51 51 51
51 51 51
51 51 51
51 51 51
51 51 51
51 51 51
51 51 51
51 51 51
51 51 51
51 51 51
51 51 51
133 0 0
132 0 0
132 0 0
132 0 0
132 0 0
132 0 0
131 0 0
131 0 0
131 0 0
131 0 0
130 0 0
130 0 0
130 0 0
130 0 0
129 0 0
129 0 0
129 0 0
128 0 0
128 0 0
128 0 0
128 0 0
127 0 0
127 0 0
127 0 0
126 0 0
126 0 0
126 0 0
125 0 0
125 0 0
124 0 0
124 0 0
124 0 0
123 0 0
123 0 0
122 0 0
122 0 0
121 0 0
121 0 0
121 0 0
120 0 0
120 0 0
119 0 0
118 0 0
118 0 0
117 0 0
0 0 117
0 0 118
0 0 118
0 0 119
0 0 120
0 0 120
0 0 121
0 0 121
0 0 121
0 0 122
0 0 122
0 0 123
0 0 123
0 0 124
0 0 124
0 0 124
0 0 125
0 0 125
0 0 126
0 0 126
0 0 126
0 0 127
0 0 127
0 0 127
0 0 128
0 0 128
0 0 128
0 0 128
51 51 51
51 51 51
51 51 51
51 51 51
51 51 51
51 51 51
51 51 51
51 51 51
51 51 51
51 51 51
51 51 51
51 51 51
51 51 51
51 51 51
51 51 51
51 51 51
51 51 51
51 51 51
51 51 51
51 51 51
51 51 51
51 51 51
51 51 51
51 51 51
51 51 51
51 51 51
51 51 51
51 51 51
51 51 51
51 51 51
51 51 51
51 51 51
51 51 51
51 51 51
51 51 51
51 51 51
51 51 51
51 51 51
51 51 51
51 51 51
51 51 51
51 51 51
51 51 51
51 51 51
51 51 51
51 51 51
51 51 51
51 51 51
51 51 51
51 51 51
51 51 51
51 51 51
51 51 51
51 51 51
51 51 51
51 51 51
51 51 51
51 51 51
51 51 51
51 51 51
51 51 51
51 51 51
51 51 51
51 51 51
51 51 51
51 51 51
51 51 51
51 51 51
51 51 51
51 51 51
51 51 51
51 51 51
51 51 51
51 51 51
51 51 51
51 51 51
51 51 51
51 51 51
51 51 51
51 51 51
51 51 51
51 51 51
51 51 51
51 51 51
51 51 51
51 51 51
51 51 51
51 51 51
51 51 51
51 51 51
51 51 51
51 51 51
51 51 51
51 51 51
51 51 51
51 51 51
51 51 51
51 51 51
51 51 51
51 51 51
51 51 51
51 51 51
51 51 51
51 51 51
51 51 51
51 51 51
51 51 51
51 51 51
51 51 51
51 51 51
51 51 51
51 51 51
51 51 51
51 51 51
51 51 51
51 51 51
51 51 51
51 51 51
51 51 51
51 51 51
51 51 51
51 51 51
51 51 51
51 51 51
51 51 51
51 51 51
51 51 51
51 51 51
133 0 0
132 0 0
132 0 0
132 0 0
132 0 0
131 0 0
131 0 0
131 0 0
131 0 0
130 0 0
130 0 0
130 0 0
130 0 0
129 0 0
129 0 0
129 0 0
129 0 0
128 0 0
128 0 0
128 0 0
127 0 0
127 0 0
127 0 0
126 0 0
126 0 0
126 0 0
125 0 0
125 0 0
125 0 0
124 0 0
124 0 0
123 0 0
123 0 0
123 0 0
122 0 0
122 0 0
121 0 0
121 0 0
120 0 0
120 0 0
119 0 0
119 0 0
118 0 0
118 0 0
0 0 118
0 0 118
0 0 119
0 0 119
0 0 120
0 0 120
0 0 121
0 0 121
0 0 122
0 0 122
0 0 123
0 0 123
0 0 123
0 0 124
0 0 124
0 0 125
0 0 125
0 0 125
0 0 126
0 0 126
0 0 126
0 0 127
0 0 127
0 0 127
0 0 128
0 0 128
0 0 128
51 51 51
51 51 51
51 51 51
51 51 51
51 51 51
51 51 51
51 51 51
51 51 51
51 51 51
51 51 51
51 51 51
51 51 51
51 51 51
51 51 51
51 51 51
51 51 51
51 51 51
51 51 51
51 51 51
51 51 51
51 51 51
51 51 51
51 51 51
51 51 51
51 51 51
51 51 51
51 51 51
51 51 51
51 51 51
51 51 51
51 51 51
51 51 51
51 51 51
51 51 51
51 51 51
51 51 51
51 51 51
51 51 51
51 51 51
51 51 51
51 51 51
51 51 51
51 51 51
51 51 51
51 51 51
51 51 51
51 51 51
51 51 51
51 51 51
51 51 51
51 51 51
51 51 51
51 51 51
51 51 51
51 51 51
51 51 51
51 51 51
51 51 51
51 51 51
51 51 51
51 51 51
51 51 51
51 51 51
51 51 51
51 51 51
51 51 51
51 51 51
51 51 51
51 51 51
51 51 51
51 51 51
51 51 51
51 51 51
51 51 51
51 51 51
51 51 51
51 51 51
51 51 51
51 51 51
51 51 51
51 51 51
51 51 51
51 51 51
51 51 51
51 51 51
51 51 51
51 51 51
51 51 51
51 51 51
51 51 51
51 51 51
51 51 51
51 51 51
51 51 51
51 51 51
51 51 51
51 51 51
51 51 51
51 51 51
51 51 51
51 51 51
51 51 51
51 51 51
51 51 51
51 51 51
51 51 51
51 51 51
51 51 51
51 51 51
51 51 51
51 51 51
51 51 51
51 51 51
51 51 51
51 51 51
51 51 51
51 51 51
51 51 51
51 51 51
51 51 51
51 51 51
51 51 51
51 51 51
51 51 51
51 51 51
51 51 51
51 51 51
51 51 51
51 51 51
133 0 0
132 0 0
132 0 0
132 0 0
132 0 0
131 0 0
131 0 0
131 0 0
131 0 0
131 0 0
130 0 0
130 0 0
130 0 0
129 0 0
129 0 0
129 0 0
129 0 0
128 0 0
128 0 0
128 0 0
127 0 0
127 0 0
127 0 0
126 0 0
126 0 0
126 0 0
125 0 0
125 0 0
125 0 0
124 0 0
124 0 0
124 0 0
123 0 0
123 0 0
122 0 0
122 0 0
121 0 0
121 0 0
121 0 0
120 0 0
120 0 0
119 0 0
119 0 0
118 0 0
0 0 118
0 0 119
0 0 119
0 0 120
0 0 120
0 0 121
0 0 121
0 0 121
0 0 122
0 0 122
0 0 123
0 0 123
0 0 124
0 0 124
0 0 124
0 0 125
0 0 125
0 0 125
0 0 126
0 0 126
0 0 126
0 0 127
0 0 127
0 0 127
0 0 128
0 0 128
0 0 128
51 51 51
51 51 51
51 51 51
51 51 51
51 51 51
51 51 51
51 51 51
51 51 51
51 51 51
51 51 51
51 51 51
51 51 51
51 51 51
51 51 51
51 51 51
51 51 51
51 51 51
51 51 51
51 51 51
51 51 51
51 51 51
51 51 51
51 51 51
51 51 51
51 51 51
51 51 51
51 51 51
51 51 51
51 51 51
51 51 51
51 51 51
51 51 51
51 51 51
51 51 51
51 51 51
51 51 51
51 51 51
51 51 51
51 51 51
51 51 51
51 51 51
51 51 51
51 51 51
51 51 51
51 51 51
51 51 51
51 51 51
51 51 51
51 51 51
51 51 51
51 51 51
51 51 51
51 51 51
51 51 51
51 51 51
51 51 51
51 51 51
51 51 51
51 51 51
51 51 51
51 51 51
51 51 51
51 51 51
51 51 51
51 51 51
51 51 51
51 51 51
51 51 51
51 51 51
51 51 51
51 51 51
51 51 51
51 51 51
51 51 51
51 51 51
51 51 51
51 51 51
51 51 51
51 51 51
51 51 51
51 51 51
51 51 51
51 51 51
51 51 51
51 51 51
51 51 51
51 51 51
51 51 51
51 51 51
51 51 51
51 51 51
51 51 51
51 51 51
51 51 51
51 51 51
51 51 51
51 51 51
51 51 51
51 51 51
51 51 51
51 51 51
51 51 51
51 51 51
51 51 51
51 51 51
51 51 51
51 51 51
51 51 51
51 51 51
51 51 51
51 51 51
51 51 51
51 51 51
51 51 51
51 51 51
51 51 51
51 51 51
51 51 51
51 51 51
51 51 51
51 51 51
51 51 51
51 51 51
51 51 51
51 51 51
51 51 51
51 51 51
51 51 51
51 51 51
51 51 51
132 0 0
132 0 0
132 0 0
132 0 0
132 0 0
131 0 0
131 0 0
131 0 0
131 0 0
130 0 0
130 0 0
130 0 0
130 0 0
129 0 0
129 0 0
129 0 0
128 0 0
128 0 0
128 0 0
128 0 0
127 0 0
127 0 0
127 0 0
126 0 0
126 0 0
126 0 0
125 0 0
125 0 0
125 0 0
124 0 0
124 0 0
123 0 0
123 0 0
123 0 0
122 0 0
122 0 0
121 0 0
121 0 0
120 0 0
120 0 0
119 0 0
119 0 0
118 0 0
0 0 118
0 0 119
0 0 119
0 0 120
0 0 120
0 0 121
0 0 121
0 0 122
0 0 122
0 0 123
0 0 123
0 0 123
0 0 124
0 0 124
0 0 125
0 0 125
0 0 125
0 0 126
0 0 126
0 0 126
0 0 127
0 0 127
0 0 127
0 0 128
0 0 128
0 0 128
0 0 128
51 51 51
51 51 51
51 51 51
51 51 51
51 51 51
51 51 51
51 51 51
51 51 51
51 51 51
51 51 51
51 51 51
51 51 51
51 51 51
51 51 51
51 51 51
51 51 51
51 51 51
51 51 51
51 51 51
51 51 51
51 51 51
51 51 51
51 51 51
51 51 51
51 51 51
51 51 51
51 51 51
51 51 51
51 51 51
51 51 51
51 51 51
51 51 51
51 51 51
51 51 51
51 51 51
51 51 51
51 51 51
51 51 51
51 51 51
51 51 51
51 51 51
51 51 51
51 51 51
51 51 51
51 51 51
51 51 51
51 51 51
51 51 51
51 51 51
51 51 51
51 51 51
51 51 51
51 51 51
51 51 51
51 51 51
51 51 51
51 51 51
51 51 51
51 51 51
51 51 51
51 51 51
51 51 51
51 51 51
51 51 51
51 51 51
51 51 51
51 51 51
51 51 51
51 51 51
51 51 51
51 51 51
51 51 51
51 51 51
51 51 51
51 51 51
51 51 51
51 51 51
51 51 51
51 51 51
51 51 51
51 51 51
51 51 51
51 51 51
51 51 51
51 51 51
51 51 51
51 51 51
51 51 51
51 51 51
51 51 51
51 51 51
51 51 51
51 51 51
51 51 51
51 51 51
51 51 51
51 51 51
51 51 51
51 51 51
51 51 51
51 51 51
51 51 51
51 51 51
51 51 51
51 51 51
51 51 51
51 51 51
51 51 51
51 51 51
51 51 51
51 51 51
51 51 51
51 51 51
51 51 51
51 51 51
51 51 51
51 51 51
51 51 51
51 51 51
51 51 51
51 51 51
51 51 51
51 51 51
51 51 51
51 51 51
51 51 51
51 51 51
51 51 51
51 51 51
51 51 51
132 0 0
132 0 0
132 0 0
132 0 0
132 0 0
131 0 0
131 0 0
131 0 0
131 0 0
130 0 0
130 0 0
130 0 0
130 0 0
129 0 0
129 0 0
129 0 0
129 0 0
128 0 0
128 0 0
128 0 0
127 0 0
127 0 0
127 0 0
126 0 0
126 0 0
126 0 0
125 0 0
125 0 0
125 0 0
124 0 0
124 0 0
124 0 0
123 0 0
123 0 0
122 0 0
122 0 0
121 0 0
121 0 0
121 0 0
120 0 0
120 0 0
119 0 0
119 0 0
0 0 119
0 0 119
0 0 120
0 0 120
0 0 121
0 0 121
0 0 121
0 0 122
0 0 122
0 0 123
0 0 123
0 0 124
0 0 124
0 0 124
0 0 125
0 0 125
0 0 125
0 0 126
0 0 126
0 0 126
0 0 127
0 0 127
0 0 127
0 0 128
0 0 128
0 0 128
51 51 51
51 51 51
51 51 51
51 51 51
51 51 51
51 51 51
51 51 51
51 51 51
51 51 51
51 51 51
51 51 51
51 51 51
51 51 51
51 51 51
51 51 51
51 51 51
51 51 51
51 51 51
51 51 51
51 51 51
51 51 51
51 51 51
51 51 51
51 51 51
51 51 51
51 51 51
51 51 51
51 51 51
51 51 51
51 51 51
51 51 51
51 51 51
51 51 51
51 51 51
51 51 51
51 51 51
51 51 51
51 51 51
51 51 51
51 51 51
51 51 51
51 51 51
51 51 51
51 51 51
51 51 51
51 51 51
51 51 51
51 51 51
51 51 51
51 51 51
51 51 51
51 51 51
51 51 51
51 51 51
51 51 51
51 51 51
51 51 51
51 51 51
51 51 51
51 51 51
51 51 51
51 51 51
51 51 51
51 51 51
51 51 51
51 51 51
51 51 51
51 51 51
51 51 51
51 51 51
51 51 51
51 51 51
51 51 51
51 51 51
51 51 51
51 51 51
51 51 51
51 51 51
51 51 51
51 51 51
51 51 51
51 51 51
51 51 51
51 51 51
51 51 51
51 51 51
51 51 51
51 51 51
51 51 51
51 51 51
51 51 51
51 51 51
51 51 51
51 51 51
51 51 51
51 51 51
51 51 51
51 51 51
51 51 51
51 51 51
51 51 51
51 51 51
51 51 51
51 51 51
51 51 51
51 51 51
51 51 51
51 51 51
51 51 51
51 51 51
51 51 51
51 51 51
51 51 51
51 51 51
51 51 51
51 51 51
51 51 51
51 51 51
51 51 51
51 51 51
51 51 51
51 51 51
51 51 51
51 51 51
51 51 51
51 51 51
51 51 51
51 51 51
51 51 51
51 51 51
51 51 51
51 51 51
132 0 0
132 0 0
132 0 0
132 0 0
131 0 0
131 0 0
131 0 0
131 0 0
130 0 0
130 0 0
130 0 0
130 0 0
129 0 0
129 0 0
129 0 0
129 0 0
128 0 0
128 0 0
128 0 0
127 0 0
127 0 0
127 0 0
127 0 0
126 0 0
126 0 0
126 0 0
125 0 0
125 0 0
124 0 0
124 0 0
124 0 0
123 0 0
123 0 0
122 0 0
122 0 0
122 0 0
121 0 0
121 0 0
120 0 0
120 0 0
119 0 0
119 0 0
0 0 119
0 0 119
0 0 120
0 0 120
0 0 121
0 0 121
0 0 122
0 0 122
0 0 122
0 0 123
0 0 123
0 0 124
0 0 124
0 0 124
0 0 125
0 0 125
0 0 126
0 0 126
0 0 126
0 0 127
0 0 127
0 0 127
0 0 127
0 0 128
0 0 128
0 0 128
51 51 51
51 51 51
51 51 51
51 51 51
51 51 51
51 51 51
51 51 51
51 51 51
51 51 51
51 51 51
51 51 51
51 51 51
51 51 51
51 51 51
51 51 51
51 51 51
51 51 51
51 51 51
51 51 51
51 51 51
51 51 51
51 51 51
51 51 51
51 51 51
51 51 51
51 51 51
51 51 51
51 51 51
51 51 51
51 51 51
51 51 51
51 51 51
51 51 51
51 51 51
51 51 51
51 51 51
51 51 51
51 51 51
51 51 51
51 51 51
51 51 51
51 51 51
51 51 51
51 51 51
51 51 51
51 51 51
51 51 51
51 51 51
51 51 51
51 51 51
51 51 51
51 51 51
51 51 51
51 51 51
51 51 51
51 51 51
51 51 51
51 51 51
51 51 51
51 51 51
51 51 51
51 51 51
51 51 51
51 51 51
51 51 51
51 51 51
51 51 51
51 51 51
51 51 51
51 51 51
51 51 51
51 51 51
51 51 51
51 51 51
51 51 51
51 51 51
51 51 51
51 51 51
51 51 51
51 51 51
51 51 51
51 51 51
51 51 51
51 51 51
51 51 51
51 51 51
51 51 51
51 51 51
51 51 51
51 51 51
51 51 51
51 51 51
51 51 51
51 51 51
51 51 51
51 51 51
51 51 51
51 51 51
51 51 51
51 51 51
51 51 51
51 51 51
51 51 51
51 51 51
51 51 51
51 51 51
51 51 51
51 51 51
51 51 51
51 51 51
51 51 51
51 51 51
51 51 51
51 51 51
51 51 51
51 51 51
51 51 51
51 51 51
51 51 51
51 51 51
51 51 51
51 51 51
51 51 51
51 51 51
51 51 51
51 51 51
51 51 51
51 51 51
51 51 51
51 51 51
51 51 51
51 51 51
51 51 51
132 0 0
132 0 0
132 0 0
131 0 0
131 0 0
131 0 0
131 0 0
131 0 0
130 0 0
130 0 0
130 0 0
130 0 0
129 0 0
129 0 0
129 0 0
128 0 0
128 0 0
128 0 0
128 0 0
127 0 0
127 0 0
127 0 0
126 0 0
126 0 0
126 0 0
125 0 0
125 0 0
125 0 0
124 0 0
124 0 0
123 0 0
123 0 0
123 0 0
122 0 0
122 0 0
121 0 0
121 0 0
120 0 0
120 0 0
120 0 0
119 0 0
0 0 119
0 0 120
0 0 120
0 0 120
0 0 121
0 0 121
0 0 122
0 0 122
0 0 123
0 0 123
0 0 123
0 0 124
0 0 124
0 0 125
0 0 125
0 0 125
0 0 126
0 0 126
0 0 126
0 0 127
0 0 127
0 0 127
0 0 128
0 0 128
0 0 128
0 0 128
51 51 51
51 51 51
51 51 51
51 51 51
51 51 51
51 51 51
51 51 51
51 51 51
51 51 51
51 51 51
51 51 51
51 51 51
51 51 51
51 51 51
51 51 51
51 51 51
51 51 51
51 51 51
51 51 51
51 51 51
51 51 51
51 51 51
51 51 51
51 51 51
51 51 51
51 51 51
51 51 51
51 51 51
51 51 51
51 51 51
51 51 51
51 51 51
51 51 51
51 51 51
51 51 51
51 51 51
51 51 51
51 51 51
51 51 51
51 51 51
51 51 51
51 51 51
51 51 51
51 51 51
51 51 51
51 51 51
51 51 51
51 51 51
51 51 51
51 51 51
51 51 51
51 51 51
51 51 51
51 51 51
51 51 51
51 51 51
51 51 51
51 51 51
51 51 51
51 51 51
51 51 51
51 51 51
51 51 51
51 51 51
51 51 51
51 51 51
51 51 51
51 51 51
51 51 51
51 51 51
51 51 51
51 51 51
51 51 51
51 51 51
51 51 51
51 51 51
51 51 51
51 51 51
51 51 51
51 51 51
51 51 51
51 51 51
51 51 51
51 51 51
51 51 51
51 51 51
51 51 51
51 51 51
51 51 51
51 51 51
51 51 51
51 51 51
51 51 51
51 51 51
51 51 51
51 51 51
51 51 51
51 51 51
51 51 51
51 51 51
51 51 51
51 51 51
51 51 51
51 51 51
51 51 51
51 51 51
51 51 51
51 51 51
51 51 51
51 51 51
51 51 51
51 51 51
51 51 51
51 51 51
51 51 51
51 51 51
51 51 51
51 51 51
51 51 51
51 51 51
51 51 51
51 51 51
51 51 51
51 51 51
51 51 51
51 51 51
51 51 51
51 51 51
51 51 51
51 51 51
51 51 51
51 51 51
51 51 51
132 0 0
132 0 0
132 0 0
132 0 0
131 0 0
131 0 0
131 0 0
131 0 0
130 0 0
130 0 0
130 0 0
130 0 0
129 0 0
129 0 0
129 0 0
129 0 0
128 0 0
128 0 0
128 0 0
127 0 0
127 0 0
127 0 0
126 0 0
126 0 0
126 0 0
125 0 0
125 0 0
125 0 0
124 0 0
124 0 0
124 0 0
123 0 0
123 0 0
122 0 0
122 0 0
122 0 0
121 0 0
121 0 0
120 0 0
120 0 0
119 0 0
0 0 119
0 0 120
0 0 120
0 0 121
0 0 121
0 0 122
0 0 122
0 0 122
0 0 123
0 0 123
0 0 124
0 0 124
0 0 124
0 0 125
0 0 125
0 0 125
0 0 126
0 0 126
0 0 126
0 0 127
0 0 127
0 0 127
0 0 128
0 0 128
0 0 128
51 51 51
51 51 51
51 51 51
51 51 51
51 51 51
51 51 51
51 51 51
51 51 51
51 51 51
51 51 51
51 51 51
51 51 51
51 51 51
51 51 51
51 51 51
51 51 51
51 51 51
51 51 51
51 51 51
51 51 51
51 51 51
51 51 51
51 51 51
51 51 51
51 51 51
51 51 51
51 51 51
51 51 51
51 51 51
51 51 51
51 51 51
51 51 51
51 51 51
51 51 51
51 51 51
51 51 51
51 51 51
51 51 51
51 51 51
51 51 51
51 51 51
51 51 51
51 51 51
51 51 51
51 51 51
51 51 51
51 51 51
51 51 51
51 51 51
51 51 51
51 51 51
51 51 51
51 51 51
51 51 51
51 51 51
51 51 51
51 51 51
51 51 51
51 51 51
51 51 51
51 51 51
51 51 51
51 51 51
51 51 51
51 51 51
51 51 51
51 51 51
51 51 51
51 51 51
51 51 51
51 51 51
51 51 51
51 51 51
51 51 51
51 51 51
51 51 51
51 51 51
51 51 51
51 51 51
51 51 51
51 51 51
51 51 51
51 51 51
51 51 51
51 51 51
51 51 51
51 51 51
51 51 51
51 51 51
51 51 51
51 51 51
51 51 51
51 51 51
51 51 51
51 51 51
51 51 51
51 51 51
51 51 51
51 51 51
51 51 51
51 51 51
51 51 51
51 51 51
51 51 51
51 51 51
51 51 51
51 51 51
51 51 51
51 51 51
51 51 51
51 51 51
51 51 51
51 51 51
51 51 51
51 51 51
51 51 51
51 51 51
51 51 51
51 51 51
51 51 51
51 51 51
51 51 51
51 51 51
51 51 51
51 51 51
51 51 51
51 51 51
51 51 51
51 51 51
51 51 51
51 51 51
51 51 51
51 51 51
51 51 51
51 51 51
132 0 0
132 0 0
132 0 0
131 0 0
131 0 0
131 0 0
131 0 0
130 0 0
130 0 0
130 0 0
130 0 0
129 0 0
129 0 0
129 0 0
129 0 0
128 0 0
128 0 0
128 0 0
128 0 0
127 0 0
127 0 0
127 0 0
126 0 0
126 0 0
126 0 0
125 0 0
125 0 0
125 0 0
124 0 0
124 0 0
123 0 0
123 0 0
123 0 0
122 0 0
122 0 0
121 0 0
121 0 0
120 0 0
120 0 0
120 0 0
0 0 120
0 0 120
0 0 120
0 0 121
0 0 121
0 0 122
0 0 122
0 0 123
0 0 123
0 0 123
0 0 124
0 0 124
0 0 125
0 0 125
0 0 125
0 0 126
0 0 126
0 0 126
0 0 127
0 0 127
0 0 127
0 0 128
0 0 128
0 0 128
0 0 128
51 51 51
51 51 51
51 51 51
51 51 51
51 51 51
51 51 51
51 51 51
51 51 51
51 51 51
51 51 51
51 51 51
51 51 51
51 51 51
51 51 51
51 51 51
51 51 51
51 51 51
51 51 51
51 51 51
51 51 51
51 51 51
51 51 51
51 51 51
51 51 51
51 51 51
51 51 51
51 51 51
51 51 51
51 51 51
51 51 51
51 51 51
51 51 51
51 51 51
51 51 51
51 51 51
51 51 51
51 51 51
51 51 51
51 51 51
51 51 51
51 51 51
51 51 51
51 51 51
51 51 51
51 51 51
51 51 51
51 51 51
51 51 51
51 51 51
51 51 51
51 51 51
51 51 51
51 51 51
51 51 51
51 51 51
51 51 51
51 51 51
51 51 51
51 51 51
51 51 51
51 51 51
51 51 51
51 51 51
51 51 51
51 51 51
51 51 51
51 51 51
51 51 51
51 51 51
51 51 51
51 51 51
51 51 51
51 51 51
51 51 51
51 51 51
51 51 51
51 51 51
51 51 51
51 51 51
51 51 51
51 51 51
51 51 51
51 51 51
51 51 51
51 51 51
51 51 51
51 51 51
51 51 51
51 51 51
51 51 51
51 51 51
51 51 51
51 51 51
51 51 51
51 51 51
51 51 51
51 51 51
51 51 51
51 51 51
51 51 51
51 51 51
51 51 51
51 51 51
51 51 51
51 51 51
51 51 51
51 51 51
51 51 51
51 51 51
51 51 51
51 51 51
51 51 51
51 51 51
51 51 51
51 51 51
51 51 51
51 51 51
51 51 51
51 51 51
51 51 51
51 51 51
51 51 51
51 51 51
51 51 51
51 51 51
51 51 51
51 51 51
51 51 51
51 51 51
51 51 51
51 51 51
51 51 51
51 51 51
51 51 51
51 51 51
132 0 0
132 0 0
132 0 0
131 0 0
131 0 0
131 0 0
131 0 0
131 0 0
130 0 0
130 0 0
130 0 0
130 0 0
129 0 0
129 0 0
129 0 0
128 0 0
128 0 0
128 0 0
128 0 0
127 0 0
127 0 0
127 0 0
126 0 0
126 0 0
126 0 0
125 0 0
125 0 0
125 0 0
124 0 0
124 0 0
124 0 0
123 0 0
123 0 0
122 0 0
122 0 0
122 0 0
121 0 0
121 0 0
120 0 0
120 0 0
0 0 120
0 0 120
0 0 121
0 0 121
0 0 122
0 0 122
0 0 122
0 0 123
0 0 123
0 0 124
0 0 124
0 0 124
0 0 125
0 0 125
0 0 125
0 0 126
0 0 126
0 0 126
0 0 127
0 0 127
0 0 127
0 0 128
0 0 128
0 0 128
51 51 51
51 51 51
51 51 51
51 51 51
51 51 51
51 51 51
51 51 51
51 51 51
51 51 51
51 51 51
51 51 51
51 51 51
51 51 51
51 51 51
51 51 51
51 51 51
51 51 51
51 51 51
51 51 51
51 51 51
51 51 51
51 51 51
51 51 51
51 51 51
51 51 51
51 51 51
51 51 51
51 51 51
51 51 51
51 51 51
51 51 51
51 51 51
51 51 51
51 51 51
51 51 51
51 51 51
51 51 51
51 51 51
51 51 51
51 51 51
51 51 51
51 51 51
51 51 51
51 51 51
51 51 51
51 51 51
51 51 51
51 51 51
51 51 51
51 51 51
51 51 51
51 51 51
51 51 51
51 51 51
51 51 51
51 51 51
51 51 51
51 51 51
51 51 51
51 51 51
51 51 51
51 51 51
51 51 51
51 51 51
51 51 51
51 51 51
51 51 51
51 51 51
51 51 51
51 51 51
51 51 51
51 51 51
51 51 51
51 51 51
51 51 51
51 51 51
51 51 51
51 51 51
51 51 51
51 51 51
51 51 51
51 51 51
51 51 51
51 51 51
51 51 51
51 51 51
51 51 51
51 51 51
51 51 51
51 51 51
51 51 51
51 51 51
51 51 51
51 51 51
51 51 51
51 51 51
51 51 51
51 51 51
51 51 51
51 51 51
51 51 51
51 51 51
51 51 51
51 51 51
51 51 51
51 51 51
51 51 51
51 51 51
51 51 51
51 51 51
51 51 51
51 51 51
51 51 51
51 51 51
51 51 51
51 51 51
51 51 51
51 51 51
51 51 51
51 51 51
51 51 51
51 51 51
51 51 51
51 51 51
51 51 51
51 51 51
51 51 51
51 51 51
51 51 51
51 51 51
51 51 51
51 51 51
51 51 51
51 51 51
51 51 51
51 51 51
51 51 51
132 0 0
132 0 0
131 0 0
131 0 0
131 0 0
131 0 0
131 0 0
130 0 0
130 0 0
130 0 0
130 0 0
129 0 0
129 0 0
129 0 0
129 0 0
128 0 0
128 0 0
128 0 0
127 0 0
127 0 0
127 0 0
127 0 0
126 0 0
126 0 0
126 0 0
125 0 0
125 0 0
124 0 0
124 0 0
124 0 0
123 0 0
123 0 0
123 0 0
122 0 0
122 0 0
121 0 0
121 0 0
120 0 0
120 0 0
0 0 120
0 0 120
0 0 121
0 0 121
0 0 122
0 0 122
0 0 123
0 0 123
0 0 123
0 0 124
0 0 124
0 0 124
0 0 125
0 0 125
0 0 126
0 0 126
0 0 126
0 0 127
0 0 127
0 0 127
0 0 127
0 0 128
0 0 128
0 0 128
51 51 51
51 51 51
51 51 51
51 51 51
51 51 51
51 51 51
51 51 51
51 51 51
51 51 51
51 51 51
51 51 51
51 51 51
51 51 51
51 51 51
51 51 51
51 51 51
51 51 51
51 51 51
51 51 51
51 51 51
51 51 51
51 51 51
51 51 51
51 51 51
51 51 51
51 51 51
51 51 51
51 51 51
51 51 51
51 51 51
51 51 51
51 51 51
51 51 51
51 51 51
51 51 51
51 51 51
51 51 51
51 51 51
51 51 51
51 51 51
51 51 51
51 51 51
51 51 51
51 51 51
51 51 51
51 51 51
51 51 51
51 51 51
51 51 51
51 51 51
51 51 51
51 51 51
51 51 51
51 51 51
51 51 51
51 51 51
51 51 51
51 51 51
51 51 51
51 51 51
51 51 51
51 51 51
51 51 51
51 51 51
51 51 51
51 51 51
51 51 51
51 51 51
51 51 51
51 51 51
51 51 51
51 51 51
51 51 51
51 51 51
51 51 51
51 51 51
51 51 51
51 51 51
51 51 51
51 51 51
51 51 51
51 51 51
51 51 51
51 51 51
51 51 51
51 51 51
51 51 51
51 51 51
51 51 51
51 51 51
51 51 51
51 51 51
51 51 51
51 51 51
51 51 51
51 51 51
51 51 51
51 51 51
51 51 51
51 51 51
51 51 51
51 51 51
51 51 51
51 51 51
51 51 51
51 51 51
51 51 51
51 51 51
51 51 51
51 51 51
51 51 51
51 51 51
51 51 51
51 51 51
51 51 51
51 51 51
51 51 51
51 51 51
51 51 51
51 51 51
51 51 51
51 51 51
51 51 51
51 51 51
51 51 51
51 51 51
51 51 51
51 51 51
51 51 51
51 51 51
51 51 51
51 51 51
51 51 51
51 51 51
51 51 51
51 51 51
51 51 51
132 0 0
132 0 0
132 0 0
131 0 0
131 0 0
131 0 0
131 0 0
130 0 0
130 0 0
130 0 0
130 0 0
129 0 0
129 0 0
129 0 0
129 0 0
128 0 0
128 0 0
128 0 0
128 0 0
127 0 0
127 0 0
127 0 0
126 0 0
126 0 0
126 0 0
125 0 0
125 0 0
125 0 0
124 0 0
124 0 0
124 0 0
123 0 0
123 0 0
122 0 0
122 0 0
122 0 0
121 0 0
121 0 0
120 0 0
0 0 120
0 0 121
0 0 121
0 0 122
0 0 122
0 0 122
0 0 123
0 0 123
0 0 124
0 0 124
0 0 124
0 0 125
0 0 125
0 0 125
0 0 126
0 0 126
0 0 126
0 0 127
0 0 127
0 0 127
0 0 128
0 0 128
0 0 128
0 0 128
51 51 51
51 51 51
51 51 51
51 51 51
51 51 51
51 51 51
51 51 51
51 51 51
51 51 51
51 51 51
51 51 51
51 51 51
51 51 51
51 51 51
51 51 51
51 51 51
51 51 51
51 51 51
51 51 51
51 51 51
51 51 51
51 51 51
51 51 51
51 51 51
51 51 51
51 51 51
51 51 51
51 51 51
51 51 51
51 51 51
51 51 51
51 51 51
51 51 51
51 51 51
51 51 51
51 51 51
51 51 51
51 51 51
51 51 51
51 51 51
51 51 51
51 51 51
51 51 51
51 51 51
51 51 51
51 51 51
51 51 51
51 51 51
51 51 51
51 51 51
51 51 51
51 51 51
51 51 51
51 51 51
51 51 51
51 51 51
51 51 51
51 51 51
51 51 51
51 51 51
51 51 51
51 51 51
51 51 51
51 51 51
51 51 51
51 51 51
51 51 51
51 51 51
51 51 51
51 51 51
51 51 51
51 51 51
51 51 51
51 51 51
51 51 51
51 51 51
51 51 51
51 51 51
51 51 51
51 51 51
51 51 51
51 51 51
51 51 51
51 51 51
51 51 51
51 51 51
51 51 51
51 51 51
51 51 51
51 51 51
51 51 51
51 51 51
51 51 51
51 51 51
51 51 51
51 51 51
51 51 51
51 51 51
51 51 51
51 51 51
51 51 51
51 51 51
51 51 51
51 51 51
51 51 51
51 51 51
51 51 51
51 51 51
51 51 51
51 51 51
51 51 51
51 51 51
51 51 51
51 51 51
51 51 51
51 51 51
51 51 51
51 51 51
51 51 51
51 51 51
51 51 51
51 51 51
51 51 51
51 51 51
51 51 51
51 51 51
51 51 51
51 51 51
51 51 51
51 51 51
51 51 51
51 51 51
51 51 51
51 51 51
51 51 51
51 51 51
51 51 51
51 51 51
132 0 0
132 0 0
131 0 0
131 0 0
131 0 0
131 0 0
130 0 0
130 0 0
130 0 0
130 0 0
130 0 0
129 0 0
129 0 0
129 0 0
128 0 0
128 0 0
128 0 0
128 0 0
127 0 0
127 0 0
127 0 0
126 0 0
126 0 0
126 0 0
125 0 0
125 0 0
125 0 0
124 0 0
124 0 0
124 0 0
123 0 0
123 0 0
123 0 0
122 0 0
122 0 0
121 0 0
121 0 0
120 0 0
0 0 120
0 0 121
0 0 121
0 0 122
0 0 122
0 0 123
0 0 123
0 0 123
0 0 124
0 0 124
0 0 124
0 0 125
0 0 125
0 0 125
0 0 126
0 0 126
0 0 126
0 0 127
0 0 127
0 0 127
0 0 128
0 0 128
0 0 128
51 51 51
51 51 51
51 51 51
51 51 51
51 51 51
51 51 51
51 51 51
51 51 51
51 51 51
51 51 51
51 51 51
51 51 51
51 51 51
51 51 51
51 51 51
51 51 51
51 51 51
51 51 51
51 51 51
51 51 51
51 51 51
51 51 51
51 51 51
51 51 51
51 51 51
51 51 51
51 51 51
51 51 51
51 51 51
51 51 51
51 51 51
51 51 51
51 51 51
51 51 51
51 51 51
51 51 51
51 51 51
51 51 51
51 51 51
51 51 51
51 51 51
51 51 51
51 51 51
51 51 51
51 51 51
51 51 51
51 51 51
51 51 51
51 51 51
51 51 51
51 51 51
51 51 51
51 51 51
51 51 51
51 51 51
51 51 51
51 51 51
51 51 51
51 51 51
51 51 51
51 51 51
51 51 51
51 51 51
51 51 51
51 51 51
51 51 51
51 51 51
51 51 51
51 51 51
51 51 51
51 51 51
51 51 51
51 51 51
51 51 51
51 51 51
51 51 51
51 51 51
51 51 51
51 51 51
51 51 51
51 51 51
51 51 51
51 51 51
51 51 51
51 51 51
51 51 51
51 51 51
51 51 51
51 51 51
51 51 51
51 51 51
51 51 51
51 51 51
51 51 51
51 51 51
51 51 51
51 51 51
51 51 51
51 51 51
51 51 51
51 51 51
51 51 51
51 51 51
51 51 51
51 51 51
51 51 51
51 51 51
51 51 51
51 51 51
51 51 51
51 51 51
51 51 51
51 51 51
51 51 51
51 51 51
51 51 51
51 51 51
51 51 51
51 51 51
51 51 51
51 51 51
51 51 51
51 51 51
51 51 51
51 51 51
51 51 51
51 51 51
51 51 51
51 51 51
51 51 51
51 51 51
51 51 51
51 51 51
51 51 51
51 51 51
51 51 51
51 51 51
51 51 51
51 51 51
132 0 0
132 0 0
131 0 0
131 0 0
131 0 0
131 0 0
131 0 0
130 0 0
130 0 0
130 0 0
130 0 0
129 0 0
129 0 0
129 0 0
129 0 0
128 0 0
128 0 0
128 0 0
127 0 0
127 0 0
127 0 0
127 0 0
126 0 0
126 0 0
126 0 0
125 0 0
125 0 0
125 0 0
124 0 0
124 0 0
123 0 0
123 0 0
123 0 0
122 0 0
122 0 0
122 0 0
121 0 0
121 0 0
0 0 121
0 0 121
0 0 122
0 0 122
0 0 122
0 0 123
0 0 123
0 0 123
0 0 124
0 0 124
0 0 125
0 0 125
0 0 125
0 0 126
0 0 126
0 0 126
0 0 127
0 0 127
0 0 127
0 0 127
0 0 128
0 0 128
0 0 128
51 51 51
51 51 51
51 51 51
51 51 51
51 51 51
51 51 51
51 51 51
51 51 51
51 51 51
51 51 51
51 51 51
51 51 51
51 51 51
51 51 51
51 51 51
51 51 51
51 51 51
51 51 51
51 51 51
51 51 51
51 51 51
51 51 51
51 51 51
51 51 51
51 51 51
51 51 51
51 51 51
51 51 51
51 51 51
51 51 51
51 51 51
51 51 51
51 51 51
51 51 51
51 51 51
51 51 51
51 51 51
51 51 51
51 51 51
51 51 51
51 51 51
51 51 51
51 51 51
51 51 51
51 51 51
51 51 51
51 51 51
51 51 51
51 51 51
51 51 51
51 51 51
51 51 51
51 51 51
51 51 51
51 51 51
51 51 51
51 51 51
51 51 51
51 51 51
51 51 51
51 51 51
51 51 51
51 51 51
51 51 51
51 51 51
51 51 51
51 51 51
51 51 51
51 51 51
51 51 51
51 51 51
51 51 51
51 51 51
51 51 51
51 51 51
51 51 51
51 51 51
51 51 51
51 51 51
51 51 51
51 51 51
51 51 51
51 51 51
51 51 51
51 51 51
51 51 51
51 51 51
51 51 51
51 51 51
51 51 51
51 51 51
51 51 51
51 51 51
51 51 51
51 51 51
51 51 51
51 51 51
51 51 51
51 51 51
51 51 51
51 51 51
51 51 51
51 51 51
51 51 51
51 51 51
51 51 51
51 51 51
51 51 51
51 51 51
51 51 51
51 51 51
51 51 51
51 51 51
51 51 51
51 51 51
51 51 51
51 51 51
51 51 51
51 51 51
51 51 51
51 51 51
51 51 51
51 51 51
51 51 51
51 51 51
51 51 51
51 51 51
51 51 51
51 51 51
51 51 51
51 51 51
51 51 51
51 51 51
51 51 51
51 51 51
51 51 51
51 51 51
51 51 51
51 51 51
51 51 51
132 0 0
131 0 0
131 0 0
131 0 0
131 0 0
131 0 0
130 0 0
130 0 0
130 0 0
130 0 0
129 0 0
129 0 0
129 0 0
129 0 0
128 0 0
128 0 0
128 0 0
128 0 0
127 0 0
127 0 0
127 0 0
126 0 0
126 0 0
126 0 0
125 0 0
125 0 0
125 0 0
124 0 0
124 0 0
124 0 0
123 0 0
123 0 0
123 0 0
122 0 0
122 0 0
121 0 0
121 0 0
0 0 121
0 0 121
0 0 122
0 0 122
0 0 123
0 0 123
0 0 123
0 0 124
0 0 124
0 0 124
0 0 125
0 0 125
0 0 125
0 0 126
0 0 126
0 0 126
0 0 127
0 0 127
0 0 127
0 0 128
0 0 128
0 0 128
0 0 128
51 51 51
51 51 51
51 51 51
51 51 51
51 51 51
51 51 51
51 51 51
51 51 51
51 51 51
51 51 51
51 51 51
51 51 51
51 51 51
51 51 51
51 51 51
51 51 51
51 51 51
51 51 51
51 51 51
51 51 51
51 51 51
51 51 51
51 51 51
51 51 51
51 51 51
51 51 51
51 51 51
51 51 51
51 51 51
51 51 51
51 51 51
51 51 51
51 51 51
51 51 51
51 51 51
51 51 51
51 51 51
51 51 51
51 51 51
51 51 51
51 51 51
51 51 51
51 51 51
51 51 51
51 51 51
51 51 51
51 51 51
51 51 51
51 51 51
51 51 51
51 51 51
51 51 51
51 51 51
51 51 51
51 51 51
51 51 51
51 51 51
51 51 51
51 51 51
51 51 51
51 51 51
51 51 51
51 51 51
51 51 51
51 51 51
51 51 51
51 51 51
51 51 51
51 51 51
51 51 51
51 51 51
51 51 51
51 51 51
51 51 51
51 51 51
51 51 51
51 51 51
51 51 51
51 51 51
51 51 51
51 51 51
51 51 51
51 51 51
51 51 51
51 51 51
51 51 51
51 51 51
51 51 51
51 51 51
51 51 51
51 51 51
51 51 51
51 51 51
51 51 51
51 51 51
51 51 51
51 51 51
51 51 51
51 51 51
51 51 51
51 51 51
51 51 51
51 51 51
51 51 51
51 51 51
51 51 51
51 51 51
51 51 51
51 51 51
51 51 51
51 51 51
51 51 51
51 51 51
51 51 51
51 51 51
51 51 51
51 51 51
51 51 51
51 51 51
51 51 51
51 51 51
51 51 51
51 51 51
51 51 51
51 51 51
51 51 51
51 51 51
51 51 51
51 51 51
51 51 51
51 51 51
51 51 51
51 51 51
51 51 51
51 51 51
51 51 51
51 51 51
51 51 51
51 51 51
51 51 51
51 51 51
132 0 0
131 0 0
131 0 0
131 0 0
131 0 0
130 0 0
130 0 0
130 0 0
130 0 0
129 0 0
129 0 0
129 0 0
129 0 0
128 0 0
128 0 0
128 0 0
128 0 0
127 0 0
127 0 0
127 0 0
126 0 0
126 0 0
126 0 0
126 0 0
125 0 0
125 0 0
125 0 0
124 0 0
124 0 0
123 0 0
123 0 0
123 0 0
122 0 0
122 0 0
121 0 0
121 0 0
0 0 121
0 0 121
0 0 122
0 0 122
0 0 123
0 0 123
0 0 123
0 0 124
0 0 124
0 0 125
0 0 125
0 0 125
0 0 126
0 0 126
0 0 126
0 0 126
0 0 127
0 0 127
0 0 127
0 0 128
0 0 128
0 0 128
51 51 51
51 51 51
51 51 51
51 51 51
51 51 51
51 51 51
51 51 51
51 51 51
51 51 51
51 51 51
51 51 51
51 51 51
51 51 51
51 51 51
51 51 51
51 51 51
51 51 51
51 51 51
51 51 51
51 51 51
51 51 51
51 51 51
51 51 51
51 51 51
51 51 51
51 51 51
51 51 51
51 51 51
51 51 51
51 51 51
51 51 51
51 51 51
51 51 51
51 51 51
51 51 51
51 51 51
51 51 51
51 51 51
51 51 51
51 51 51
51 51 51
51 51 51
51 51 51
51 51 51
51 51 51
51 51 51
51 51 51
51 51 51
51 51 51
51 51 51
51 51 51
51 51 51
51 51 51
51 51 51
51 51 51
51 51 51
51 51 51
51 51 51
51 51 51
51 51 51
51 51 51
51 51 51
51 51 51
51 51 51
51 51 51
51 51 51
51 51 51
51 51 51
51 51 51
51 51 51
51 51 51
51 51 51
51 51 51
51 51 51
51 51 51
51 51 51
51 51 51
51 51 51
51 51 51
51 51 51
51 51 51
51 51 51
51 51 51
51 51 51
51 51 51
51 51 51
51 51 51
51 51 51
51 51 51
51 51 51
51 51 51
51 51 51
51 51 51
51 51 51
51 51 51
51 51 51
51 51 51
51 51 51
51 51 51
51 51 51
51 51 51
51 51 51
51 51 51
51 51 51
51 51 51
51 51 51
51 51 51
51 51 51
51 51 51
51 51 51
51 51 51
51 51 51
51 51 51
51 51 51
51 51 51
51 51 51
51 51 51
51 51 51
51 51 51
51 51 51
51 51 51
51 51 51
51 51 51
51 51 51
51 51 51
51 51 51
51 51 51
51 51 51
51 51 51
51 51 51
51 51 51
51 51 51
51 51 51
51 51 51
51 51 51
51 51 51
51 51 51
51 51 51
51 51 51
51 51 51
51 51 51
51 51 51
132 0 0
131 0 0
131 0 0
131 0 0
131 0 0
131 0 0
130 0 0
130 0 0
130 0 0
130 0 0
129 0 0
129 0 0
129 0 0
129 0 0
128 0 0
128 0 0
128 0 0
127 0 0
127 0 0
127 0 0
127 0 0
126 0 0
126 0 0
126 0 0
125 0 0
125 0 0
125 0 0
124 0 0
124 0 0
124 0 0
123 0 0
123 0 0
122 0 0
122 0 0
122 0 0
121 0 0
0 0 121
0 0 122
0 0 122
0 0 122
0 0 123
0 0 123
0 0 124
0 0 124
0 0 124
0 0 125
0 0 125
0 0 125
0 0 126
0 0 126
0 0 126
0 0 127
0 0 127
0 0 127
0 0 127
0 0 128
0 0 128
0 0 128
51 51 51
51 51 51
51 51 51
51 51 51
51 51 51
51 51 51
51 51 51
51 51 51
51 51 51
51 51 51
51 51 51
51 51 51
51 51 51
51 51 51
51 51 51
51 51 51
51 51 51
51 51 51
51 51 51
51 51 51
51 51 51
51 51 51
51 51 51
51 51 51
51 51 51
51 51 51
51 51 51
51 51 51
51 51 51
51 51 51
51 51 51
51 51 51
51 51 51
51 51 51
51 51 51
51 51 51
51 51 51
51 51 51
51 51 51
51 51 51
51 51 51
51 51 51
51 51 51
51 51 51
51 51 51
51 51 51
51 51 51
51 51 51
51 51 51
51 51 51
51 51 51
51 51 51
51 51 51
51 51 51
51 51 51
51 51 51
51 51 51
51 51 51
51 51 51
51 51 51
51 51 51
51 51 51
51 51 51
51 51 51
51 51 51
51 51 51
51 51 51
51 51 51
51 51 51
51 51 51
51 51 51
51 51 51
51 51 51
51 51 51
51 51 51
51 51 51
51 51 51
51 51 51
51 51 51
51 51 51
51 51 51
51 51 51
51 51 51
51 51 51
51 51 51
51 51 51
51 51 51
51 51 51
51 51 51
51 51 51
51 51 51
51 51 51
51 51 51
51 51 51
51 51 51
51 51 51
51 51 51
51 51 51
51 51 51
51 51 51
51 51 51
51 51 51
51 51 51
51 51 51
51 51 51
51 51 51
51 51 51
51 51 51
51 51 51
51 51 51
51 51 51
51 51 51
51 51 51
51 51 51
51 51 51
51 51 51
51 51 51
51 51 51
51 51 51
51 51 51
51 51 51
51 51 51
51 51 51
51 51 51
51 51 51
51 51 51
51 51 51
51 51 51
51 51 51
51 51 51
51 51 51
51 51 51
51 51 51
51 51 51
51 51 51
51 51 51
51 51 51
51 51 51
51 51 51
51 51 51
51 51 51
51 51 51
51 51 51
131 0 0
131 0 0
131 0 0
131 0 0
131 0 0
130 0 0
130 0 0
130 0 0
130 0 0
129 0 0
129 0 0
129 0 0
129 0 0
128 0 0
128 0 0
128 0 0
128 0 0
127 0 0
127 0 0
127 0 0
126 0 0
126 0 0
126 0 0
125 0 0
125 0 0
125 0 0
124 0 0
124 0 0
124 0 0
123 0 0
123 0 0
123 0 0
122 0 0
122 0 0
121 0 0
0 0 121
0 0 122
0 0 122
0 0 123
0 0 123
0 0 123
0 0 124
0 0 124
0 0 124
0 0 125
0 0 125
0 0 125
0 0 126
0 0 126
0 0 126
0 0 127
0 0 127
0 0 127
0 0 128
0 0 128
0 0 128
0 0 128
51 51 51
51 51 51
51 51 51
51 51 51
51 51 51
51 51 51
51 51 51
51 51 51
51 51 51
51 51 51
51 51 51
51 51 51
51 51 51
51 51 51
51 51 51
51 51 51
51 51 51
51 51 51
51 51 51
51 51 51
51 51 51
51 51 51
51 51 51
51 51 51
51 51 51
51 51 51
51 51 51
51 51 51
51 51 51
51 51 51
51 51 51
51 51 51
51 51 51
51 51 51
51 51 51
51 51 51
51 51 51
51 51 51
51 51 51
51 51 51
51 51 51
51 51 51
51 51 51
51 51 51
51 51 51
51 51 51
51 51 51
51 51 51
51 51 51
51 51 51
51 51 51
51 51 51
51 51 51
51 51 51
51 51 51
51 51 51
51 51 51
51 51 51
51 51 51
51 51 51
51 51 51
51 51 51
51 51 51
51 51 51
51 51 51
51 51 51
51 51 51
51 51 51
51 51 51
51 51 51
51 51 51
51 51 51
51 51 51
51 51 51
51 51 51
51 51 51
51 51 51
51 51 51
51 51 51
51 51 51
51 51 51
51 51 51
51 51 51
51 51 51
51 51 51
51 51 51
51 51 51
51 51 51
51 51 51
51 51 51
51 51 51
51 51 51
51 51 51
51 51 51
51 51 51
51 51 51
51 51 51
51 51 51
51 51 51
51 51 51
51 51 51
51 51 51
51 51 51
51 51 51
51 51 51
51 51 51
51 51 51
51 51 51
51 51 51
51 51 51
51 51 51
51 51 51
51 51 51
51 51 51
51 51 51
51 51 51
51 51 51
51 51 51
51 51 51
51 51 51
51 51 51
51 51 51
51 51 51
51 51 51
51 51 51
51 51 51
51 51 51
51 51 51
51 51 51
51 51 51
51 51 51
51 51 51
51 51 51
51 51 51
51 51 51
51 51 51
51 51 51
51 51 51
51 51 51
51 51 51
51 51 51
51 51 51
51 51 51
131 0 0
131 0 0
131 0 0
131 0 0
131 0 0
130 0 0
130 0 0
130 0 0
130 0 0
129 0 0
129 0 0
129 0 0
129 0 0
128 0 0
128 0 0
128 0 0
128 0 0
127 0 0
127 0 0
127 0 0
126 0 0
126 0 0
126 0 0
126 0 0
125 0 0
125 0 0
125 0 0
124 0 0
124 0 0
124 0 0
123 0 0
123 0 0
122 0 0
122 0 0
122 0 0
0 0 122
0 0 122
0 0 122
0 0 123
0 0 123
0 0 124
0 0 124
0 0 124
0 0 125
0 0 125
0 0 125
0 0 126
0 0 126
0 0 126
0 0 126
0 0 127
0 0 127
0 0 127
0 0 128
0 0 128
0 0 128
51 51 51
51 51 51
51 51 51
51 51 51
51 51 51
51 51 51
51 51 51
51 51 51
51 51 51
51 51 51
51 51 51
51 51 51
51 51 51
51 51 51
51 51 51
51 51 51
51 51 51
51 51 51
51 51 51
51 51 51
51 51 51
51 51 51
51 51 51
51 51 51
51 51 51
51 51 51
51 51 51
51 51 51
51 51 51
51 51 51
51 51 51
51 51 51
51 51 51
51 51 51
51 51 51
51 51 51
51 51 51
51 51 51
51 51 51
51 51 51
51 51 51
51 51 51
51 51 51
51 51 51
51 51 51
51 51 51
51 51 51
51 51 51
51 51 51
51 51 51
51 51 51
51 51 51
51 51 51
51 51 51
51 51 51
51 51 51
51 51 51
51 51 51
51 51 51
51 51 51
51 51 51
51 51 51
51 51 51
51 51 51
51 51 51
51 51 51
51 51 51
51 51 51
51 51 51
51 51 51
51 51 51
51 51 51
51 51 51
51 51 51
51 51 51
51 51 51
51 51 51
51 51 51
51 51 51
51 51 51
51 51 51
51 51 51
51 51 51
51 51 51
51 51 51
51 51 51
51 51 51
51 51 51
51 51 51
51 51 51
51 51 51
51 51 51
51 51 51
51 51 51
51 51 51
51 51 51
51 51 51
51 51 51
51 51 51
51 51 51
51 51 51
51 51 51
51 51 51
51 51 51
51 51 51
51 51 51
51 51 51
51 51 51
51 51 51
51 51 51
51 51 51
51 51 51
51 51 51
51 51 51
51 51 51
51 51 51
51 51 51
51 51 51
51 51 51
51 51 51
51 51 51
51 51 51
51 51 51
51 51 51
51 51 51
51 51 51
51 51 51
51 51 51
51 51 51
51 51 51
51 51 51
51 51 51
51 51 51
51 51 51
51 51 51
51 51 51
51 51 51
51 51 51
51 51 51
51 51 51
51 51 51
51 51 51
51 51 51
51 51 51
51 51 51
131 0 0
131 0 0
131 0 0
131 0 0
130 0 0
130 0 0
130 0 0
130 0 0
130 0 0
129 0 0
129 0 0
129 0 0
129 0 0
128 0 0
128 0 0
128 0 0
127 0 0
127 0 0
127 0 0
127 0 0
126 0 0
126 0 0
126 0 0
125 0 0
125 0 0
125 0 0
124 0 0
124 0 0
124 0 0
123 0 0
123 0 0
123 0 0
122 0 0
122 0 0
0 0 122
0 0 122
0 0 123
0 0 123
0 0 123
0 0 124
0 0 124
0 0 124
0 0 125
0 0 125
0 0 125
0 0 126
0 0 126
0 0 126
0 0 127
0 0 127
0 0 127
0 0 127
0 0 128
0 0 128
0 0 128
51 51 51
51 51 51
51 51 51
51 51 51
51 51 51
51 51 51
51 51 51
51 51 51
51 51 51
51 51 51
51 51 51
51 51 51
51 51 51
51 51 51
51 51 51
51 51 51
51 51 51
51 51 51
51 51 51
51 51 51
51 51 51
51 51 51
51 51 51
51 51 51
51 51 51
51 51 51
51 51 51
51 51 51
51 51 51
51 51 51
51 51 51
51 51 51
51 51 51
51 51 51
51 51 51
51 51 51
51 51 51
51 51 51
51 51 51
51 51 51
51 51 51
51 51 51
51 51 51
51 51 51
51 51 51
51 51 51
51 51 51
51 51 51
51 51 51
51 51 51
51 51 51
51 51 51
51 51 51
51 51 51
51 51 51
51 51 51
51 51 51
51 51 51
51 51 51
51 51 51
51 51 51
51 51 51
51 51 51
51 51 51
51 51 51
51 51 51
51 51 51
51 51 51
51 51 51
51 51 51
51 51 51
51 51 51
51 51 51
51 51 51
51 51 51
51 51 51
51 51 51
51 51 51
51 51 51
51 51 51
51 51 51
51 51 51
51 51 51
51 51 51
51 51 51
51 51 51
51 51 51
51 51 51
51 51 51
51 51 51
51 51 51
51 51 51
51 51 51
51 51 51
51 51 51
51 51 51
51 51 51
51 51 51
51 51 51
51 51 51
51 51 51
51 51 51
51 51 51
51 51 51
51 51 51
51 51 51
51 51 51
51 51 51
51 51 51
51 51 51
51 51 51
51 51 51
51 51 51
51 51 51
51 51 51
51 51 51
51 51 51
51 51 51
51 51 51
51 51 51
51 51 51
51 51 51
51 51 51
51 51 51
51 51 51
51 51 51
51 51 51
51 51 51
51 51 51
51 51 51
51 51 51
51 51 51
51 51 51
51 51 51
51 51 51
51 51 51
51 51 51
51 51 51
51 51 51
51 51 51
51 51 51
51 51 51
51 51 51
51 51 51
51 51 51
131 0 0
131 0 0
131 0 0
131 0 0
131 0 0
130 0 0
130 0 0
130 0 0
130 0 0
129 0 0
129 0 0
129 0 0
129 0 0
128 0 0
128 0 0
128 0 0
128 0 0
127 0 0
127 0 0
127 0 0
126 0 0
126 0 0
126 0 0
125 0 0
125 0 0
125 0 0
125 0 0
124 0 0
124 0 0
123 0 0
123 0 0
123 0 0
122 0 0
122 0 0
0 0 122
0 0 122
0 0 123
0 0 123
0 0 123
0 0 124
0 0 124
0 0 125
0 0 125
0 0 125
0 0 125
0 0 126
0 0 126
0 0 126
0 0 127
0 0 127
0 0 127
0 0 128
0 0 128
0 0 128
0 0 128
51 51 51
51 51 51
51 51 51
51 51 51
51 51 51
51 51 51
51 51 51
51 51 51
51 51 51
51 51 51
51 51 51
51 51 51
51 51 51
51 51 51
51 51 51
51 51 51
51 51 51
51 51 51
51 51 51
51 51 51
51 51 51
51 51 51
51 51 51
51 51 51
51 51 51
51 51 51
51 51 51
51 51 51
51 51 51
51 51 51
51 51 51
51 51 51
51 51 51
51 51 51
51 51 51
51 51 51
51 51 51
51 51 51
51 51 51
51 51 51
51 51 51
51 51 51
51 51 51
51 51 51
51 51 51
51 51 51
51 51 51
51 51 51
51 51 51
51 51 51
51 51 51
51 51 51
51 51 51
51 51 51
51 51 51
51 51 51
51 51 51
51 51 51
51 51 51
51 51 51
51 51 51
51 51 51
51 51 51
51 51 51
51 51 51
51 51 51
51 51 51
51 51 51
51 51 51
51 51 51
51 51 51
51 51 51
51 51 51
51 51 51
51 51 51
51 51 51
51 51 51
51 51 51
51 51 51
51 51 51
51 51 51
51 51 51
51 51 51
51 51 51
51 51 51
51 51 51
51 51 51
51 51 51
51 51 51
51 51 51
51 51 51
51 51 51
51 51 51
51 51 51
51 51 51
51 51 51
51 51 51
51 51 51
51 51 51
51 51 51
51 51 51
51 51 51
51 51 51
51 51 51
51 51 51
51 51 51
51 51 51
51 51 51
51 51 51
51 51 51
51 51 51
51 51 51
51 51 51
51 51 51
51 51 51
51 51 51
51 51 51
51 51 51
51 51 51
51 51 51
51 51 51
51 51 51
51 51 51
51 51 51
51 51 51
51 51 51
51 51 51
51 51 51
51 51 51
51 51 51
51 51 51
51 51 51
51 51 51
51 51 51
51 51 51
51 51 51
51 51 51
51 51 51
51 51 51
51 51 51
51 51 51
51 51 51
51 51 51
51 51 51
51 51 51
51 51 51
131 0 0
131 0 0
131 0 0
131 0 0
130 0 0
130 0 0
130 0 0
130 0 0
129 0 0
129 0 0
129 0 0
129 0 0
128 0 0
128 0 0
128 0 0
128 0 0
127 0 0
127 0 0
127 0 0
127 0 0
126 0 0
126 0 0
126 0 0
125 0 0
125 0 0
125 0 0
124 0 0
124 0 0
124 0 0
123 0 0
123 0 0
123 0 0
122 0 0
0 0 122
0 0 123
0 0 123
0 0 123
0 0 124
0 0 124
0 0 124
0 0 125
0 0 125
0 0 125
0 0 126
0 0 126
0 0 126
0 0 127
0 0 127
0 0 127
0 0 127
0 0 128
0 0 128
0 0 128
51 51 51
51 51 51
51 51 51
51 51 51
51 51 51
51 51 51
51 51 51
51 51 51
51 51 51
51 51 51
51 51 51
51 51 51
51 51 51
51 51 51
51 51 51
51 51 51
51 51 51
51 51 51
51 51 51
51 51 51
51 51 51
51 51 51
51 51 51
51 51 51
51 51 51
51 51 51
51 51 51
51 51 51
51 51 51
51 51 51
51 51 51
51 51 51
51 51 51
51 51 51
51 51 51
51 51 51
51 51 51
51 51 51
51 51 51
51 51 51
51 51 51
51 51 51
51 51 51
51 51 51
51 51 51
51 51 51
51 51 51
51 51 51
51 51 51
51 51 51
51 51 51
51 51 51
51 51 51
51 51 51
51 51 51
51 51 51
51 51 51
51 51 51
51 51 51
51 51 51
51 51 51
51 51 51
51 51 51
51 51 51
51 51 51
51 51 51
51 51 51
51 51 51
51 51 51
51 51 51
51 51 51
51 51 51
51 51 51
51 51 51
51 51 51
51 51 51
51 51 51
51 51 51
51 51 51
51 51 51
51 51 51
51 51 51
51 51 51
51 51 51
51 51 51
51 51 51
51 51 51
51 51 51
51 51 51
51 51 51
51 51 51
51 51 51
51 51 51
51 51 51
51 51 51
51 51 51
51 51 51
51 51 51
51 51 51
51 51 51
51 51 51
51 51 51
51 51 51
51 51 51
51 51 51
51 51 51
51 51 51
51 51 51
51 51 51
51 51 51
51 51 51
51 51 51
51 51 51
51 51 51
51 51 51
51 51 51
51 51 51
51 51 51
51 51 51
51 51 51
51 51 51
51 51 51
51 51 51
51 51 51
51 51 51
51 51 51
51 51 51
51 51 51
51 51 51
51 51 51
51 51 51
51 51 51
51 51 51
51 51 51
51 51 51
51 51 51
51 51 51
51 51 51
51 51 51
51 51 51
51 51 51
51 51 51
51 51 51
51 51 51
51 51 51
51 51 51
51 51 51
51 51 51
131 0 0
131 0 0
131 0 0
130 0 0
130 0 0
130 0 0
130 0 0
130 0 0
129 0 0
129 0 0
129 0 0
129 0 0
128 0 0
128 0 0
128 0 0
127 0 0
127 0 0
127 0 0
127 0 0
126 0 0
126 0 0
126 0 0
125 0 0
125 0 0
125 0 0
124 0 0
124 0 0
124 0 0
123 0 0
123 0 0
123 0 0
122 0 0
0 0 122
0 0 123
0 0 123
0 0 123
0 0 124
0 0 124
0 0 124
0 0 125
0 0 125
0 0 125
0 0 126
0 0 126
0 0 126
0 0 127
0 0 127
0 0 127
0 0 127
0 0 128
0 0 128
0 0 128
51 51 51
51 51 51
51 51 51
51 51 51
51 51 51
51 51 51
51 51 51
51 51 51
51 51 51
51 51 51
51 51 51
51 51 51
51 51 51
51 51 51
51 51 51
51 51 51
51 51 51
51 51 51
51 51 51
51 51 51
51 51 51
51 51 51
51 51 51
51 51 51
51 51 51
51 51 51
51 51 51
51 51 51
51 51 51
51 51 51
51 51 51
51 51 51
51 51 51
51 51 51
51 51 51
51 51 51
51 51 51
51 51 51
51 51 51
51 51 51
51 51 51
51 51 51
51 51 51
51 51 51
51 51 51
51 51 51
51 51 51
51 51 51
51 51 51
51 51 51
51 51 51
51 51 51
51 51 51
51 51 51
51 51 51
51 51 51
51 51 51
51 51 51
51 51 51
51 51 51
51 51 51
51 51 51
51 51 51
51 51 51
51 51 51
51 51 51
51 51 51
51 51 51
51 51 51
51 51 51
51 51 51
51 51 51
51 51 51
51 51 51
51 51 51
51 51 51
51 51 51
51 51 51
51 51 51
51 51 51
51 51 51
51 51 51
51 51 51
51 51 51
51 51 51
51 51 51
51 51 51
51 51 51
51 51 51
51 51 51
51 51 51
51 51 51
51 51 51
51 51 51
51 51 51
51 51 51
51 51 51
51 51 51
51 51 51
51 51 51
51 51 51
51 51 51
51 51 51
51 51 51
51 51 51
51 51 51
51 51 51
51 51 51
51 51 51
51 51 51
51 51 51
51 51 51
51 51 51
51 51 51
51 51 51
51 51 51
51 51 51
51 51 51
51 51 51
51 51 51
51 51 51
51 51 51
51 51 51
51 51 51
51 51 51
51 51 51
51 51 51
51 51 51
51 51 51
51 51 51
51 51 51
51 51 51
51 51 51
51 51 51
51 51 51
51 51 51
51 51 51
51 51 51
51 51 51
51 51 51
51 51 51
51 51 51
51 51 51
51 51 51
51 51 51
51 51 51
51 51 51
51 51 51
131 0 0
131 0 0
131 0 0
130 0 0
130 0 0
130 0 0
130 0 0
130 0 0
129 0 0
129 0 0
129 0 0
129 0 0
128 0 0
128 0 0
128 0 0
128 0 0
127 0 0
127 0 0
127 0 0
126 0 0
126 0 0
126 0 0
126 0 0
125 0 0
125 0 0
125 0 0
124 0 0
124 0 0
124 0 0
123 0 0
123 0 0
122 0 0
0 0 122
0 0 123
0 0 123
0 0 124
0 0 124
0 0 124
0 0 125
0 0 125
0 0 125
0 0 126
0 0 126
0 0 126
0 0 126
0 0 127
0 0 127
0 0 127
0 0 128
0 0 128
0 0 128
0 0 128
51 51 51
51 51 51
51 51 51
51 51 51
51 51 51
51 51 51
51 51 51
51 51 51
51 51 51
51 51 51
51 51 51
51 51 51
51 51 51
51 51 51
51 51 51
51 51 51
51 51 51
51 51 51
51 51 51
51 51 51
51 51 51
51 51 51
51 51 51
51 51 51
51 51 51
51 51 51
51 51 51
51 51 51
51 51 51
51 51 51
51 51 51
51 51 51
51 51 51
51 51 51
51 51 51
51 51 51
51 51 51
51 51 51
51 51 51
51 51 51
51 51 51
51 51 51
51 51 51
51 51 51
51 51 51
51 51 51
51 51 51
51 51 51
51 51 51
51 51 51
51 51 51
51 51 51
51 51 51
51 51 51
51 51 51
51 51 51
51 51 51
51 51 51
51 51 51
51 51 51
51 51 51
51 51 51
51 51 51
51 51 51
51 51 51
51 51 51
51 51 51
51 51 51
51 51 51
51 51 51
51 51 51
51 51 51
51 51 51
51 51 51
51 51 51
51 51 51
51 51 51
51 51 51
51 51 51
51 51 51
51 51 51
51 51 51
51 51 51
51 51 51
51 51 51
51 51 51
51 51 51
51 51 51
51 51 51
51 51 51
51 51 51
51 51 51
51 51 51
51 51 51
51 51 51
51 51 51
51 51 51
51 51 51
51 51 51
51 51 51
51 51 51
51 51 51
51 51 51
51 51 51
51 51 51
51 51 51
51 51 51
51 51 51
51 51 51
51 51 51
51 51 51
51 51 51
51 51 51
51 51 51
51 51 51
51 51 51
51 51 51
51 51 51
51 51 51
51 51 51
51 51 51
51 51 51
51 51 51
51 51 51
51 51 51
51 51 51
51 51 51
51 51 51
51 51 51
51 51 51
51 51 51
51 51 51
51 51 51
51 51 51
51 51 51
51 51 51
51 51 51
51 51 51
51 51 51
51 51 51
51 51 51
51 51 51
51 51 51
51 51 51
51 51 51
51 51 51
51 51 51
51 51 51
51 51 51
131 0 0
131 0 0
131 0 0
130 0 0
130 0 0
130 0 0
130 0 0
129 0 0
129 0 0
129 0 0
129 0 0
128 0 0
128 0 0
128 0 0
128 0 0
127 0 0
127 0 0
127 0 0
127 0 0
126 0 0
126 0 0
126 0 0
125 0 0
125 0 0
125 0 0
124 0 0
124 0 0
124 0 0
123 0 0
123 0 0
123 0 0
0 0 123
0 0 123
0 0 123
0 0 124
0 0 124
0 0 124
0 0 125
0 0 125
0 0 125
0 0 126
0 0 126
0 0 126
0 0 127
0 0 127
0 0 127
0 0 127
0 0 128
0 0 128
0 0 128
51 51 51
51 51 51
51 51 51
51 51 51
51 51 51
51 51 51
51 51 51
51 51 51
51 51 51
51 51 51
51 51 51
51 51 51
51 51 51
51 51 51
51 51 51
51 51 51
51 51 51
51 51 51
51 51 51
51 51 51
51 51 51
51 51 51
51 51 51
51 51 51
51 51 51
51 51 51
51 51 51
51 51 51
51 51 51
51 51 51
51 51 51
51 51 51
51 51 51
51 51 51
51 51 51
51 51 51
51 51 51
51 51 51
51 51 51
51 51 51
51 51 51
51 51 51
51 51 51
51 51 51
51 51 51
51 51 51
51 51 51
51 51 51
51 51 51
51 51 51
51 51 51
51 51 51
51 51 51
51 51 51
51 51 51
51 51 51
51 51 51
51 51 51
51 51 51
51 51 51
51 51 51
51 51 51
51 51 51
51 51 51
51 51 51
51 51 51
51 51 51
51 51 51
51 51 51
51 51 51
51 51 51
51 51 51
51 51 51
51 51 51
51 51 51
51 51 51
51 51 51
51 51 51
51 51 51
51 51 51
51 51 51
51 51 51
51 51 51
51 51 51
51 51 51
51 51 51
51 51 51
51 51 51
51 51 51
51 51 51
51 51 51
51 51 51
51 51 51
51 51 51
51 51 51
51 51 51
51 51 51
51 51 51
51 51 51
51 51 51
51 51 51
51 51 51
51 51 51
51 51 51
51 51 51
51 51 51
51 51 51
51 51 51
51 51 51
51 51 51
51 51 51
51 51 51
51 51 51
51 51 51
51 51 51
51 51 51
51 51 51
51 51 51
51 51 51
51 51 51
51 51 51
51 51 51
51 51 51
51 51 51
51 51 51
51 51 51
51 51 51
51 51 51
51 51 51
51 51 51
51 51 51
51 51 51
51 51 51
51 51 51
51 51 51
51 51 51
51 51 51
51 51 51
51 51 51
51 51 51
51 51 51
51 51 51
51 51 51
51 51 51
51 51 51
51 51 51
51 51 51
51 51 51
51 51 51
51 51 51
131 0 0
131 0 0
131 0 0
130 0 0
130 0 0
130 0 0
130 0 0
129 0 0
129 0 0
129 0 0
129 0 0
129 0 0
128 0 0
128 0 0
128 0 0
127 0 0
127 0 0
127 0 0
127 0 0
126 0 0
126 0 0
126 0 0
125 0 0
125 0 0
125 0 0
125 0 0
124 0 0
124 0 0
124 0 0
123 0 0
123 0 0
0 0 123
0 0 123
0 0 124
0 0 124
0 0 124
0 0 125
0 0 125
0 0 125
0 0 125
0 0 126
0 0 126
0 0 126
0 0 127
0 0 127
0 0 127
0 0 127
0 0 128
0 0 128
0 0 128
51 51 51
51 51 51
51 51 51
51 51 51
51 51 51
51 51 51
51 51 51
51 51 51
51 51 51
51 51 51
51 51 51
51 51 51
51 51 51
51 51 51
51 51 51
51 51 51
51 51 51
51 51 51
51 51 51
51 51 51
51 51 51
51 51 51
51 51 51
51 51 51
51 51 51
51 51 51
51 51 51
51 51 51
51 51 51
51 51 51
51 51 51
51 51 51
51 51 51
51 51 51
51 51 51
51 51 51
51 51 51
51 51 51
51 51 51
51 51 51
51 51 51
51 51 51
51 51 51
51 51 51
51 51 51
51 51 51
51 51 51
51 51 51
51 51 51
51 51 51
51 51 51
51 51 51
51 51 51
51 51 51
51 51 51
51 51 51
51 51 51
51 51 51
51 51 51
51 51 51
51 51 51
51 51 51
51 51 51
51 51 51
51 51 51
51 51 51
51 51 51
51 51 51
51 51 51
51 51 51
51 51 51
51 51 51
51 51 51
51 51 51
51 51 51
51 51 51
51 51 51
51 51 51
51 51 51
51 51 51
51 51 51
51 51 51
51 51 51
51 51 51
51 51 51
51 51 51
51 51 51
51 51 51
51 51 51
51 51 51
51 51 51
51 51 51
51 51 51
51 51 51
51 51 51
51 51 51
51 51 51
51 51 51
51 51 51
51 51 51
51 51 51
51 51 51
51 51 51
51 51 51
51 51 51
51 51 51
51 51 51
51 51 51
51 51 51
51 51 51
51 51 51
51 51 51
51 51 51
51 51 51
51 51 51
51 51 51
51 51 51
51 51 51
51 51 51
51 51 51
51 51 51
51 51 51
51 51 51
51 51 51
51 51 51
51 51 51
51 51 51
51 51 51
51 51 51
51 51 51
51 51 51
51 51 51
51 51 51
51 51 51
51 51 51
51 51 51
51 51 51
51 51 51
51 51 51
51 51 51
51 51 51
51 51 51
51 51 51
51 51 51
51 51 51
51 51 51
51 51 51
51 51 51
51 51 51
51 51 51
51 51 51
131 0 0
131 0 0
130 0 0
130 0 0
130 0 0
130 0 0
130 0 0
129 0 0
129 0 0
129 0 0
129 0 0
128 0 0
128 0 0
128 0 0
128 0 0
127 0 0
127 0 0
127 0 0
126 0 0
126 0 0
126 0 0
126 0 0
125 0 0
125 0 0
125 0 0
124 0 0
124 0 0
124 0 0
123 0 0
123 0 0
0 0 123
0 0 123
0 0 124
0 0 124
0 0 124
0 0 125
0 0 125
0 0 125
0 0 126
0 0 126
0 0 126
0 0 126
0 0 127
0 0 127
0 0 127
0 0 128
0 0 128
0 0 128
0 0 128
51 51 51
51 51 51
51 51 51
51 51 51
51 51 51
51 51 51
51 51 51
51 51 51
51 51 51
51 51 51
51 51 51
51 51 51
51 51 51
51 51 51
51 51 51
51 51 51
51 51 51
51 51 51
51 51 51
51 51 51
51 51 51
51 51 51
51 51 51
51 51 51
51 51 51
51 51 51
51 51 51
51 51 51
51 51 51
51 51 51
51 51 51
51 51 51
51 51 51
51 51 51
51 51 51
51 51 51
51 51 51
51 51 51
51 51 51
51 51 51
51 51 51
51 51 51
51 51 51
51 51 51
51 51 51
51 51 51
51 51 51
51 51 51
51 51 51
51 51 51
51 51 51
51 51 51
51 51 51
51 51 51
51 51 51
51 51 51
51 51 51
51 51 51
51 51 51
51 51 51
51 51 51
51 51 51
51 51 51
51 51 51
51 51 51
51 51 51
51 51 51
51 51 51
51 51 51
51 51 51
51 51 51
51 51 51
51 51 51
51 51 51
51 51 51
51 51 51
51 51 51
51 51 51
51 51 51
51 51 51
51 51 51
51 51 51
51 51 51
51 51 51
51 51 51
51 51 51
51 51 51
51 51 51
51 51 51
51 51 51
51 51 51
51 51 51
51 51 51
51 51 51
51 51 51
51 51 51
51 51 51
51 51 51
51 51 51
51 51 51
51 51 51
51 51 51
51 51 51
51 51 51
51 51 51
51 51 51
51 51 51
51 51 51
51 51 51
51 51 51
51 51 51
51 51 51
51 51 51
51 51 51
51 51 51
51 51 51
51 51 51
51 51 51
51 51 51
51 51 51
51 51 51
51 51 51
51 51 51
51 51 51
51 51 51
51 51 51
51 51 51
51 51 51
51 51 51
51 51 51
51 51 51
51 51 51
51 51 51
51 51 51
51 51 51
51 51 51
51 51 51
51 51 51
51 51 51
51 51 51
51 51 51
51 51 51
51 51 51
51 51 51
51 51 51
51 51 51
51 51 51
51 51 51
51 51 51
51 51 51
51 51 51
131 0 0
131 0 0
130 0 0
130 0 0
130 0 0
130 0 0
130 0 0
129 0 0
129 0 0
129 0 0
129 0 0
128 0 0
128 0 0
128 0 0
128 0 0
127 0 0
127 0 0
127 0 0
127 0 0
126 0 0
126 0 0
126 0 0
125 0 0
125 0 0
125 0 0
124 0 0
124 0 0
124 0 0
123 0 0
123 0 0
0 0 123
0 0 123
0 0 124
0 0 124
0 0 124
0 0 125
0 0 125
0 0 125
0 0 126
0 0 126
0 0 126
0 0 127
0 0 127
0 0 127
0 0 127
0 0 128
0 0 128
0 0 128
51 51 51
51 51 51
51 51 51
51 51 51
51 51 51
51 51 51
51 51 51
51 51 51
51 51 51
51 51 51
51 51 51
51 51 51
51 51 51
51 51 51
51 51 51
51 51 51
51 51 51
51 51 51
51 51 51
51 51 51
51 51 51
51 51 51
51 51 51
51 51 51
51 51 51
51 51 51
51 51 51
51 51 51
51 51 51
51 51 51
51 51 51
51 51 51
51 51 51
51 51 51
51 51 51
51 51 51
51 51 51
51 51 51
51 51 51
51 51 51
51 51 51
51 51 51
51 51 51
51 51 51
51 51 51
51 51 51
51 51 51
51 51 51
51 51 51
51 51 51
51 51 51
51 51 51
51 51 51
51 51 51
51 51 51
51 51 51
51 51 51
51 51 51
51 51 51
51 51 51
51 51 51
51 51 51
51 51 51
51 51 51
51 51 51
51 51 51
51 51 51
51 51 51
51 51 51
51 51 51
51 51 51
51 51 51
51 51 51
51 51 51
51 51 51
51 51 51
51 51 51
51 51 51
51 51 51
51 51 51
51 51 51
51 51 51
51 51 51
51 51 51
51 51 51
51 51 51
51 51 51
51 51 51
51 51 51
51 51 51
51 51 51
51 51 51
51 51 51
51 51 51
51 51 51
51 51 51
51 51 51
51 51 51
51 51 51
51 51 51
51 51 51
51 51 51
51 51 51
51 51 51
51 51 51
51 51 51
51 51 51
51 51 51
51 51 51
51 51 51
51 51 51
51 51 51
51 51 51
51 51 51
51 51 51
51 51 51
51 51 51
51 51 51
51 51 51
51 51 51
51 51 51
51 51 51
51 51 51
51 51 51
51 51 51
51 51 51
51 51 51
51 51 51
51 51 51
51 51 51
51 51 51
51 51 51
51 51 51
51 51 51
51 51 51
51 51 51
51 51 51
51 51 51
51 51 51
51 51 51
51 51 51
51 51 51
51 51 51
51 51 51
51 51 51
51 51 51
51 51 51
51 51 51
51 51 51
51 51 51
51 51 51
51 51 51
51 51 51
131 0 0
131 0 0
130 0 0
130 0 0
130 0 0
130 0 0
129 0 0
129 0 0
129 0 0
129 0 0
128 0 0
128 0 0
128 0 0
128 0 0
127 0 0
127 0 0
127 0 0
127 0 0
126 0 0
126 0 0
126 0 0
126 0 0
125 0 0
125 0 0
125 0 0
124 0 0
124 0 0
124 0 0
123 0 0
0 0 123
0 0 124
0 0 124
0 0 124
0 0 125
0 0 125
0 0 125
0 0 126
0 0 126
0 0 126
0 0 126
0 0 127
0 0 127
0 0 127
0 0 127
0 0 128
0 0 128
0 0 128
51 51 51
51 51 51
51 51 51
51 51 51
51 51 51
51 51 51
51 51 51
51 51 51
51 51 51
51 51 51
51 51 51
51 51 51
51 51 51
51 51 51
51 51 51
51 51 51
51 51 51
51 51 51
51 51 51
51 51 51
51 51 51
51 51 51
51 51 51
51 51 51
51 51 51
51 51 51
51 51 51
51 51 51
51 51 51
51 51 51
51 51 51
51 51 51
51 51 51
51 51 51
51 51 51
51 51 51
51 51 51
51 51 51
51 51 51
51 51 51
51 51 51
51 51 51
51 51 51
51 51 51
51 51 51
51 51 51
51 51 51
51 51 51
51 51 51
51 51 51
51 51 51
51 51 51
51 51 51
51 51 51
51 51 51
51 51 51
51 51 51
51 51 51
51 51 51
51 51 51
51 51 51
51 51 51
51 51 51
51 51 51
51 51 51
51 51 51
51 51 51
51 51 51
51 51 51
51 51 51
51 51 51
51 51 51
51 51 51
51 51 51
51 51 51
51 51 51
51 51 51
51 51 51
51 51 51
51 51 51
51 51 51
51 51 51
51 51 51
51 51 51
51 51 51
51 51 51
51 51 51
51 51 51
51 51 51
51 51 51
51 51 51
51 51 51
51 51 51
51 51 51
51 51 51
51 51 51
51 51 51
51 51 51
51 51 51
51 51 51
51 51 51
51 51 51
51 51 51
51 51 51
51 51 51
51 51 51
51 51 51
51 51 51
51 51 51
51 51 51
51 51 51
51 51 51
51 51 51
51 51 51
51 51 51
51 51 51
51 51 51
51 51 51
51 51 51
51 51 51
51 51 51
51 51 51
51 51 51
51 51 51
51 51 51
51 51 51
51 51 51
51 51 51
51 51 51
51 51 51
51 51 51
51 51 51
51 51 51
51 51 51
51 51 51
51 51 51
51 51 51
51 51 51
51 51 51
51 51 51
51 51 51
51 51 51
51 51 51
51 51 51
51 51 51
51 51 51
51 51 51
51 51 51
51 51 51
51 51 51
51 51 51
51 51 51
51 51 51
131 0 0
131 0 0
130 0 0
130 0 0
130 0 0
130 0 0
130 0 0
129 0 0
129 0 0
129 0 0
129 0 0
128 0 0
128 0 0
128 0 0
128 0 0
127 0 0
127 0 0
127 0 0
126 0 0
126 0 0
126 0 0
126 0 0
125 0 0
125 0 0
125 0 0
124 0 0
124 0 0
124 0 0
123 0 0
0 0 123
0 0 124
0 0 124
0 0 124
0 0 125
0 0 125
0 0 125
0 0 126
0 0 126
0 0 126
0 0 126
0 0 127
0 0 127
0 0 127
0 0 128
0 0 128
0 0 128
0 0 128
51 51 51
51 51 51
51 51 51
51 51 51
51 51 51
51 51 51
51 51 51
51 51 51
51 51 51
51 51 51
51 51 51
51 51 51
51 51 51
51 51 51
51 51 51
51 51 51
51 51 51
51 51 51
51 51 51
51 51 51
51 51 51
51 51 51
51 51 51
51 51 51
51 51 51
51 51 51
51 51 51
51 51 51
51 51 51
51 51 51
51 51 51
51 51 51
51 51 51
51 51 51
51 51 51
51 51 51
51 51 51
51 51 51
51 51 51
51 51 51
51 51 51
51 51 51
51 51 51
51 51 51
51 51 51
51 51 51
51 51 51
51 51 51
51 51 51
51 51 51
51 51 51
51 51 51
51 51 51
51 51 51
51 51 51
51 51 51
51 51 51
51 51 51
51 51 51
51 51 51
51 51 51
51 51 51
51 51 51
51 51 51
51 51 51
51 51 51
51 51 51
51 51 51
51 51 51
51 51 51
51 51 51
51 51 51
51 51 51
51 51 51
51 51 51
51 51 51
51 51 51
51 51 51
51 51 51
51 51 51
51 51 51
51 51 51
51 51 51
51 51 51
51 51 51
51 51 51
51 51 51
51 51 51
51 51 51
51 51 51
51 51 51
51 51 51
51 51 51
51 51 51
51 51 51
51 51 51
51 51 51
51 51 51
51 51 51
51 51 51
51 51 51
51 51 51
51 51 51
51 51 51
51 51 51
51 51 51
51 51 51
51 51 51
51 51 51
51 51 51
51 51 51
51 51 51
51 51 51
51 51 51
51 51 51
51 51 51
51 51 51
51 51 51
51 51 51
51 51 51
51 51 51
51 51 51
51 51 51
51 51 51
51 51 51
51 51 51
51 51 51
51 51 51
51 51 51
51 51 51
51 51 51
51 51 51
51 51 51
51 51 51
51 51 51
51 51 51
51 51 51
51 51 51
51 51 51
51 51 51
51 51 51
51 51 51
51 51 51
51 51 51
51 51 51
51 51 51
51 51 51
51 51 51
51 51 51
51 51 51
51 51 51
51 51 51
51 51 51
51 51 51
131 0 0
130 0 0
130 0 0
130 0 0
130 0 0
130 0 0
129 0 0
129 0 0
129 0 0
129 0 0
128 0 0
128 0 0
128 0 0
128 0 0
127 0 0
127 0 0
127 0 0
127 0 0
126 0 0
126 0 0
126 0 0
125 0 0
125 0 0
125 0 0
125 0 0
124 0 0
124 0 0
124 0 0
0 0 124
0 0 124
0 0 124
0 0 125
0 0 125
0 0 125
0 0 125
0 0 126
0 0 126
0 0 126
0 0 127
0 0 127
0 0 127
0 0 127
0 0 128
0 0 128
0 0 128
51 51 51
51 51 51
51 51 51
51 51 51
51 51 51
51 51 51
51 51 51
51 51 51
51 51 51
51 51 51
51 51 51
51 51 51
51 51 51
51 51 51
51 51 51
51 51 51
51 51 51
51 51 51
51 51 51
51 51 51
51 51 51
51 51 51
51 51 51
51 51 51
51 51 51
51 51 51
51 51 51
51 51 51
51 51 51
51 51 51
51 51 51
51 51 51
51 51 51
51 51 51
51 51 51
51 51 51
51 51 51
51 51 51
51 51 51
51 51 51
51 51 51
51 51 51
51 51 51
51 51 51
51 51 51
51 51 51
51 51 51
51 51 51
51 51 51
51 51 51
51 51 51
51 51 51
51 51 51
51 51 51
51 51 51
51 51 51
51 51 51
51 51 51
51 51 51
51 51 51
51 51 51
51 51 51
51 51 51
51 51 51
51 51 51
51 51 51
51 51 51
51 51 51
51 51 51
51 51 51
51 51 51
51 51 51
51 51 51
51 51 51
51 51 51
51 51 51
51 51 51
51 51 51
51 51 51
51 51 51
51 51 51
51 51 51
51 51 51
51 51 51
51 51 51
51 51 51
51 51 51
51 51 51
51 51 51
51 51 51
51 51 51
51 51 51
51 51 51
51 51 51
51 51 51
51 51 51
51 51 51
51 51 51
51 51 51
51 51 51
51 51 51
51 51 51
51 51 51
51 51 51
51 51 51
51 51 51
51 51 51
51 51 51
51 51 51
51 51 51
51 51 51
51 51 51
51 51 51
51 51 51
51 51 51
51 51 51
51 51 51
51 51 51
51 51 51
51 51 51
51 51 51
51 51 51
51 51 51
51 51 51
51 51 51
51 51 51
51 51 51
51 51 51
51 51 51
51 51 51
51 51 51
51 51 51
51 51 51
51 51 51
51 51 51
51 51 51
51 51 51
51 51 51
51 51 51
51 51 51
51 51 51
51 51 51
51 51 51
51 51 51
51 51 51
51 51 51
51 51 51
51 51 51
51 51 51
51 51 51
51 51 51
51 51 51
51 51 51
51 51 51
51 51 51
51 51 51
130 0 0
130 0 0
130 0 0
130 0 0
130 0 0
129 0 0
129 0 0
129 0 0
129 0 0
128 0 0
128 0 0
128 0 0
128 0 0
127 0 0
127 0 0
127 0 0
127 0 0
126 0 0
126 0 0
126 0 0
126 0 0
125 0 0
125 0 0
125 0 0
124 0 0
124 0 0
124 0 0
0 0 124
0 0 124
0 0 124
0 0 125
0 0 125
0 0 125
0 0 126
0 0 126
0 0 126
0 0 126
0 0 127
0 0 127
0 0 127
0 0 127
0 0 128
0 0 128
0 0 128
51 51 51
51 51 51
51 51 51
51 51 51
51 51 51
51 51 51
51 51 51
51 51 51
51 51 51
51 51 51
51 51 51
51 51 51
51 51 51
51 51 51
51 51 51
51 51 51
51 51 51
51 51 51
51 51 51
51 51 51
51 51 51
51 51 51
51 51 51
51 51 51
51 51 51
51 51 51
51 51 51
51 51 51
51 51 51
51 51 51
51 51 51
51 51 51
51 51 51
51 51 51
51 51 51
51 51 51
51 51 51
51 51 51
51 51 51
51 51 51
51 51 51
51 51 51
51 51 51
51 51 51
51 51 51
51 51 51
51 51 51
51 51 51
51 51 51
51 51 51
51 51 51
51 51 51
51 51 51
51 51 51
51 51 51
51 51 51
51 51 51
51 51 51
51 51 51
51 51 51
51 51 51
51 51 51
51 51 51
51 51 51
51 51 51
51 51 51
51 51 51
51 51 51
51 51 51
51 51 51
51 51 51
51 51 51
51 51 51
51 51 51
51 51 51
51 51 51
51 51 51
51 51 51
51 51 51
51 51 51
51 51 51
51 51 51
51 51 51
51 51 51
51 51 51
51 51 51
51 51 51
51 51 51
51 51 51
51 51 51
51 51 51
51 51 51
51 51 51
51 51 51
51 51 51
51 51 51
51 51 51
51 51 51
51 51 51
51 51 51
51 51 51
51 51 51
51 51 51
51 51 51
51 51 51
51 51 51
51 51 51
51 51 51
51 51 51
51 51 51
51 51 51
51 51 51
51 51 51
51 51 51
51 51 51
51 51 51
51 51 51
51 51 51
51 51 51
51 51 51
51 51 51
51 51 51
51 51 51
51 51 51
51 51 51
51 51 51
51 51 51
51 51 51
51 51 51
51 51 51
51 51 51
51 51 51
51 51 51
51 51 51
51 51 51
51 51 51
51 51 51
51 51 51
51 51 51
51 51 51
51 51 51
51 51 51
51 51 51
51 51 51
51 51 51
51 51 51
51 51 51
51 51 51
51 51 51
51 51 51
51 51 51
51 51 51
51 51 51
51 51 51
51 51 51
51 51 51
131 0 0
130 0 0
130 0 0
130 0 0
130 0 0
129 0 0
129 0 0
129 0 0
129 0 0
129 0 0
128 0 0
128 0 0
128 0 0
128 0 0
127 0 0
127 0 0
127 0 0
127 0 0
126 0 0
126 0 0
126 0 0
125 0 0
125 0 0
125 0 0
124 0 0
124 0 0
124 0 0
0 0 124
0 0 124
0 0 124
0 0 125
0 0 125
0 0 125
0 0 126
0 0 126
0 0 126
0 0 127
0 0 127
0 0 127
0 0 127
0 0 128
0 0 128
0 0 128
0 0 128
51 51 51
51 51 51
51 51 51
51 51 51
51 51 51
51 51 51
51 51 51
51 51 51
51 51 51
51 51 51
51 51 51
51 51 51
51 51 51
51 51 51
51 51 51
51 51 51
51 51 51
51 51 51
51 51 51
51 51 51
51 51 51
51 51 51
51 51 51
51 51 51
51 51 51
51 51 51
51 51 51
51 51 51
51 51 51
51 51 51
51 51 51
51 51 51
51 51 51
51 51 51
51 51 51
51 51 51
51 51 51
51 51 51
51 51 51
51 51 51
51 51 51
51 51 51
51 51 51
51 51 51
51 51 51
51 51 51
51 51 51
51 51 51
51 51 51
51 51 51
51 51 51
51 51 51
51 51 51
51 51 51
51 51 51
51 51 51
51 51 51
51 51 51
51 51 51
51 51 51
51 51 51
51 51 51
51 51 51
51 51 51
51 51 51
51 51 51
51 51 51
51 51 51
51 51 51
51 51 51
51 51 51
51 51 51
51 51 51
51 51 51
51 51 51
51 51 51
51 51 51
51 51 51
51 51 51
51 51 51
51 51 51
51 51 51
51 51 51
51 51 51
51 51 51
51 51 51
51 51 51
51 51 51
51 51 51
51 51 51
51 51 51
51 51 51
51 51 51
51 51 51
51 51 51
51 51 51
51 51 51
51 51 51
51 51 51
51 51 51
51 51 51
51 51 51
51 51 51
51 51 51
51 51 51
51 51 51
51 51 51
51 51 51
51 51 51
51 51 51
51 51 51
51 51 51
51 51 51
51 51 51
51 51 51
51 51 51
51 51 51
51 51 51
51 51 51
51 51 51
51 51 51
51 51 51
51 51 51
51 51 51
51 51 51
51 51 51
51 51 51
51 51 51
51 51 51
51 51 51
51 51 51
51 51 51
51 51 51
51 51 51
51 51 51
51 51 51
51 51 51
51 51 51
51 51 51
51 51 51
51 51 51
51 51 51
51 51 51
51 51 51
51 51 51
51 51 51
51 51 51
51 51 51
51 51 51
51 51 51
51 51 51
51 51 51
51 51 51
51 51 51
51 51 51
51 51 51
51 51 51
130 0 0
130 0 0
130 0 0
130 0 0
130 0 0
129 0 0
129 0 0
129 0 0
129 0 0
128 0 0
128 0 0
128 0 0
128 0 0
127 0 0
127 0 0
127 0 0
127 0 0
126 0 0
126 0 0
126 0 0
125 0 0
125 0 0
125 0 0
125 0 0
124 0 0
124 0 0
0 0 124
0 0 124
0 0 125
0 0 125
0 0 125
0 0 125
0 0 126
0 0 126
0 0 126
0 0 127
0 0 127
0 0 127
0 0 127
0 0 128
0 0 128
0 0 128
51 51 51
51 51 51
51 51 51
51 51 51
51 51 51
51 51 51
51 51 51
51 51 51
51 51 51
51 51 51
51 51 51
51 51 51
51 51 51
51 51 51
51 51 51
51 51 51
51 51 51
51 51 51
51 51 51
51 51 51
51 51 51
51 51 51
51 51 51
51 51 51
51 51 51
51 51 51
51 51 51
51 51 51
51 51 51
51 51 51
51 51 51
51 51 51
51 51 51
51 51 51
51 51 51
51 51 51
51 51 51
51 51 51
51 51 51
51 51 51
51 51 51
51 51 51
51 51 51
51 51 51
51 51 51
51 51 51
51 51 51
51 51 51
51 51 51
51 51 51
51 51 51
51 51 51
51 51 51
51 51 51
51 51 51
51 51 51
51 51 51
51 51 51
51 51 51
51 51 51
51 51 51
51 51 51
51 51 51
51 51 51
51 51 51
51 51 51
51 51 51
51 51 51
51 51 51
51 51 51
51 51 51
51 51 51
51 51 51
51 51 51
51 51 51
51 51 51
51 51 51
51 51 51
51 51 51
51 51 51
51 51 51
51 51 51
51 51 51
51 51 51
51 51 51
51 51 51
51 51 51
51 51 51
51 51 51
51 51 51
51 51 51
51 51 51
51 51 51
51 51 51
51 51 51
51 51 51
51 51 51
51 51 51
51 51 51
51 51 51
51 51 51
51 51 51
51 51 51
51 51 51
51 51 51
51 51 51
51 51 51
51 51 51
51 51 51
51 51 51
51 51 51
51 51 51
51 51 51
51 51 51
51 51 51
51 51 51
51 51 51
51 51 51
51 51 51
51 51 51
51 51 51
51 51 51
51 51 51
51 51 51
51 51 51
51 51 51
51 51 51
51 51 51
51 51 51
51 51 51
51 51 51
51 51 51
51 51 51
51 51 51
51 51 51
51 51 51
51 51 51
51 51 51
51 51 51
51 51 51
51 51 51
51 51 51
51 51 51
51 51 51
51 51 51
51 51 51
51 51 51
51 51 51
51 51 51
51 51 51
51 51 51
51 51 51
51 51 51
51 51 51
51 51 51
51 51 51
51 51 51
51 51 51
130 0 0
130 0 0
130 0 0
130 0 0
130 0 0
129 0 0
129 0 0
129 0 0
129 0 0
128 0 0
128 0 0
128 0 0
128 0 0
127 0 0
127 0 0
127 0 0
127 0 0
126 0 0
126 0 0
126 0 0
126 0 0
125 0 0
125 0 0
125 0 0
124 0 0
124 0 0
0 0 124
0 0 124
0 0 125
0 0 125
0 0 125
0 0 126
0 0 126
0 0 126
0 0 126
0 0 127
0 0 127
0 0 127
0 0 127
0 0 128
0 0 128
0 0 128
51 51 51
51 51 51
51 51 51
51 51 51
51 51 51
51 51 51
51 51 51
51 51 51
51 51 51
51 51 51
51 51 51
51 51 51
51 51 51
51 51 51
51 51 51
51 51 51
51 51 51
51 51 51
51 51 51
51 51 51
51 51 51
51 51 51
51 51 51
51 51 51
51 51 51
51 51 51
51 51 51
51 51 51
51 51 51
51 51 51
51 51 51
51 51 51
51 51 51
51 51 51
51 51 51
51 51 51
51 51 51
51 51 51
51 51 51
51 51 51
51 51 51
51 51 51
51 51 51
51 51 51
51 51 51
51 51 51
51 51 51
51 51 51
51 51 51
51 51 51
51 51 51
51 51 51
51 51 51
51 51 51
51 51 51
51 51 51
51 51 51
51 51 51
51 51 51
51 51 51
51 51 51
51 51 51
51 51 51
51 51 51
51 51 51
51 51 51
51 51 51
51 51 51
51 51 51
51 51 51
51 51 51
51 51 51
51 51 51
51 51 51
51 51 51
51 51 51
51 51 51
51 51 51
51 51 51
51 51 51
51 51 51
51 51 51
51 51 51
51 51 51
51 51 51
51 51 51
51 51 51
51 51 51
51 51 51
51 51 51
51 51 51
51 51 51
51 51 51
51 51 51
51 51 51
51 51 51
51 51 51
51 51 51
51 51 51
51 51 51
51 51 51
51 51 51
51 51 51
51 51 51
51 51 51
51 51 51
51 51 51
51 51 51
51 51 51
51 51 51
51 51 51
51 51 51
51 51 51
51 51 51
51 51 51
51 51 51
51 51 51
51 51 51
51 51 51
51 51 51
51 51 51
51 51 51
51 51 51
51 51 51
51 51 51
51 51 51
51 51 51
51 51 51
51 51 51
51 51 51
51 51 51
51 51 51
51 51 51
51 51 51
51 51 51
51 51 51
51 51 51
51 51 51
51 51 51
51 51 51
51 51 51
51 51 51
51 51 51
51 51 51
51 51 51
51 51 51
51 51 51
51 51 51
51 51 51
51 51 51
51 51 51
51 51 51
51 51 51
51 51 51
51 51 51
51 51 51
51 51 51
51 51 51
51 51 51
130 0 0
130 0 0
130 0 0
130 0 0
129 0 0
129 0 0
129 0 0
129 0 0
129 0 0
128 0 0
128 0 0
128 0 0
128 0 0
127 0 0
127 0 0
127 0 0
127 0 0
126 0 0
126 0 0
126 0 0
125 0 0
125 0 0
125 0 0
125 0 0
124 0 0
0 0 124
0 0 125
0 0 125
0 0 125
0 0 125
0 0 126
0 0 126
0 0 126
0 0 127
0 0 127
0 0 127
0 0 127
0 0 128
0 0 128
0 0 128
0 0 128
51 51 51
51 51 51
51 51 51
51 51 51
51 51 51
51 51 51
51 51 51
51 51 51
51 51 51
51 51 51
51 51 51
51 51 51
51 51 51
51 51 51
51 51 51
51 51 51
51 51 51
51 51 51
51 51 51
51 51 51
51 51 51
51 51 51
51 51 51
51 51 51
51 51 51
51 51 51
51 51 51
51 51 51
51 51 51
51 51 51
51 51 51
51 51 51
51 51 51
51 51 51
51 51 51
51 51 51
51 51 51
51 51 51
51 51 51
51 51 51
51 51 51
51 51 51
51 51 51
51 51 51
51 51 51
51 51 51
51 51 51
51 51 51
51 51 51
51 51 51
51 51 51
51 51 51
51 51 51
51 51 51
51 51 51
51 51 51
51 51 51
51 51 51
51 51 51
51 51 51
51 51 51
51 51 51
51 51 51
51 51 51
51 51 51
51 51 51
51 51 51
51 51 51
51 51 51
51 51 51
51 51 51
51 51 51
51 51 51
51 51 51
51 51 51
51 51 51
51 51 51
51 51 51
51 51 51
51 51 51
51 51 51
51 51 51
51 51 51
51 51 51
51 51 51
51 51 51
51 51 51
51 51 51
51 51 51
51 51 51
51 51 51
51 51 51
51 51 51
51 51 51
51 51 51
51 51 51
51 51 51
51 51 51
51 51 51
51 51 51
51 51 51
51 51 51
51 51 51
51 51 51
51 51 51
51 51 51
51 51 51
51 51 51
51 51 51
51 51 51
51 51 51
51 51 51
51 51 51
51 51 51
51 51 51
51 51 51
51 51 51
51 51 51
51 51 51
51 51 51
51 51 51
51 51 51
51 51 51
51 51 51
51 51 51
51 51 51
51 51 51
51 51 51
51 51 51
51 51 51
51 51 51
51 51 51
51 51 51
51 51 51
51 51 51
51 51 51
51 51 51
51 51 51
51 51 51
51 51 51
51 51 51
51 51 51
51 51 51
51 51 51
51 51 51
51 51 51
51 51 51
51 51 51
51 51 51
51 51 51
51 51 51
51 51 51
51 51 51
51 51 51
51 51 51
51 51 51
51 51 51
51 51 51
51 51 51
130 0 0
130 0 0
130 0 0
130 0 0
130 0 0
129 0 0
129 0 0
129 0 0
129 0 0
128 0 0
128 0 0
128 0 0
128 0 0
127 0 0
127 0 0
127 0 0
127 0 0
126 0 0
126 0 0
126 0 0
126 0 0
125 0 0
125 0 0
125 0 0
124 0 0
0 0 124
0 0 125
0 0 125
0 0 125
0 0 126
0 0 126
0 0 126
0 0 126
0 0 127
0 0 127
0 0 127
0 0 127
0 0 128
0 0 128
0 0 128
51 51 51
51 51 51
51 51 51
51 51 51
51 51 51
51 51 51
51 51 51
51 51 51
51 51 51
51 51 51
51 51 51
51 51 51
51 51 51
51 51 51
51 51 51
51 51 51
51 51 51
51 51 51
51 51 51
51 51 51
51 51 51
51 51 51
51 51 51
51 51 51
51 51 51
51 51 51
51 51 51
51 51 51
51 51 51
51 51 51
51 51 51
51 51 51
51 51 51
51 51 51
51 51 51
51 51 51
51 51 51
51 51 51
51 51 51
51 51 51
51 51 51
51 51 51
51 51 51
51 51 51
51 51 51
51 51 51
51 51 51
51 51 51
51 51 51
51 51 51
51 51 51
51 51 51
51 51 51
51 51 51
51 51 51
51 51 51
51 51 51
51 51 51
51 51 51
51 51 51
51 51 51
51 51 51
51 51 51
51 51 51
51 51 51
51 51 51
51 51 51
51 51 51
51 51 51
51 51 51
51 51 51
51 51 51
51 51 51
51 51 51
51 51 51
51 51 51
51 51 51
51 51 51
51 51 51
51 51 51
51 51 51
51 51 51
51 51 51
51 51 51
51 51 51
51 51 51
51 51 51
51 51 51
51 51 51
51 51 51
51 51 51
51 51 51
51 51 51
51 51 51
51 51 51
51 51 51
51 51 51
51 51 51
51 51 51
51 51 51
51 51 51
51 51 51
51 51 51
51 51 51
51 51 51
51 51 51
51 51 51
51 51 51
51 51 51
51 51 51
51 51 51
51 51 51
51 51 51
51 51 51
51 51 51
51 51 51
51 51 51
51 51 51
51 51 51
51 51 51
51 51 51
51 51 51
51 51 51
51 51 51
51 51 51
51 51 51
51 51 51
51 51 51
51 51 51
51 51 51
51 51 51
51 51 51
51 51 51
51 51 51
51 51 51
51 51 51
51 51 51
51 51 51
51 51 51
51 51 51
51 51 51
51 51 51
51 51 51
51 51 51
51 51 51
51 51 51
51 51 51
51 51 51
51 51 51
51 51 51
51 51 51
51 51 51
51 51 51
51 51 51
51 51 51
51 51 51
51 51 51
51 51 51
51 51 51
51 51 51
51 51 51
130 0 0
130 0 0
130 0 0
130 0 0
129 0 0
129 0 0
129 0 0
129 0 0
128 0 0
128 0 0
128 0 0
128 0 0
127 0 0
127 0 0
127 0 0
127 0 0
126 0 0
126 0 0
126 0 0
126 0 0
125 0 0
125 0 0
125 0 0
124 0 0
0 0 124
0 0 125
0 0 125
0 0 125
0 0 126
0 0 126
0 0 126
0 0 126
0 0 127
0 0 127
0 0 127
0 0 127
0 0 128
0 0 128
0 0 128
51 51 51
51 51 51
51 51 51
51 51 51
51 51 51
51 51 51
51 51 51
51 51 51
51 51 51
51 51 51
51 51 51
51 51 51
51 51 51
51 51 51
51 51 51
51 51 51
51 51 51
51 51 51
51 51 51
51 51 51
51 51 51
51 51 51
51 51 51
51 51 51
51 51 51
51 51 51
51 51 51
51 51 51
51 51 51
51 51 51
51 51 51
51 51 51
51 51 51
51 51 51
51 51 51
51 51 51
51 51 51
51 51 51
51 51 51
51 51 51
51 51 51
51 51 51
51 51 51
51 51 51
51 51 51
51 51 51
51 51 51
51 51 51
51 51 51
51 51 51
51 51 51
51 51 51
51 51 51
51 51 51
51 51 51
51 51 51
51 51 51
51 51 51
51 51 51
51 51 51
51 51 51
51 51 51
51 51 51
51 51 51
51 51 51
51 51 51
51 51 51
51 51 51
51 51 51
51 51 51
51 51 51
51 51 51
51 51 51
51 51 51
51 51 51
51 51 51
51 51 51
51 51 51
51 51 51
51 51 51
51 51 51
51 51 51
51 51 51
51 51 51
51 51 51
51 51 51
51 51 51
51 51 51
51 51 51
51 51 51
51 51 51
51 51 51
51 51 51
51 51 51
51 51 51
51 51 51
51 51 51
51 51 51
51 51 51
51 51 51
51 51 51
51 51 51
51 51 51
51 51 51
51 51 51
51 51 51
51 51 51
51 51 51
51 51 51
51 51 51
51 51 51
51 51 51
51 51 51
51 51 51
51 51 51
51 51 51
51 51 51
51 51 51
51 51 51
51 51 51
51 51 51
51 51 51
51 51 51
51 51 51
51 51 51
51 51 51
51 51 51
51 51 51
51 51 51
51 51 51
51 51 51
51 51 51
51 51 51
51 51 51
51 51 51
51 51 51
51 51 51
51 51 51
51 51 51
51 51 51
51 51 51
51 51 51
51 51 51
51 51 51
51 51 51
51 51 51
51 51 51
51 51 51
51 51 51
51 51 51
51 51 51
51 51 51
51 51 51
51 51 51
51 51 51
51 51 51
51 51 51
51 51 51
51 51 51
51 51 51
51 51 51
130 0 0
130 0 0
130 0 0
130 0 0
129 0 0
129 0 0
129 0 0
129 0 0
129 0 0
128 0 0
128 0 0
128 0 0
128 0 0
127 0 0
127 0 0
127 0 0
127 0 0
126 0 0
126 0 0
126 0 0
125 0 0
125 0 0
125 0 0
125 0 0
0 0 125
0 0 125
0 0 125
0 0 125
0 0 126
0 0 126
0 0 126
0 0 127
0 0 127
0 0 127
0 0 127
0 0 128
0 0 128
0 0 128
0 0 128
51 51 51
51 51 51
51 51 51
51 51 51
51 51 51
51 51 51
51 51 51
51 51 51
51 51 51
51 51 51
51 51 51
51 51 51
51 51 51
51 51 51
51 51 51
51 51 51
51 51 51
51 51 51
51 51 51
51 51 51
51 51 51
51 51 51
51 51 51
51 51 51
51 51 51
51 51 51
51 51 51
51 51 51
51 51 51
51 51 51
51 51 51
51 51 51
51 51 51
51 51 51
51 51 51
51 51 51
51 51 51
51 51 51
51 51 51
51 51 51
51 51 51
51 51 51
51 51 51
51 51 51
51 51 51
51 51 51
51 51 51
51 51 51
51 51 51
51 51 51
51 51 51
51 51 51
51 51 51
51 51 51
51 51 51
51 51 51
51 51 51
51 51 51
51 51 51
51 51 51
51 51 51
51 51 51
51 51 51
51 51 51
51 51 51
51 51 51
51 51 51
51 51 51
51 51 51
51 51 51
51 51 51
51 51 51
51 51 51
51 51 51
51 51 51
51 51 51
51 51 51
51 51 51
51 51 51
51 51 51
51 51 51
51 51 51
51 51 51
51 51 51
51 51 51
51 51 51
51 51 51
51 51 51
51 51 51
51 51 51
51 51 51
51 51 51
51 51 51
51 51 51
51 51 51
51 51 51
51 51 51
51 51 51
51 51 51
51 51 51
51 51 51
51 51 51
51 51 51
51 51 51
51 51 51
51 51 51
51 51 51
51 51 51
51 51 51
51 51 51
51 51 51
51 51 51
51 51 51
51 51 51
51 51 51
51 51 51
51 51 51
51 51 51
51 51 51
51 51 51
51 51 51
51 51 51
51 51 51
51 51 51
51 51 51
51 51 51
51 51 51
51 51 51
51 51 51
51 51 51
51 51 51
51 51 51
51 51 51
51 51 51
51 51 51
51 51 51
51 51 51
51 51 51
51 51 51
51 51 51
51 51 51
51 51 51
51 51 51
51 51 51
51 51 51
51 51 51
51 51 51
51 51 51
51 51 51
51 51 51
51 51 51
51 51 51
51 51 51
51 51 51
51 51 51
51 51 51
51 51 51
51 51 51
51 51 51
51 51 51
51 51 51
51 51 51
130 0 0
130 0 0
130 0 0
129 0 0
129 0 0
129 0 0
129 0 0
129 0 0
128 0 0
128 0 0
128 0 0
128 0 0
127 0 0
127 0 0
127 0 0
127 0 0
126 0 0
126 0 0
126 0 0
126 0 0
125 0 0
125 0 0
125 0 0
0 0 125
0 0 125
0 0 125
0 0 126
0 0 126
0 0 126
0 0 126
0 0 127
0 0 127
0 0 127
0 0 127
0 0 128
0 0 128
0 0 128
51 51 51
51 51 51
51 51 51
51 51 51
51 51 51
51 51 51
51 51 51
51 51 51
51 51 51
51 51 51
51 51 51
51 51 51
51 51 51
51 51 51
51 51 51
51 51 51
51 51 51
51 51 51
51 51 51
51 51 51
51 51 51
51 51 51
51 51 51
51 51 51
51 51 51
51 51 51
51 51 51
51 51 51
51 51 51
51 51 51
51 51 51
51 51 51
51 51 51
51 51 51
51 51 51
51 51 51
51 51 51
51 51 51
51 51 51
51 51 51
51 51 51
51 51 51
51 51 51
51 51 51
51 51 51
51 51 51
51 51 51
51 51 51
51 51 51
51 51 51
51 51 51
51 51 51
51 51 51
51 51 51
51 51 51
51 51 51
51 51 51
51 51 51
51 51 51
51 51 51
51 51 51
51 51 51
51 51 51
51 51 51
51 51 51
51 51 51
51 51 51
51 51 51
51 51 51
51 51 51
51 51 51
51 51 51
51 51 51
51 51 51
51 51 51
51 51 51
51 51 51
51 51 51
51 51 51
51 51 51
51 51 51
51 51 51
51 51 51
51 51 51
51 51 51
51 51 51
51 51 51
51 51 51
51 51 51
51 51 51
51 51 51
51 51 51
51 51 51
51 51 51
51 51 51
51 51 51
51 51 51
51 51 51
51 51 51
51 51 51
51 51 51
51 51 51
51 51 51
51 51 51
51 51 51
51 51 51
51 51 51
51 51 51
51 51 51
51 51 51
51 51 51
51 51 51
51 51 51
51 51 51
51 51 51
51 51 51
51 51 51
51 51 51
51 51 51
51 51 51
51 51 51
51 51 51
51 51 51
51 51 51
51 51 51
51 51 51
51 51 51
51 51 51
51 51 51
51 51 51
51 51 51
51 51 51
51 51 51
51 51 51
51 51 51
51 51 51
51 51 51
51 51 51
51 51 51
51 51 51
51 51 51
51 51 51
51 51 51
51 51 51
51 51 51
51 51 51
51 51 51
51 51 51
51 51 51
51 51 51
51 51 51
51 51 51
51 51 51
51 51 51
51 51 51
51 51 51
51 51 51
51 51 51
51 51 51
51 51 51
51 51 51
51 51 51
51 51 51
130 0 0
130 0 0
130 0 0
130 0 0
129 0 0
129 0 0
129 0 0
129 0 0
128 0 0
128 0 0
128 0 0
128 0 0
127 0 0
127 0 0
127 0 0
127 0 0
126 0 0
126 0 0
126 0 0
126 0 0
125 0 0
125 0 0
125 0 0
0 0 125
0 0 125
0 0 125
0 0 126
0 0 126
0 0 126
0 0 126
0 0 127
0 0 127
0 0 127
0 0 127
0 0 128
0 0 128
0 0 128
51 51 51
51 51 51
51 51 51
51 51 51
51 51 51
51 51 51
51 51 51
51 51 51
51 51 51
51 51 51
51 51 51
51 51 51
51 51 51
51 51 51
51 51 51
51 51 51
51 51 51
51 51 51
51 51 51
51 51 51
51 51 51
51 51 51
51 51 51
51 51 51
51 51 51
51 51 51
51 51 51
51 51 51
51 51 51
51 51 51
51 51 51
51 51 51
51 51 51
51 51 51
51 51 51
51 51 51
51 51 51
51 51 51
51 51 51
51 51 51
51 51 51
51 51 51
51 51 51
51 51 51
51 51 51
51 51 51
51 51 51
51 51 51
51 51 51
51 51 51
51 51 51
51 51 51
51 51 51
51 51 51
51 51 51
51 51 51
51 51 51
51 51 51
51 51 51
51 51 51
51 51 51
51 51 51
51 51 51
51 51 51
51 51 51
51 51 51
51 51 51
51 51 51
51 51 51
51 51 51
51 51 51
51 51 51
51 51 51
51 51 51
51 51 51
51 51 51
51 51 51
51 51 51
51 51 51
51 51 51
51 51 51
51 51 51
51 51 51
51 51 51
51 51 51
51 51 51
